luts/LMT_17StopShaper_to_linear.spi1d
Version 1
From 0.000000 1.000000
Length 4096
Components 1
{
        0.000000000E+0
        4.986171811E-4
        5.000540353E-4
        5.014950301E-4
        5.029401774E-4
        5.043894891E-4
        5.058429773E-4
        5.073006540E-4
        5.087625312E-4
        5.102286211E-4
        5.116989357E-4
        5.131734874E-4
        5.146522882E-4
        5.161353505E-4
        5.176226864E-4
        5.191143084E-4
        5.206102288E-4
        5.221104599E-4
        5.236150142E-4
        5.251239042E-4
        5.266371423E-4
        5.281547410E-4
        5.296767130E-4
        5.312030708E-4
        5.327338271E-4
        5.342689945E-4
        5.358085858E-4
        5.373526137E-4
        5.389010910E-4
        5.404540305E-4
        5.420114451E-4
        5.435733476E-4
        5.451397511E-4
        5.467106684E-4
        5.482861126E-4
        5.498660967E-4
        5.514506338E-4
        5.530397371E-4
        5.546334196E-4
        5.562316946E-4
        5.578345753E-4
        5.594420750E-4
        5.610542070E-4
        5.626709847E-4
        5.642924214E-4
        5.659185305E-4
        5.675493256E-4
        5.691848201E-4
        5.708250276E-4
        5.724699616E-4
        5.741196358E-4
        5.757740638E-4
        5.774332593E-4
        5.790972361E-4
        5.807660080E-4
        5.824395887E-4
        5.841179921E-4
        5.858012322E-4
        5.874893228E-4
        5.891822780E-4
        5.908801117E-4
        5.925828380E-4
        5.942904710E-4
        5.960030249E-4
        5.977205138E-4
        5.994429519E-4
        6.011703536E-4
        6.029027331E-4
        6.046401047E-4
        6.063824829E-4
        6.081298820E-4
        6.098823166E-4
        6.116398012E-4
        6.134023502E-4
        6.151699784E-4
        6.169427003E-4
        6.187205306E-4
        6.205034840E-4
        6.222915754E-4
        6.240848194E-4
        6.258832310E-4
        6.276868250E-4
        6.294956164E-4
        6.313096202E-4
        6.331288514E-4
        6.349533249E-4
        6.367830561E-4
        6.386180599E-4
        6.404583516E-4
        6.423039464E-4
        6.441548597E-4
        6.460111067E-4
        6.478727028E-4
        6.497396634E-4
        6.516120040E-4
        6.534897401E-4
        6.553728872E-4
        6.572614609E-4
        6.591554769E-4
        6.610549509E-4
        6.629598985E-4
        6.648703355E-4
        6.667862779E-4
        6.687077413E-4
        6.706347418E-4
        6.725672953E-4
        6.745054178E-4
        6.764491253E-4
        6.783984340E-4
        6.803533599E-4
        6.823139193E-4
        6.842801285E-4
        6.862520036E-4
        6.882295610E-4
        6.902128171E-4
        6.922017883E-4
        6.941964910E-4
        6.961969419E-4
        6.982031574E-4
        7.002151542E-4
        7.022329489E-4
        7.042565583E-4
        7.062859990E-4
        7.083212880E-4
        7.103624419E-4
        7.124094779E-4
        7.144624127E-4
        7.165212634E-4
        7.185860471E-4
        7.206567808E-4
        7.227334817E-4
        7.248161670E-4
        7.269048539E-4
        7.289995598E-4
        7.311003019E-4
        7.332070977E-4
        7.353199645E-4
        7.374389200E-4
        7.395639816E-4
        7.416951670E-4
        7.438324938E-4
        7.459759796E-4
        7.481256423E-4
        7.502814996E-4
        7.524435695E-4
        7.546118697E-4
        7.567864182E-4
        7.589672331E-4
        7.611543324E-4
        7.633477342E-4
        7.655474567E-4
        7.677535181E-4
        7.699659366E-4
        7.721847306E-4
        7.744099185E-4
        7.766415187E-4
        7.788795496E-4
        7.811240298E-4
        7.833749778E-4
        7.856324124E-4
        7.878963521E-4
        7.901668158E-4
        7.924438223E-4
        7.947273903E-4
        7.970175389E-4
        7.993142869E-4
        8.016176535E-4
        8.039276575E-4
        8.062443183E-4
        8.085676550E-4
        8.108976867E-4
        8.132344329E-4
        8.155779128E-4
        8.179281458E-4
        8.202851515E-4
        8.226489493E-4
        8.250195588E-4
        8.273969997E-4
        8.297812915E-4
        8.321724541E-4
        8.345705073E-4
        8.369754709E-4
        8.393873649E-4
        8.418062091E-4
        8.442320237E-4
        8.466648286E-4
        8.491046442E-4
        8.515514905E-4
        8.540053878E-4
        8.564663565E-4
        8.589344169E-4
        8.614095894E-4
        8.638918946E-4
        8.663813530E-4
        8.688779853E-4
        8.713818120E-4
        8.738928539E-4
        8.764111319E-4
        8.789366667E-4
        8.814694793E-4
        8.840095906E-4
        8.865570217E-4
        8.891117938E-4
        8.916739278E-4
        8.942434451E-4
        8.968203669E-4
        8.994047145E-4
        9.019965095E-4
        9.045957731E-4
        9.072025270E-4
        9.098167927E-4
        9.124385919E-4
        9.150679462E-4
        9.177048775E-4
        9.203494076E-4
        9.230015584E-4
        9.256613519E-4
        9.283288100E-4
        9.310039548E-4
        9.336868086E-4
        9.363773935E-4
        9.390757317E-4
        9.417818458E-4
        9.444957579E-4
        9.472174907E-4
        9.499470667E-4
        9.526845084E-4
        9.554298385E-4
        9.581830798E-4
        9.609442551E-4
        9.637133872E-4
        9.664904990E-4
        9.692756135E-4
        9.720687539E-4
        9.748699432E-4
        9.776792046E-4
        9.804965614E-4
        9.833220370E-4
        9.861556546E-4
        9.889974378E-4
        9.918474101E-4
        9.947055951E-4
        9.975720165E-4
        1.000446698E-3
        1.003329663E-3
        1.006220937E-3
        1.009120541E-3
        1.012028502E-3
        1.014944843E-3
        1.017869587E-3
        1.020802759E-3
        1.023744384E-3
        1.026694486E-3
        1.029653089E-3
        1.032620218E-3
        1.035595897E-3
        1.038580151E-3
        1.041573005E-3
        1.044574483E-3
        1.047584611E-3
        1.050603413E-3
        1.053630913E-3
        1.056667139E-3
        1.059712113E-3
        1.062765862E-3
        1.065828412E-3
        1.068899786E-3
        1.071980011E-3
        1.075069113E-3
        1.078167116E-3
        1.081274046E-3
        1.084389930E-3
        1.087514793E-3
        1.090648661E-3
        1.093791559E-3
        1.096943514E-3
        1.100104552E-3
        1.103274700E-3
        1.106453982E-3
        1.109642427E-3
        1.112840059E-3
        1.116046906E-3
        1.119262994E-3
        1.122488350E-3
        1.125723000E-3
        1.128966971E-3
        1.132220291E-3
        1.135482985E-3
        1.138755082E-3
        1.142036607E-3
        1.145327589E-3
        1.148628055E-3
        1.151938031E-3
        1.155257546E-3
        1.158586626E-3
        1.161925300E-3
        1.165273595E-3
        1.168631538E-3
        1.171999158E-3
        1.175376483E-3
        1.178763539E-3
        1.182160356E-3
        1.185566962E-3
        1.188983384E-3
        1.192409652E-3
        1.195845793E-3
        1.199291835E-3
        1.202747809E-3
        1.206213741E-3
        1.209689660E-3
        1.213175597E-3
        1.216671578E-3
        1.220177634E-3
        1.223693793E-3
        1.227220085E-3
        1.230756538E-3
        1.234303183E-3
        1.237860047E-3
        1.241427162E-3
        1.245004555E-3
        1.248592257E-3
        1.252190299E-3
        1.255798708E-3
        1.259417516E-3
        1.263046752E-3
        1.266686446E-3
        1.270336629E-3
        1.273997330E-3
        1.277668580E-3
        1.281350410E-3
        1.285042849E-3
        1.288745929E-3
        1.292459680E-3
        1.296184133E-3
        1.299919318E-3
        1.303665268E-3
        1.307422011E-3
        1.311189581E-3
        1.314968007E-3
        1.318757322E-3
        1.322557556E-3
        1.326368741E-3
        1.330190909E-3
        1.334024091E-3
        1.337868319E-3
        1.341723625E-3
        1.345590041E-3
        1.349467598E-3
        1.353356329E-3
        1.357256267E-3
        1.361167443E-3
        1.365089889E-3
        1.369023639E-3
        1.372968724E-3
        1.376925178E-3
        1.380893033E-3
        1.384872323E-3
        1.388863079E-3
        1.392865335E-3
        1.396879125E-3
        1.400904481E-3
        1.404941437E-3
        1.408990026E-3
        1.413050282E-3
        1.417122238E-3
        1.421205928E-3
        1.425301386E-3
        1.429408646E-3
        1.433527742E-3
        1.437658707E-3
        1.441801577E-3
        1.445956385E-3
        1.450123166E-3
        1.454301954E-3
        1.458492785E-3
        1.462695691E-3
        1.466910710E-3
        1.471137874E-3
        1.475377220E-3
        1.479628782E-3
        1.483892596E-3
        1.488168697E-3
        1.492457120E-3
        1.496757901E-3
        1.501071076E-3
        1.505396680E-3
        1.509734748E-3
        1.514085318E-3
        1.518448425E-3
        1.522824104E-3
        1.527212393E-3
        1.531613328E-3
        1.536026945E-3
        1.540453280E-3
        1.544892370E-3
        1.549344253E-3
        1.553808965E-3
        1.558286542E-3
        1.562777022E-3
        1.567280443E-3
        1.571796840E-3
        1.576326253E-3
        1.580868718E-3
        1.585424273E-3
        1.589992955E-3
        1.594574803E-3
        1.599169855E-3
        1.603778148E-3
        1.608399720E-3
        1.613034610E-3
        1.617682857E-3
        1.622344498E-3
        1.627019573E-3
        1.631708120E-3
        1.636410177E-3
        1.641125785E-3
        1.645854981E-3
        1.650597806E-3
        1.655354297E-3
        1.660124496E-3
        1.664908440E-3
        1.669706170E-3
        1.674517726E-3
        1.679343147E-3
        1.684182474E-3
        1.689035746E-3
        1.693903003E-3
        1.698784286E-3
        1.703679636E-3
        1.708589092E-3
        1.713512696E-3
        1.718450488E-3
        1.723402509E-3
        1.728368801E-3
        1.733349403E-3
        1.738344359E-3
        1.743353708E-3
        1.748377492E-3
        1.753415753E-3
        1.758468533E-3
        1.763535873E-3
        1.768617816E-3
        1.773714403E-3
        1.778825678E-3
        1.783951681E-3
        1.789092455E-3
        1.794248044E-3
        1.799418489E-3
        1.804603834E-3
        1.809804122E-3
        1.815019395E-3
        1.820249696E-3
        1.825495070E-3
        1.830755560E-3
        1.836031208E-3
        1.841322059E-3
        1.846628156E-3
        1.851949544E-3
        1.857286267E-3
        1.862638368E-3
        1.868005893E-3
        1.873388884E-3
        1.878787388E-3
        1.884201449E-3
        1.889631111E-3
        1.895076420E-3
        1.900537420E-3
        1.906014157E-3
        1.911506676E-3
        1.917015023E-3
        1.922539244E-3
        1.928079383E-3
        1.933635487E-3
        1.939207603E-3
        1.944795775E-3
        1.950400050E-3
        1.956020475E-3
        1.961657097E-3
        1.967309961E-3
        1.972979116E-3
        1.978664606E-3
        1.984366481E-3
        1.990084786E-3
        1.995819570E-3
        2.001570880E-3
        2.007338763E-3
        2.013123267E-3
        2.018924441E-3
        2.024742331E-3
        2.030576987E-3
        2.036428456E-3
        2.042296788E-3
        2.048182030E-3
        2.054084231E-3
        2.060003441E-3
        2.065939708E-3
        2.071893081E-3
        2.077863610E-3
        2.083851344E-3
        2.089856333E-3
        2.095878627E-3
        2.101918274E-3
        2.107975326E-3
        2.114049833E-3
        2.120141844E-3
        2.126251410E-3
        2.132378583E-3
        2.138523411E-3
        2.144685948E-3
        2.150866242E-3
        2.157064346E-3
        2.163280312E-3
        2.169514189E-3
        2.175766031E-3
        2.182035888E-3
        2.188323814E-3
        2.194629858E-3
        2.200954075E-3
        2.207296517E-3
        2.213657235E-3
        2.220036283E-3
        2.226433713E-3
        2.232849578E-3
        2.239283932E-3
        2.245736827E-3
        2.252208318E-3
        2.258698458E-3
        2.265207300E-3
        2.271734898E-3
        2.278281307E-3
        2.284846580E-3
        2.291430773E-3
        2.298033939E-3
        2.304656133E-3
        2.311297410E-3
        2.317957826E-3
        2.324637434E-3
        2.331336291E-3
        2.338054452E-3
        2.344791972E-3
        2.351548908E-3
        2.358325315E-3
        2.365121250E-3
        2.371936768E-3
        2.378771926E-3
        2.385626782E-3
        2.392501390E-3
        2.399395809E-3
        2.406310096E-3
        2.413244307E-3
        2.420198500E-3
        2.427172733E-3
        2.434167064E-3
        2.441181550E-3
        2.448216250E-3
        2.455271221E-3
        2.462346522E-3
        2.469442213E-3
        2.476558350E-3
        2.483694994E-3
        2.490852204E-3
        2.498030038E-3
        2.505228557E-3
        2.512447819E-3
        2.519687885E-3
        2.526948815E-3
        2.534230668E-3
        2.541533505E-3
        2.548857387E-3
        2.556202374E-3
        2.563568526E-3
        2.570955906E-3
        2.578364573E-3
        2.585794590E-3
        2.593246018E-3
        2.600718918E-3
        2.608213353E-3
        2.615729385E-3
        2.623267075E-3
        2.630826486E-3
        2.638407681E-3
        2.646010723E-3
        2.653635675E-3
        2.661282598E-3
        2.668951558E-3
        2.676642618E-3
        2.684355840E-3
        2.692091290E-3
        2.699849031E-3
        2.707629127E-3
        2.715431642E-3
        2.723256642E-3
        2.731104192E-3
        2.738974355E-3
        2.746867197E-3
        2.754782785E-3
        2.762721182E-3
        2.770682455E-3
        2.778666670E-3
        2.786673894E-3
        2.794704191E-3
        2.802757629E-3
        2.810834274E-3
        2.818934194E-3
        2.827057455E-3
        2.835204125E-3
        2.843374271E-3
        2.851567960E-3
        2.859785261E-3
        2.868026242E-3
        2.876290971E-3
        2.884579515E-3
        2.892891945E-3
        2.901228329E-3
        2.909588735E-3
        2.917973233E-3
        2.926381893E-3
        2.934814784E-3
        2.943271976E-3
        2.951753538E-3
        2.960259542E-3
        2.968790057E-3
        2.977345155E-3
        2.985924905E-3
        2.994529380E-3
        3.003158650E-3
        3.011812786E-3
        3.020491861E-3
        3.029195947E-3
        3.037925115E-3
        3.046679437E-3
        3.055458987E-3
        3.064263836E-3
        3.073094058E-3
        3.081949726E-3
        3.090830913E-3
        3.099737693E-3
        3.108670140E-3
        3.117628327E-3
        3.126612328E-3
        3.135622219E-3
        3.144658073E-3
        3.153719965E-3
        3.162807971E-3
        3.171922166E-3
        3.181062624E-3
        3.190229423E-3
        3.199422638E-3
        3.208642344E-3
        3.217888618E-3
        3.227161538E-3
        3.236461179E-3
        3.245787618E-3
        3.255140934E-3
        3.264521202E-3
        3.273928501E-3
        3.283362910E-3
        3.292824505E-3
        3.302313365E-3
        3.311829570E-3
        3.321373197E-3
        3.330944325E-3
        3.340543035E-3
        3.350169405E-3
        3.359823515E-3
        3.369505445E-3
        3.379215275E-3
        3.388953086E-3
        3.398718958E-3
        3.408512972E-3
        3.418335209E-3
        3.428185751E-3
        3.438064679E-3
        3.447972075E-3
        3.457908021E-3
        3.467872599E-3
        3.477865892E-3
        3.487887982E-3
        3.497938953E-3
        3.508018887E-3
        3.518127868E-3
        3.528265980E-3
        3.538433307E-3
        3.548629933E-3
        3.558855943E-3
        3.569111420E-3
        3.579396451E-3
        3.589711119E-3
        3.600055511E-3
        3.610429713E-3
        3.620833809E-3
        3.631267887E-3
        3.641732032E-3
        3.652226332E-3
        3.662750873E-3
        3.673305742E-3
        3.683891027E-3
        3.694506815E-3
        3.705153195E-3
        3.715830254E-3
        3.726538081E-3
        3.737276764E-3
        3.748046393E-3
        3.758847056E-3
        3.769678844E-3
        3.780541845E-3
        3.791436150E-3
        3.802361849E-3
        3.813319032E-3
        3.824307790E-3
        3.835328214E-3
        3.846380396E-3
        3.857464426E-3
        3.868580397E-3
        3.879728401E-3
        3.890908529E-3
        3.902120875E-3
        3.913365532E-3
        3.924642592E-3
        3.935952149E-3
        3.947294296E-3
        3.958669128E-3
        3.970076738E-3
        3.981517221E-3
        3.992990673E-3
        4.004497187E-3
        4.016036859E-3
        4.027609784E-3
        4.039216060E-3
        4.050855780E-3
        4.062529043E-3
        4.074235944E-3
        4.085976581E-3
        4.097751050E-3
        4.109559450E-3
        4.121401878E-3
        4.133278431E-3
        4.145189210E-3
        4.157134311E-3
        4.169113834E-3
        4.181127878E-3
        4.193176543E-3
        4.205259928E-3
        4.217378134E-3
        4.229531261E-3
        4.241719408E-3
        4.253942679E-3
        4.266201172E-3
        4.278494991E-3
        4.290824237E-3
        4.303189011E-3
        4.315589417E-3
        4.328025557E-3
        4.340497533E-3
        4.353005450E-3
        4.365549411E-3
        4.378129519E-3
        4.390745880E-3
        4.403398596E-3
        4.416087774E-3
        4.428813517E-3
        4.441575933E-3
        4.454375125E-3
        4.467211200E-3
        4.480084265E-3
        4.492994426E-3
        4.505941790E-3
        4.518926464E-3
        4.531948556E-3
        4.545008173E-3
        4.558105424E-3
        4.571240417E-3
        4.584413260E-3
        4.597624064E-3
        4.610872937E-3
        4.624159989E-3
        4.637485329E-3
        4.650849070E-3
        4.664251320E-3
        4.677692191E-3
        4.691171794E-3
        4.704690242E-3
        4.718247645E-3
        4.731844116E-3
        4.745479768E-3
        4.759154713E-3
        4.772869065E-3
        4.786622938E-3
        4.800416445E-3
        4.814249700E-3
        4.828122818E-3
        4.842035914E-3
        4.855989103E-3
        4.869982501E-3
        4.884016223E-3
        4.898090386E-3
        4.912205106E-3
        4.926360500E-3
        4.940556686E-3
        4.954793780E-3
        4.969071901E-3
        4.983391167E-3
        4.997751697E-3
        5.012153608E-3
        5.026597022E-3
        5.041082057E-3
        5.055608833E-3
        5.070177471E-3
        5.084788090E-3
        5.099440813E-3
        5.114135760E-3
        5.128873054E-3
        5.143652815E-3
        5.158475167E-3
        5.173340232E-3
        5.188248134E-3
        5.203198995E-3
        5.218192940E-3
        5.233230093E-3
        5.248310577E-3
        5.263434519E-3
        5.278602044E-3
        5.293813276E-3
        5.309068342E-3
        5.324367368E-3
        5.339710481E-3
        5.355097808E-3
        5.370529477E-3
        5.386005614E-3
        5.401526349E-3
        5.417091810E-3
        5.432702125E-3
        5.448357424E-3
        5.464057836E-3
        5.479803492E-3
        5.495594523E-3
        5.511431057E-3
        5.527313228E-3
        5.543241166E-3
        5.559215002E-3
        5.575234871E-3
        5.591300903E-3
        5.607413233E-3
        5.623571993E-3
        5.639777318E-3
        5.656029341E-3
        5.672328197E-3
        5.688674022E-3
        5.705066949E-3
        5.721507116E-3
        5.737994658E-3
        5.754529712E-3
        5.771112415E-3
        5.787742903E-3
        5.804421316E-3
        5.821147790E-3
        5.837922464E-3
        5.854745478E-3
        5.871616970E-3
        5.888537080E-3
        5.905505949E-3
        5.922523716E-3
        5.939590524E-3
        5.956706512E-3
        5.973871823E-3
        5.991086599E-3
        6.008350982E-3
        6.025665116E-3
        6.043029144E-3
        6.060443209E-3
        6.077907456E-3
        6.095422029E-3
        6.112987073E-3
        6.130602735E-3
        6.148269159E-3
        6.165986492E-3
        6.183754880E-3
        6.201574472E-3
        6.219445413E-3
        6.237367853E-3
        6.255341940E-3
        6.273367822E-3
        6.291445649E-3
        6.309575571E-3
        6.327757737E-3
        6.345992298E-3
        6.364279406E-3
        6.382619211E-3
        6.401011865E-3
        6.419457521E-3
        6.437956331E-3
        6.456508450E-3
        6.475114029E-3
        6.493773224E-3
        6.512486188E-3
        6.531253077E-3
        6.550074047E-3
        6.568949252E-3
        6.587878850E-3
        6.606862996E-3
        6.625901849E-3
        6.644995566E-3
        6.664144304E-3
        6.683348223E-3
        6.702607482E-3
        6.721922239E-3
        6.741292656E-3
        6.760718892E-3
        6.780201108E-3
        6.799739465E-3
        6.819334126E-3
        6.838985252E-3
        6.858693006E-3
        6.878457552E-3
        6.898279053E-3
        6.918157673E-3
        6.938093577E-3
        6.958086930E-3
        6.978137897E-3
        6.998246645E-3
        7.018413339E-3
        7.038638147E-3
        7.058921237E-3
        7.079262776E-3
        7.099662933E-3
        7.120121877E-3
        7.140639777E-3
        7.161216802E-3
        7.181853124E-3
        7.202548914E-3
        7.223304342E-3
        7.244119580E-3
        7.264994801E-3
        7.285930178E-3
        7.306925884E-3
        7.327982092E-3
        7.349098978E-3
        7.370276716E-3
        7.391515482E-3
        7.412815451E-3
        7.434176799E-3
        7.455599704E-3
        7.477084343E-3
        7.498630893E-3
        7.520239534E-3
        7.541910444E-3
        7.563643803E-3
        7.585439790E-3
        7.607298586E-3
        7.629220372E-3
        7.651205330E-3
        7.673253641E-3
        7.695365489E-3
        7.717541055E-3
        7.739780525E-3
        7.762084081E-3
        7.784451909E-3
        7.806884194E-3
        7.829381122E-3
        7.851942879E-3
        7.874569651E-3
        7.897261626E-3
        7.920018993E-3
        7.942841938E-3
        7.965730653E-3
        7.988685325E-3
        8.011706145E-3
        8.034793303E-3
        8.057946992E-3
        8.081167401E-3
        8.104454725E-3
        8.127809155E-3
        8.151230885E-3
        8.174720109E-3
        8.198277022E-3
        8.221901818E-3
        8.245594692E-3
        8.269355843E-3
        8.293185465E-3
        8.317083756E-3
        8.341050915E-3
        8.365087139E-3
        8.389192628E-3
        8.413367581E-3
        8.437612199E-3
        8.461926681E-3
        8.486311231E-3
        8.510766048E-3
        8.535291337E-3
        8.559887300E-3
        8.584554140E-3
        8.609292062E-3
        8.634101271E-3
        8.658981972E-3
        8.683934371E-3
        8.708958675E-3
        8.734055091E-3
        8.759223827E-3
        8.784465091E-3
        8.809779092E-3
        8.835166040E-3
        8.860626145E-3
        8.886159618E-3
        8.911766670E-3
        8.937447513E-3
        8.963202361E-3
        8.989031425E-3
        9.014934921E-3
        9.040913062E-3
        9.066966063E-3
        9.093094141E-3
        9.119297512E-3
        9.145576393E-3
        9.171931000E-3
        9.198361554E-3
        9.224868271E-3
        9.251451373E-3
        9.278111078E-3
        9.304847608E-3
        9.331661184E-3
        9.358552028E-3
        9.385520363E-3
        9.412566412E-3
        9.439690399E-3
        9.466892549E-3
        9.494173087E-3
        9.521532238E-3
        9.548970229E-3
        9.576487288E-3
        9.604083642E-3
        9.631759520E-3
        9.659515152E-3
        9.687350765E-3
        9.715266592E-3
        9.743262864E-3
        9.771339812E-3
        9.799497668E-3
        9.827736667E-3
        9.856057041E-3
        9.884459025E-3
