luts/LMT_Power_20.spi1d
Version 1
From 0.000000 1.000000
Length 4096
Components 1
{
        0.000000000E+0
        5.963375927E-8
        2.385350371E-7
        5.367038334E-7
        9.541401483E-7
        1.490843982E-6
        2.146815334E-6
        2.922054204E-6
        3.816560593E-6
        4.830334501E-6
        5.963375927E-6
        7.215684871E-6
        8.587261335E-6
        1.007810532E-5
        1.168821682E-5
        1.341759584E-5
        1.526624237E-5
        1.723415643E-5
        1.932133800E-5
        2.152778710E-5
        2.385350371E-5
        2.629848784E-5
        2.886273949E-5
        3.154625865E-5
        3.434904534E-5
        3.727109954E-5
        4.031242126E-5
        4.347301051E-5
        4.675286727E-5
        5.015199154E-5
        5.367038334E-5
        5.730804266E-5
        6.106496949E-5
        6.494116384E-5
        6.893662571E-5
        7.305135510E-5
        7.728535201E-5
        8.163861644E-5
        8.611114838E-5
        9.070294785E-5
        9.541401483E-5
        1.002443493E-4
        1.051939513E-4
        1.102628209E-4
        1.154509579E-4
        1.207583625E-4
        1.261850346E-4
        1.317309742E-4
        1.373961814E-4
        1.431806560E-4
        1.490843982E-4
        1.551074079E-4
        1.612496851E-4
        1.675112298E-4
        1.738920420E-4
        1.803921218E-4
        1.870114691E-4
        1.937500839E-4
        2.006079662E-4
        2.075851160E-4
        2.146815334E-4
        2.218972182E-4
        2.292321706E-4
        2.366863905E-4
        2.442598780E-4
        2.519526329E-4
        2.597646554E-4
        2.676959454E-4
        2.757465029E-4
        2.839163279E-4
        2.922054204E-4
        3.006137805E-4
        3.091414080E-4
        3.177883031E-4
        3.265544657E-4
        3.354398959E-4
        3.444445935E-4
        3.535685587E-4
        3.628117914E-4
        3.721742916E-4
        3.816560593E-4
        3.912570946E-4
        4.009773973E-4
        4.108169676E-4
        4.207758054E-4
        4.308539107E-4
        4.410512835E-4
        4.513679239E-4
        4.618038318E-4
        4.723590072E-4
        4.830334501E-4
        4.938271605E-4
        5.047401384E-4
        5.157723839E-4
        5.269238969E-4
        5.381946774E-4
        5.495847254E-4
        5.610940409E-4
        5.727226240E-4
        5.844704746E-4
        5.963375927E-4
        6.083239783E-4
        6.204296314E-4
        6.326545521E-4
        6.449987402E-4
        6.574621959E-4
        6.700449191E-4
        6.827469099E-4
        6.955681681E-4
        7.085086939E-4
        7.215684871E-4
        7.347475479E-4
        7.480458763E-4
        7.614634721E-4
        7.750003354E-4
        7.886564663E-4
        8.024318647E-4
        8.163265306E-4
        8.303404640E-4
        8.444736650E-4
        8.587261335E-4
        8.730978694E-4
        8.875888729E-4
        9.021991440E-4
        9.169286825E-4
        9.317774886E-4
        9.467455621E-4
        9.618329032E-4
        9.770395118E-4
        9.923653880E-4
        1.007810532E-3
        1.023374943E-3
        1.039058621E-3
        1.054861568E-3
        1.070783781E-3
        1.086825263E-3
        1.102986011E-3
        1.119266028E-3
        1.135665311E-3
        1.152183863E-3
        1.168821682E-3
        1.185578768E-3
        1.202455122E-3
        1.219450743E-3
        1.236565632E-3
        1.253799789E-3
        1.271153213E-3
        1.288625904E-3
        1.306217863E-3
        1.323929089E-3
        1.341759584E-3
        1.359709345E-3
        1.377778374E-3
        1.395966671E-3
        1.414274235E-3
        1.432701066E-3
        1.451247166E-3
        1.469912532E-3
        1.488697166E-3
        1.507601068E-3
        1.526624237E-3
        1.545766674E-3
        1.565028378E-3
        1.584409350E-3
        1.603909589E-3
        1.623529096E-3
        1.643267870E-3
        1.663125912E-3
        1.683103222E-3
        1.703199798E-3
        1.723415643E-3
        1.743750755E-3
        1.764205134E-3
        1.784778781E-3
        1.805471696E-3
        1.826283878E-3
        1.847215327E-3
        1.868266044E-3
        1.889436029E-3
        1.910725281E-3
        1.932133800E-3
        1.953661587E-3
        1.975308642E-3
        1.997074964E-3
        2.018960554E-3
        2.040965411E-3
        2.063089536E-3
        2.085332928E-3
        2.107695588E-3
        2.130177515E-3
        2.152778710E-3
        2.175499172E-3
        2.198338902E-3
        2.221297899E-3
        2.244376164E-3
        2.267573696E-3
        2.290890496E-3
        2.314326563E-3
        2.337881898E-3
        2.361556501E-3
        2.385350371E-3
        2.409263508E-3
        2.433295913E-3
        2.457447586E-3
        2.481718526E-3
        2.506108733E-3
        2.530618208E-3
        2.555246951E-3
        2.579994961E-3
        2.604862239E-3
        2.629848784E-3
        2.654954596E-3
        2.680179677E-3
        2.705524024E-3
        2.730987639E-3
        2.756570522E-3
        2.782272672E-3
        2.808094090E-3
        2.834034775E-3
        2.860094728E-3
        2.886273949E-3
        2.912572436E-3
        2.938990192E-3
        2.965527215E-3
        2.992183505E-3
        3.018959063E-3
        3.045853888E-3
        3.072867981E-3
        3.100001342E-3
        3.127253970E-3
        3.154625865E-3
        3.182117028E-3
        3.209727459E-3
        3.237457157E-3
        3.265306122E-3
        3.293274356E-3
        3.321361856E-3
        3.349568624E-3
        3.377894660E-3
        3.406339963E-3
        3.434904534E-3
        3.463588372E-3
        3.492391478E-3
        3.521313851E-3
        3.550355492E-3
        3.579516400E-3
        3.608796576E-3
        3.638196019E-3
        3.667714730E-3
        3.697352708E-3
        3.727109954E-3
        3.756986468E-3
        3.786982249E-3
        3.817097297E-3
        3.847331613E-3
        3.877685196E-3
        3.908158047E-3
        3.938750166E-3
        3.969461552E-3
        4.000292205E-3
        4.031242126E-3
        4.062311315E-3
        4.093499771E-3
        4.124807495E-3
        4.156234486E-3
        4.187780745E-3
        4.219446271E-3
        4.251231064E-3
        4.283135126E-3
        4.315158454E-3
        4.347301051E-3
        4.379562914E-3
        4.411944046E-3
        4.444444444E-3
        4.477064111E-3
        4.509803045E-3
        4.542661246E-3
        4.575638715E-3
        4.608735451E-3
        4.641951455E-3
        4.675286727E-3
        4.708741266E-3
        4.742315072E-3
        4.776008146E-3
        4.809820487E-3
        4.843752096E-3
        4.877802973E-3
        4.911973117E-3
        4.946262529E-3
        4.980671208E-3
        5.015199154E-3
        5.049846369E-3
        5.084612850E-3
        5.119498599E-3
        5.154503616E-3
        5.189627900E-3
        5.224871452E-3
        5.260234271E-3
        5.295716358E-3
        5.331317712E-3
        5.367038334E-3
        5.402878223E-3
        5.438837380E-3
        5.474915805E-3
        5.511113496E-3
        5.547430456E-3
        5.583866683E-3
        5.620422177E-3
        5.657096939E-3
        5.693890969E-3
        5.730804266E-3
        5.767836830E-3
        5.804988662E-3
        5.842259762E-3
        5.879650129E-3
        5.917159763E-3
        5.954788665E-3
        5.992536835E-3
        6.030404272E-3
        6.068390977E-3
        6.106496949E-3
        6.144722189E-3
        6.183066696E-3
        6.221530471E-3
        6.260113513E-3
        6.298815823E-3
        6.337637400E-3
        6.376578245E-3
        6.415638357E-3
        6.454817737E-3
        6.494116384E-3
        6.533534299E-3
        6.573071481E-3
        6.612727931E-3
        6.652503649E-3
        6.692398634E-3
        6.732412886E-3
        6.772546406E-3
        6.812799194E-3
        6.853171249E-3
        6.893662571E-3
        6.934273161E-3
        6.975003019E-3
        7.015852144E-3
        7.056820537E-3
        7.097908197E-3
        7.139115124E-3
        7.180441320E-3
        7.221886782E-3
        7.263451513E-3
        7.305135510E-3
        7.346938776E-3
        7.388861308E-3
        7.430903109E-3
        7.473064176E-3
        7.515344512E-3
        7.557744115E-3
        7.600262985E-3
        7.642901123E-3
        7.685658528E-3
        7.728535201E-3
        7.771531141E-3
        7.814646349E-3
        7.857880825E-3
        7.901234568E-3
        7.944707578E-3
        7.988299856E-3
        8.032011402E-3
        8.075842215E-3
        8.119792296E-3
        8.163861644E-3
        8.208050259E-3
        8.252358142E-3
        8.296785293E-3
        8.341331711E-3
        8.385997397E-3
        8.430782350E-3
        8.475686571E-3
        8.520710059E-3
        8.565852815E-3
        8.611114838E-3
        8.656496129E-3
        8.701996687E-3
        8.747616513E-3
        8.793355607E-3
        8.839213967E-3
        8.885191596E-3
        8.931288492E-3
        8.977504655E-3
        9.023840086E-3
        9.070294785E-3
        9.116868751E-3
        9.163561984E-3
        9.210374485E-3
        9.257306254E-3
        9.304357290E-3
        9.351527593E-3
        9.398817164E-3
        9.446226003E-3
        9.493754109E-3
        9.541401483E-3
        9.589168124E-3
        9.637054033E-3
        9.685059209E-3
        9.733183653E-3
        9.781427364E-3
        9.829790343E-3
        9.878272589E-3
        9.926874103E-3
        9.975594884E-3
        1.002443493E-2
        1.007339425E-2
        1.012247283E-2
        1.017167068E-2
        1.022098780E-2
        1.027042419E-2
        1.031997984E-2
        1.036965477E-2
        1.041944895E-2
        1.046936241E-2
        1.051939513E-2
        1.056954713E-2
        1.061981839E-2
        1.067020891E-2
        1.072071871E-2
        1.077134777E-2
        1.082209610E-2
        1.087296369E-2
        1.092395056E-2
        1.097505669E-2
        1.102628209E-2
        1.107762676E-2
        1.112909069E-2
        1.118067389E-2
        1.123237636E-2
        1.128419810E-2
        1.133613910E-2
        1.138819937E-2
        1.144037891E-2
        1.149267772E-2
        1.154509579E-2
        1.159763314E-2
        1.165028975E-2
        1.170306562E-2
        1.175596077E-2
        1.180897518E-2
        1.186210886E-2
        1.191536181E-2
        1.196873402E-2
        1.202222550E-2
        1.207583625E-2
        1.212956627E-2
        1.218341555E-2
        1.223738411E-2
        1.229147193E-2
        1.234567901E-2
        1.240000537E-2
        1.245445099E-2
        1.250901588E-2
        1.256370004E-2
        1.261850346E-2
        1.267342615E-2
        1.272846811E-2
        1.278362934E-2
        1.283890984E-2
        1.289430960E-2
        1.294982863E-2
        1.300546692E-2
        1.306122449E-2
        1.311710132E-2
        1.317309742E-2
        1.322921279E-2
        1.328544742E-2
        1.334180133E-2
        1.339827450E-2
        1.345486693E-2
        1.351157864E-2
        1.356840961E-2
        1.362535985E-2
        1.368242936E-2
        1.373961814E-2
        1.379692618E-2
        1.385435349E-2
        1.391190007E-2
        1.396956591E-2
        1.402735102E-2
        1.408525540E-2
        1.414327905E-2
        1.420142197E-2
        1.425968415E-2
        1.431806560E-2
        1.437656632E-2
        1.443518630E-2
        1.449392556E-2
        1.455278408E-2
        1.461176186E-2
        1.467085892E-2
        1.473007524E-2
        1.478941083E-2
        1.484886569E-2
        1.490843982E-2
        1.496813321E-2
        1.502794587E-2
        1.508787780E-2
        1.514792899E-2
        1.520809946E-2
        1.526838919E-2
        1.532879819E-2
        1.538932645E-2
        1.544997398E-2
        1.551074079E-2
        1.557162685E-2
        1.563263219E-2
        1.569375679E-2
        1.575500066E-2
        1.581636380E-2
        1.587784621E-2
        1.593944788E-2
        1.600116882E-2
        1.606300903E-2
        1.612496851E-2
        1.618704725E-2
        1.624924526E-2
        1.631156254E-2
        1.637399908E-2
        1.643655490E-2
        1.649922998E-2
        1.656202433E-2
        1.662493794E-2
        1.668797083E-2
        1.675112298E-2
        1.681439440E-2
        1.687778508E-2
        1.694129504E-2
        1.700492426E-2
        1.706867275E-2
        1.713254050E-2
        1.719652753E-2
        1.726063382E-2
        1.732485938E-2
        1.738920420E-2
        1.745366830E-2
        1.751825166E-2
        1.758295429E-2
        1.764777618E-2
        1.771271735E-2
        1.777777778E-2
        1.784295748E-2
        1.790825644E-2
        1.797367468E-2
        1.803921218E-2
        1.810486895E-2
        1.817064498E-2
        1.823654029E-2
        1.830255486E-2
        1.836868870E-2
        1.843494180E-2
        1.850131418E-2
        1.856780582E-2
        1.863441673E-2
        1.870114691E-2
        1.876799635E-2
        1.883496506E-2
        1.890205304E-2
        1.896926029E-2
        1.903658680E-2
        1.910403258E-2
        1.917159763E-2
        1.923928195E-2
        1.930708553E-2
        1.937500839E-2
        1.944305051E-2
        1.951121189E-2
        1.957949255E-2
        1.964789247E-2
        1.971641166E-2
        1.978505011E-2
        1.985380784E-2
        1.992268483E-2
        1.999168109E-2
        2.006079662E-2
        2.013003141E-2
        2.019938547E-2
        2.026885880E-2
        2.033845140E-2
        2.040816327E-2
        2.047799440E-2
        2.054794480E-2
        2.061801446E-2
        2.068820340E-2
        2.075851160E-2
        2.082893907E-2
        2.089948581E-2
        2.097015181E-2
        2.104093708E-2
        2.111184162E-2
        2.118286543E-2
        2.125400851E-2
        2.132527085E-2
        2.139665246E-2
        2.146815334E-2
        2.153977348E-2
        2.161151289E-2
        2.168337157E-2
        2.175534952E-2
        2.182744674E-2
        2.189966322E-2
        2.197199897E-2
        2.204445399E-2
        2.211702827E-2
        2.218972182E-2
        2.226253464E-2
        2.233546673E-2
        2.240851809E-2
        2.248168871E-2
        2.255497860E-2
        2.262838776E-2
        2.270191618E-2
        2.277556387E-2
        2.284933083E-2
        2.292321706E-2
        2.299722256E-2
        2.307134732E-2
        2.314559135E-2
        2.321995465E-2
        2.329443721E-2
        2.336903905E-2
        2.344376015E-2
        2.351860051E-2
        2.359356015E-2
        2.366863905E-2
        2.374383722E-2
        2.381915466E-2
        2.389459137E-2
        2.397014734E-2
        2.404582258E-2
        2.412161709E-2
        2.419753086E-2
        2.427356391E-2
        2.434971622E-2
        2.442598780E-2
        2.450237864E-2
        2.457888875E-2
        2.465551814E-2
        2.473226678E-2
        2.480913470E-2
        2.488612188E-2
        2.496322833E-2
        2.504045405E-2
        2.511779904E-2
        2.519526329E-2
        2.527284681E-2
        2.535054960E-2
        2.542837166E-2
        2.550631298E-2
        2.558437357E-2
        2.566255343E-2
        2.574085255E-2
        2.581927095E-2
        2.589780861E-2
        2.597646554E-2
        2.605524173E-2
        2.613413720E-2
        2.621315193E-2
        2.629228593E-2
        2.637153919E-2
        2.645091173E-2
        2.653040353E-2
        2.661001460E-2
        2.668974493E-2
        2.676959454E-2
        2.684956341E-2
        2.692965155E-2
        2.700985895E-2
        2.709018562E-2
        2.717063157E-2
        2.725119678E-2
        2.733188125E-2
        2.741268500E-2
        2.749360801E-2
        2.757465029E-2
        2.765581183E-2
        2.773709265E-2
        2.781849273E-2
        2.790001208E-2
        2.798165069E-2
        2.806340858E-2
        2.814528573E-2
        2.822728215E-2
        2.830939783E-2
        2.839163279E-2
        2.847398701E-2
        2.855646050E-2
        2.863905325E-2
        2.872176528E-2
        2.880459657E-2
        2.888754713E-2
        2.897061696E-2
        2.905380605E-2
        2.913711441E-2
        2.922054204E-2
        2.930408894E-2
        2.938775510E-2
        2.947154053E-2
        2.955544523E-2
        2.963946920E-2
        2.972361243E-2
        2.980787494E-2
        2.989225671E-2
        2.997675774E-2
        3.006137805E-2
        3.014611762E-2
        3.023097646E-2
        3.031595457E-2
        3.040105194E-2
        3.048626858E-2
        3.057160449E-2
        3.065705967E-2
        3.074263411E-2
        3.082832782E-2
        3.091414080E-2
        3.100007305E-2
        3.108612457E-2
        3.117229535E-2
        3.125858540E-2
        3.134499471E-2
        3.143152330E-2
        3.151817115E-2
        3.160493827E-2
        3.169182466E-2
        3.177883031E-2
        3.186595524E-2
        3.195319943E-2
        3.204056288E-2
        3.212804561E-2
        3.221564760E-2
        3.230336886E-2
        3.239120939E-2
        3.247916918E-2
        3.256724824E-2
        3.265544657E-2
        3.274376417E-2
        3.283220104E-2
        3.292075717E-2
        3.300943257E-2
        3.309822724E-2
        3.318714117E-2
        3.327617438E-2
        3.336532685E-2
        3.345459858E-2
        3.354398959E-2
        3.363349986E-2
        3.372312940E-2
        3.381287821E-2
        3.390274628E-2
        3.399273363E-2
        3.408284024E-2
        3.417306611E-2
        3.426341126E-2
        3.435387567E-2
        3.444445935E-2
        3.453516230E-2
        3.462598452E-2
        3.471692600E-2
        3.480798675E-2
        3.489916677E-2
        3.499046605E-2
        3.508188461E-2
        3.517342243E-2
        3.526507951E-2
        3.535685587E-2
        3.544875149E-2
        3.554076638E-2
        3.563290054E-2
        3.572515397E-2
        3.581752666E-2
        3.591001862E-2
        3.600262985E-2
        3.609536034E-2
        3.618821011E-2
        3.628117914E-2
        3.637426744E-2
        3.646747500E-2
        3.656080184E-2
        3.665424794E-2
        3.674781330E-2
        3.684149794E-2
        3.693530184E-2
        3.702922501E-2
        3.712326745E-2
        3.721742916E-2
        3.731171013E-2
        3.740611037E-2
        3.750062988E-2
        3.759526866E-2
        3.769002670E-2
        3.778490401E-2
        3.787990059E-2
        3.797501644E-2
        3.807025155E-2
        3.816560593E-2
        3.826107958E-2
        3.835667250E-2
        3.845238468E-2
        3.854821613E-2
        3.864416685E-2
        3.874023684E-2
        3.883642609E-2
        3.893273461E-2
        3.902916240E-2
        3.912570946E-2
        3.922237578E-2
        3.931916137E-2
        3.941606623E-2
        3.951309036E-2
        3.961023375E-2
        3.970749641E-2
        3.980487834E-2
        3.990237954E-2
        4.000000000E-2
        4.009773973E-2
        4.019559873E-2
        4.029357700E-2
        4.039167453E-2
        4.048989133E-2
        4.058822740E-2
        4.068668274E-2
        4.078525734E-2
        4.088395121E-2
        4.098276435E-2
        4.108169676E-2
        4.118074843E-2
        4.127991938E-2
        4.137920958E-2
        4.147861906E-2
        4.157814781E-2
        4.167779582E-2
        4.177756310E-2
        4.187744964E-2
        4.197745546E-2
        4.207758054E-2
        4.217782489E-2
        4.227818851E-2
        4.237867139E-2
        4.247927354E-2
        4.257999496E-2
        4.268083565E-2
        4.278179560E-2
        4.288287482E-2
        4.298407331E-2
        4.308539107E-2
        4.318682810E-2
        4.328838439E-2
        4.339005995E-2
        4.349185477E-2
        4.359376887E-2
        4.369580223E-2
        4.379795486E-2
        4.390022676E-2
        4.400261792E-2
        4.410512835E-2
        4.420775805E-2
        4.431050702E-2
        4.441337526E-2
        4.451636276E-2
        4.461946953E-2
        4.472269557E-2
        4.482604087E-2
        4.492950544E-2
        4.503308928E-2
        4.513679239E-2
        4.524061476E-2
        4.534455641E-2
        4.544861732E-2
        4.555279749E-2
        4.565709694E-2
        4.576151565E-2
        4.586605363E-2
        4.597071088E-2
        4.607548739E-2
        4.618038318E-2
        4.628539823E-2
        4.639053254E-2
        4.649578613E-2
        4.660115898E-2
        4.670665110E-2
        4.681226249E-2
        4.691799315E-2
        4.702384307E-2
        4.712981226E-2
        4.723590072E-2
        4.734210844E-2
        4.744843543E-2
        4.755488169E-2
        4.766144722E-2
        4.776813202E-2
        4.787493608E-2
        4.798185941E-2
        4.808890201E-2
        4.819606387E-2
        4.830334501E-2
        4.841074541E-2
        4.851826508E-2
        4.862590401E-2
        4.873366221E-2
        4.884153968E-2
        4.894953642E-2
        4.905765243E-2
        4.916588770E-2
        4.927424224E-2
        4.938271605E-2
        4.949130913E-2
        4.960002147E-2
        4.970885308E-2
        4.981780396E-2
        4.992687410E-2
        5.003606352E-2
        5.014537220E-2
        5.025480014E-2
        5.036434736E-2
        5.047401384E-2
        5.058379959E-2
        5.069370461E-2
        5.080372890E-2
        5.091387245E-2
        5.102413527E-2
        5.113451736E-2
        5.124501872E-2
        5.135563934E-2
        5.146637923E-2
        5.157723839E-2
        5.168821682E-2
        5.179931451E-2
        5.191053147E-2
        5.202186770E-2
        5.213332320E-2
        5.224489796E-2
        5.235659199E-2
        5.246840529E-2
        5.258033786E-2
        5.269238969E-2
        5.280456079E-2
        5.291685116E-2
        5.302926079E-2
        5.314178970E-2
        5.325443787E-2
        5.336720531E-2
        5.348009201E-2
        5.359309799E-2
        5.370622323E-2
        5.381946774E-2
        5.393283152E-2
        5.404631456E-2
        5.415991687E-2
        5.427363845E-2
        5.438747930E-2
        5.450143941E-2
        5.461551879E-2
        5.472971744E-2
        5.484403536E-2
        5.495847254E-2
        5.507302899E-2
        5.518770471E-2
        5.530249970E-2
        5.541741395E-2
        5.553244747E-2
        5.564760026E-2
        5.576287232E-2
        5.587826364E-2
        5.599377424E-2
        5.610940409E-2
        5.622515322E-2
        5.634102162E-2
        5.645700928E-2
        5.657311621E-2
        5.668934240E-2
        5.680568787E-2
        5.692215260E-2
        5.703873660E-2
        5.715543987E-2
        5.727226240E-2
        5.738920420E-2
        5.750626527E-2
        5.762344561E-2
        5.774074521E-2
        5.785816409E-2
        5.797570222E-2
        5.809335963E-2
        5.821113631E-2
        5.832903225E-2
        5.844704746E-2
        5.856518194E-2
        5.868343568E-2
        5.880180869E-2
        5.892030097E-2
        5.903891252E-2
        5.915764333E-2
        5.927649342E-2
        5.939546277E-2
        5.951455138E-2
        5.963375927E-2
        5.975308642E-2
        5.987253284E-2
        5.999209853E-2
        6.011178348E-2
        6.023158770E-2
        6.035151119E-2
        6.047155395E-2
        6.059171598E-2
        6.071199727E-2
        6.083239783E-2
        6.095291766E-2
        6.107355675E-2
        6.119431511E-2
        6.131519274E-2
        6.143618964E-2
        6.155730581E-2
        6.167854124E-2
        6.179989594E-2
        6.192136991E-2
        6.204296314E-2
        6.216467564E-2
        6.228650741E-2
        6.240845845E-2
        6.253052876E-2
        6.265271833E-2
        6.277502717E-2
        6.289745528E-2
        6.302000265E-2
        6.314266930E-2
        6.326545521E-2
        6.338836038E-2
        6.351138483E-2
        6.363452854E-2
        6.375779152E-2
        6.388117377E-2
        6.400467529E-2
        6.412829607E-2
        6.425203612E-2
        6.437589544E-2
