luts/LMT_Power_24.spi1d
Version 1
From 0.000000 1.000000
Length 4096
Components 1
{
        0.000000000E+0
        2.140871621E-9
        1.129958816E-8
        2.990071935E-8
        5.963958387E-8
        1.018869674E-7
        1.578169429E-7
        2.284682849E-7
        3.147796109E-7
        4.176116908E-7
        5.377626378E-7
        6.759787905E-7
        8.329628184E-7
        1.009379943E-6
        1.205862837E-6
        1.423015554E-6
        1.661416747E-6
        1.921622330E-6
        2.204167719E-6
        2.509569732E-6
        2.838328219E-6
        3.190927470E-6
        3.567837446E-6
        3.969514858E-6
        4.396404113E-6
        4.848938168E-6
        5.327539281E-6
        5.832619686E-6
        6.364582211E-6
        6.923820820E-6
        7.510721123E-6
        8.125660828E-6
        8.769010161E-6
        9.441132247E-6
        1.014238346E-5
        1.087311376E-5
        1.163366697E-5
        1.242438107E-5
        1.324558846E-5
        1.409761618E-5
        1.498078615E-5
        1.589541538E-5
        1.684181616E-5
        1.782029622E-5
        1.883115894E-5
        1.987470350E-5
        2.095122503E-5
        2.206101472E-5
        2.320436002E-5
        2.438154472E-5
        2.559284909E-5
        2.683854996E-5
        2.811892090E-5
        2.943423225E-5
        3.078475127E-5
        3.217074218E-5
        3.359246630E-5
        3.505018213E-5
        3.654414538E-5
        3.807460910E-5
        3.964182375E-5
        4.124603722E-5
        4.288749497E-5
        4.456644004E-5
        4.628311311E-5
        4.803775262E-5
        4.983059475E-5
        5.166187352E-5
        5.353182085E-5
        5.544066656E-5
        5.738863848E-5
        5.937596244E-5
        6.140286237E-5
        6.346956030E-5
        6.557627642E-5
        6.772322911E-5
        6.991063500E-5
        7.213870898E-5
        7.440766427E-5
        7.671771241E-5
        7.906906334E-5
        8.146192540E-5
        8.389650537E-5
        8.637300852E-5
        8.889163860E-5
        9.145259791E-5
        9.405608731E-5
        9.670230624E-5
        9.939145276E-5
        1.021237236E-4
        1.048993140E-4
        1.077184181E-4
        1.105812286E-4
        1.134879371E-4
        1.164387338E-4
        1.194338076E-4
        1.224733465E-4
        1.255575370E-4
        1.286865646E-4
        1.318606136E-4
        1.350798673E-4
        1.383445078E-4
        1.416547160E-4
        1.450106718E-4
        1.484125543E-4
        1.518605411E-4
        1.553548092E-4
        1.588955343E-4
        1.624828913E-4
        1.661170540E-4
        1.697981952E-4
        1.735264869E-4
        1.773021001E-4
        1.811252049E-4
        1.849959704E-4
        1.889145648E-4
        1.928811557E-4
        1.968959094E-4
        2.009589916E-4
        2.050705672E-4
        2.092308001E-4
        2.134398535E-4
        2.176978896E-4
        2.220050701E-4
        2.263615556E-4
        2.307675061E-4
        2.352230807E-4
        2.397284380E-4
        2.442837355E-4
        2.488891303E-4
        2.535447784E-4
        2.582508353E-4
        2.630074559E-4
        2.678147940E-4
        2.726730032E-4
        2.775822360E-4
        2.825426443E-4
        2.875543796E-4
        2.926175924E-4
        2.977324327E-4
        3.028990498E-4
        3.081175925E-4
        3.133882086E-4
        3.187110457E-4
        3.240862506E-4
        3.295139694E-4
        3.349943476E-4
        3.405275304E-4
        3.461136620E-4
        3.517528862E-4
        3.574453462E-4
        3.631911847E-4
        3.689905437E-4
        3.748435647E-4
        3.807503887E-4
        3.867111560E-4
        3.927260065E-4
        3.987950795E-4
        4.049185137E-4
        4.110964474E-4
        4.173290183E-4
        4.236163636E-4
        4.299586200E-4
        4.363559236E-4
        4.428084101E-4
        4.493162147E-4
        4.558794721E-4
        4.624983164E-4
        4.691728813E-4
        4.759033002E-4
        4.826897056E-4
        4.895322300E-4
        4.964310051E-4
        5.033861622E-4
        5.103978323E-4
        5.174661458E-4
        5.245912327E-4
        5.317732225E-4
        5.390122444E-4
        5.463084270E-4
        5.536618985E-4
        5.610727868E-4
        5.685412193E-4
        5.760673228E-4
        5.836512239E-4
        5.912930489E-4
        5.989929233E-4
        6.067509725E-4
        6.145673213E-4
        6.224420944E-4
        6.303754158E-4
        6.383674093E-4
        6.464181981E-4
        6.545279051E-4
        6.626966531E-4
        6.709245640E-4
        6.792117598E-4
        6.875583618E-4
        6.959644911E-4
        7.044302684E-4
        7.129558140E-4
        7.215412479E-4
        7.301866896E-4
        7.388922584E-4
        7.476580732E-4
        7.564842525E-4
        7.653709146E-4
        7.743181772E-4
        7.833261578E-4
        7.923949736E-4
        8.015247415E-4
        8.107155779E-4
        8.199675990E-4
        8.292809206E-4
        8.386556582E-4
        8.480919270E-4
        8.575898418E-4
        8.671495171E-4
        8.767710673E-4
        8.864546061E-4
        8.962002471E-4
        9.060081037E-4
        9.158782888E-4
        9.258109150E-4
        9.358060948E-4
        9.458639401E-4
        9.559845627E-4
        9.661680741E-4
        9.764145854E-4
        9.867242075E-4
        9.970970510E-4
        1.007533226E-3
        1.018032843E-3
        1.028596011E-3
        1.039222840E-3
        1.049913439E-3
        1.060667917E-3
        1.071486382E-3
        1.082368943E-3
        1.093315708E-3
        1.104326784E-3
        1.115402279E-3
        1.126542301E-3
        1.137746955E-3
        1.149016350E-3
        1.160350591E-3
        1.171749785E-3
        1.183214037E-3
        1.194743453E-3
        1.206338139E-3
        1.217998199E-3
        1.229723739E-3
        1.241514863E-3
        1.253371676E-3
        1.265294282E-3
        1.277282784E-3
        1.289337286E-3
        1.301457892E-3
        1.313644705E-3
        1.325897828E-3
        1.338217363E-3
        1.350603413E-3
        1.363056081E-3
        1.375575467E-3
        1.388161674E-3
        1.400814804E-3
        1.413534957E-3
        1.426322235E-3
        1.439176739E-3
        1.452098569E-3
        1.465087825E-3
        1.478144608E-3
        1.491269017E-3
        1.504461153E-3
        1.517721115E-3
        1.531049001E-3
        1.544444912E-3
        1.557908946E-3
        1.571441201E-3
        1.585041776E-3
        1.598710770E-3
        1.612448279E-3
        1.626254403E-3
        1.640129238E-3
        1.654072882E-3
        1.668085431E-3
        1.682166984E-3
        1.696317637E-3
        1.710537486E-3
        1.724826627E-3
        1.739185157E-3
        1.753613172E-3
        1.768110767E-3
        1.782678038E-3
        1.797315081E-3
        1.812021990E-3
        1.826798860E-3
        1.841645786E-3
        1.856562864E-3
        1.871550186E-3
        1.886607848E-3
        1.901735943E-3
        1.916934565E-3
        1.932203808E-3
        1.947543766E-3
        1.962954530E-3
        1.978436196E-3
        1.993988855E-3
        2.009612600E-3
        2.025307523E-3
        2.041073718E-3
        2.056911276E-3
        2.072820289E-3
        2.088800850E-3
        2.104853049E-3
        2.120976978E-3
        2.137172728E-3
        2.153440391E-3
        2.169780058E-3
        2.186191819E-3
        2.202675764E-3
        2.219231985E-3
        2.235860572E-3
        2.252561614E-3
        2.269335201E-3
        2.286181424E-3
        2.303100372E-3
        2.320092135E-3
        2.337156800E-3
        2.354294459E-3
        2.371505199E-3
        2.388789109E-3
        2.406146279E-3
        2.423576796E-3
        2.441080749E-3
        2.458658225E-3
        2.476309314E-3
        2.494034102E-3
        2.511832677E-3
        2.529705128E-3
        2.547651540E-3
        2.565672002E-3
        2.583766600E-3
        2.601935422E-3
        2.620178553E-3
        2.638496082E-3
        2.656888093E-3
        2.675354673E-3
        2.693895910E-3
        2.712511887E-3
        2.731202692E-3
        2.749968410E-3
        2.768809126E-3
        2.787724926E-3
        2.806715896E-3
        2.825782119E-3
        2.844923682E-3
        2.864140669E-3
        2.883433165E-3
        2.902801254E-3
        2.922245020E-3
        2.941764549E-3
        2.961359923E-3
        2.981031227E-3
        3.000778546E-3
        3.020601961E-3
        3.040501558E-3
        3.060477419E-3
        3.080529628E-3
        3.100658268E-3
        3.120863422E-3
        3.141145173E-3
        3.161503603E-3
        3.181938795E-3
        3.202450832E-3
        3.223039796E-3
        3.243705769E-3
        3.264448833E-3
        3.285269070E-3
        3.306166563E-3
        3.327141392E-3
        3.348193639E-3
        3.369323386E-3
        3.390530714E-3
        3.411815704E-3
        3.433178437E-3
        3.454618995E-3
        3.476137457E-3
        3.497733905E-3
        3.519408419E-3
        3.541161079E-3
        3.562991966E-3
        3.584901161E-3
        3.606888742E-3
        3.628954790E-3
        3.651099385E-3
        3.673322607E-3
        3.695624534E-3
        3.718005247E-3
        3.740464825E-3
        3.763003347E-3
        3.785620891E-3
        3.808317538E-3
        3.831093366E-3
        3.853948453E-3
        3.876882879E-3
        3.899896721E-3
        3.922990058E-3
        3.946162969E-3
        3.969415531E-3
        3.992747822E-3
        4.016159921E-3
        4.039651906E-3
        4.063223853E-3
        4.086875841E-3
        4.110607947E-3
        4.134420248E-3
        4.158312821E-3
        4.182285745E-3
        4.206339095E-3
        4.230472948E-3
        4.254687383E-3
        4.278982474E-3
        4.303358299E-3
        4.327814934E-3
        4.352352456E-3
        4.376970940E-3
        4.401670463E-3
        4.426451102E-3
        4.451312931E-3
        4.476256027E-3
        4.501280465E-3
        4.526386322E-3
        4.551573672E-3
        4.576842591E-3
        4.602193154E-3
        4.627625437E-3
        4.653139514E-3
        4.678735461E-3
        4.704413352E-3
        4.730173263E-3
        4.756015267E-3
        4.781939440E-3
        4.807945856E-3
        4.834034590E-3
        4.860205714E-3
        4.886459305E-3
        4.912795436E-3
        4.939214180E-3
        4.965715612E-3
        4.992299806E-3
        5.018966835E-3
        5.045716772E-3
        5.072549692E-3
        5.099465668E-3
        5.126464772E-3
        5.153547079E-3
        5.180712660E-3
        5.207961590E-3
        5.235293942E-3
        5.262709787E-3
        5.290209198E-3
        5.317792249E-3
        5.345459012E-3
        5.373209559E-3
        5.401043963E-3
        5.428962295E-3
        5.456964628E-3
        5.485051035E-3
        5.513221586E-3
        5.541476354E-3
        5.569815411E-3
        5.598238828E-3
        5.626746677E-3
        5.655339030E-3
        5.684015957E-3
        5.712777530E-3
        5.741623821E-3
        5.770554901E-3
        5.799570840E-3
        5.828671709E-3
        5.857857581E-3
        5.887128524E-3
        5.916484610E-3
        5.945925910E-3
        5.975452494E-3
        6.005064432E-3
        6.034761796E-3
        6.064544654E-3
        6.094413078E-3
        6.124367137E-3
        6.154406902E-3
        6.184532442E-3
        6.214743827E-3
        6.245041127E-3
        6.275424412E-3
        6.305893751E-3
        6.336449213E-3
        6.367090869E-3
        6.397818787E-3
        6.428633036E-3
        6.459533687E-3
        6.490520807E-3
        6.521594467E-3
        6.552754734E-3
        6.584001677E-3
        6.615335367E-3
        6.646755870E-3
        6.678263256E-3
        6.709857593E-3
        6.741538949E-3
        6.773307394E-3
        6.805162995E-3
        6.837105820E-3
        6.869135937E-3
        6.901253415E-3
        6.933458322E-3
        6.965750725E-3
        6.998130691E-3
        7.030598290E-3
        7.063153588E-3
        7.095796654E-3
        7.128527553E-3
        7.161346355E-3
        7.194253125E-3
        7.227247932E-3
        7.260330843E-3
        7.293501924E-3
        7.326761243E-3
        7.360108867E-3
        7.393544862E-3
        7.427069296E-3
        7.460682234E-3
        7.494383744E-3
        7.528173892E-3
        7.562052745E-3
        7.596020369E-3
        7.630076830E-3
        7.664222195E-3
        7.698456530E-3
        7.732779900E-3
        7.767192373E-3
        7.801694014E-3
        7.836284888E-3
        7.870965062E-3
        7.905734602E-3
        7.940593572E-3
        7.975542040E-3
        8.010580069E-3
        8.045707726E-3
        8.080925076E-3
        8.116232185E-3
        8.151629117E-3
        8.187115938E-3
        8.222692713E-3
        8.258359507E-3
        8.294116384E-3
        8.329963411E-3
        8.365900651E-3
        8.401928169E-3
        8.438046031E-3
        8.474254300E-3
        8.510553041E-3
        8.546942319E-3
        8.583422197E-3
        8.619992742E-3
        8.656654016E-3
        8.693406083E-3
        8.730249009E-3
        8.767182857E-3
        8.804207691E-3
        8.841323575E-3
        8.878530572E-3
        8.915828747E-3
        8.953218164E-3
        8.990698886E-3
        9.028270976E-3
        9.065934498E-3
        9.103689516E-3
        9.141536093E-3
        9.179474293E-3
        9.217504177E-3
        9.255625811E-3
        9.293839257E-3
        9.332144577E-3
        9.370541836E-3
        9.409031095E-3
        9.447612419E-3
        9.486285869E-3
        9.525051508E-3
        9.563909399E-3
        9.602859605E-3
        9.641902188E-3
        9.681037211E-3
        9.720264736E-3
        9.759584826E-3
        9.798997542E-3
        9.838502948E-3
        9.878101104E-3
        9.917792074E-3
        9.957575920E-3
        9.997452702E-3
        1.003742248E-2
        1.007748533E-2
        1.011764129E-2
        1.015789044E-2
        1.019823284E-2
        1.023866855E-2
        1.027919762E-2
        1.031982013E-2
        1.036053613E-2
        1.040134568E-2
        1.044224885E-2
        1.048324569E-2
        1.052433627E-2
        1.056552065E-2
        1.060679889E-2
        1.064817105E-2
        1.068963720E-2
        1.073119738E-2
        1.077285167E-2
        1.081460012E-2
        1.085644280E-2
        1.089837977E-2
        1.094041108E-2
        1.098253680E-2
        1.102475698E-2
        1.106707169E-2
        1.110948099E-2
        1.115198494E-2
        1.119458360E-2
        1.123727703E-2
        1.128006529E-2
        1.132294843E-2
        1.136592653E-2
        1.140899963E-2
        1.145216780E-2
        1.149543111E-2
        1.153878960E-2
        1.158224334E-2
        1.162579238E-2
        1.166943680E-2
        1.171317664E-2
        1.175701197E-2
        1.180094285E-2
        1.184496933E-2
        1.188909148E-2
        1.193330935E-2
        1.197762300E-2
        1.202203250E-2
        1.206653790E-2
        1.211113926E-2
        1.215583664E-2
        1.220063010E-2
        1.224551970E-2
        1.229050550E-2
        1.233558755E-2
        1.238076591E-2
        1.242604065E-2
        1.247141182E-2
        1.251687948E-2
        1.256244369E-2
        1.260810451E-2
        1.265386199E-2
        1.269971620E-2
        1.274566719E-2
        1.279171502E-2
        1.283785975E-2
        1.288410143E-2
        1.293044014E-2
        1.297687591E-2
        1.302340882E-2
        1.307003892E-2
        1.311676626E-2
        1.316359091E-2
        1.321051292E-2
        1.325753235E-2
        1.330464926E-2
        1.335186371E-2
        1.339917575E-2
        1.344658544E-2
        1.349409285E-2
        1.354169801E-2
        1.358940100E-2
        1.363720187E-2
        1.368510068E-2
        1.373309749E-2
        1.378119235E-2
        1.382938532E-2
        1.387767645E-2
        1.392606581E-2
        1.397455345E-2
        1.402313943E-2
        1.407182380E-2
        1.412060662E-2
        1.416948796E-2
        1.421846785E-2
        1.426754637E-2
        1.431672357E-2
        1.436599951E-2
        1.441537423E-2
        1.446484781E-2
        1.451442028E-2
        1.456409172E-2
        1.461386218E-2
        1.466373171E-2
        1.471370037E-2
        1.476376822E-2
        1.481393531E-2
        1.486420170E-2
        1.491456744E-2
        1.496503260E-2
        1.501559722E-2
        1.506626136E-2
        1.511702508E-2
        1.516788844E-2
        1.521885148E-2
        1.526991428E-2
        1.532107687E-2
        1.537233932E-2
        1.542370168E-2
        1.547516402E-2
        1.552672637E-2
        1.557838881E-2
        1.563015138E-2
        1.568201414E-2
        1.573397715E-2
        1.578604045E-2
        1.583820412E-2
        1.589046819E-2
        1.594283273E-2
        1.599529780E-2
        1.604786343E-2
        1.610052971E-2
        1.615329666E-2
        1.620616436E-2
        1.625913286E-2
        1.631220220E-2
        1.636537245E-2
        1.641864367E-2
        1.647201590E-2
        1.652548919E-2
        1.657906362E-2
        1.663273922E-2
        1.668651606E-2
        1.674039418E-2
        1.679437365E-2
        1.684845451E-2
        1.690263683E-2
        1.695692065E-2
        1.701130603E-2
        1.706579303E-2
        1.712038169E-2
        1.717507208E-2
        1.722986424E-2
        1.728475823E-2
        1.733975411E-2
        1.739485193E-2
        1.745005174E-2
        1.750535359E-2
        1.756075755E-2
        1.761626366E-2
        1.767187197E-2
        1.772758255E-2
        1.778339545E-2
        1.783931071E-2
        1.789532840E-2
        1.795144856E-2
        1.800767125E-2
        1.806399652E-2
        1.812042443E-2
        1.817695503E-2
        1.823358837E-2
        1.829032451E-2
        1.834716349E-2
        1.840410538E-2
        1.846115023E-2
        1.851829808E-2
        1.857554900E-2
        1.863290303E-2
        1.869036023E-2
        1.874792065E-2
        1.880558434E-2
        1.886335136E-2
        1.892122176E-2
        1.897919560E-2
        1.903727291E-2
        1.909545377E-2
        1.915373821E-2
        1.921212630E-2
        1.927061809E-2
        1.932921362E-2
        1.938791295E-2
        1.944671614E-2
        1.950562323E-2
        1.956463428E-2
        1.962374934E-2
        1.968296847E-2
        1.974229171E-2
        1.980171911E-2
        1.986125074E-2
        1.992088663E-2
        1.998062685E-2
        2.004047145E-2
        2.010042047E-2
        2.016047398E-2
        2.022063201E-2
        2.028089463E-2
        2.034126189E-2
        2.040173383E-2
        2.046231051E-2
        2.052299198E-2
        2.058377830E-2
        2.064466951E-2
        2.070566566E-2
        2.076676682E-2
        2.082797302E-2
        2.088928432E-2
        2.095070078E-2
        2.101222244E-2
        2.107384935E-2
        2.113558157E-2
        2.119741915E-2
        2.125936214E-2
        2.132141059E-2
        2.138356455E-2
        2.144582407E-2
        2.150818921E-2
        2.157066001E-2
        2.163323653E-2
        2.169591881E-2
        2.175870692E-2
        2.182160089E-2
        2.188460079E-2
        2.194770665E-2
        2.201091854E-2
        2.207423650E-2
        2.213766059E-2
        2.220119084E-2
        2.226482733E-2
        2.232857009E-2
        2.239241917E-2
        2.245637464E-2
        2.252043653E-2
        2.258460490E-2
        2.264887980E-2
        2.271326127E-2
        2.277774938E-2
        2.284234417E-2
        2.290704568E-2
        2.297185398E-2
        2.303676911E-2
        2.310179112E-2
        2.316692006E-2
        2.323215599E-2
        2.329749894E-2
        2.336294898E-2
        2.342850615E-2
        2.349417050E-2
        2.355994209E-2
        2.362582095E-2
        2.369180715E-2
        2.375790073E-2
        2.382410174E-2
        2.389041024E-2
        2.395682626E-2
        2.402334987E-2
        2.408998110E-2
        2.415672002E-2
        2.422356667E-2
        2.429052109E-2
        2.435758335E-2
        2.442475349E-2
        2.449203155E-2
        2.455941760E-2
        2.462691167E-2
        2.469451381E-2
        2.476222409E-2
        2.483004254E-2
        2.489796921E-2
        2.496600416E-2
        2.503414743E-2
        2.510239908E-2
        2.517075914E-2
        2.523922768E-2
        2.530780474E-2
        2.537649037E-2
        2.544528461E-2
        2.551418753E-2
        2.558319916E-2
        2.565231955E-2
        2.572154876E-2
        2.579088684E-2
        2.586033382E-2
        2.592988977E-2
        2.599955472E-2
        2.606932873E-2
        2.613921186E-2
        2.620920413E-2
        2.627930561E-2
        2.634951635E-2
        2.641983638E-2
        2.649026577E-2
        2.656080455E-2
        2.663145279E-2
        2.670221051E-2
        2.677307779E-2
        2.684405465E-2
        2.691514116E-2
        2.698633735E-2
        2.705764328E-2
        2.712905900E-2
        2.720058456E-2
        2.727221999E-2
        2.734396536E-2
        2.741582070E-2
        2.748778607E-2
        2.755986152E-2
        2.763204708E-2
        2.770434282E-2
        2.777674878E-2
        2.784926501E-2
        2.792189155E-2
        2.799462845E-2
        2.806747576E-2
        2.814043353E-2
        2.821350181E-2
        2.828668064E-2
        2.835997008E-2
        2.843337016E-2
        2.850688094E-2
        2.858050247E-2
        2.865423478E-2
        2.872807794E-2
        2.880203198E-2
        2.887609696E-2
        2.895027293E-2
        2.902455992E-2
        2.909895799E-2
        2.917346718E-2
        2.924808755E-2
        2.932281913E-2
        2.939766199E-2
        2.947261615E-2
        2.954768168E-2
        2.962285862E-2
        2.969814701E-2
        2.977354691E-2
        2.984905835E-2
        2.992468139E-2
        3.000041608E-2
        3.007626246E-2
        3.015222058E-2
        3.022829048E-2
        3.030447221E-2
        3.038076583E-2
        3.045717136E-2
        3.053368888E-2
        3.061031841E-2
        3.068706001E-2
        3.076391372E-2
        3.084087959E-2
        3.091795767E-2
        3.099514800E-2
        3.107245064E-2
        3.114986562E-2
        3.122739299E-2
        3.130503280E-2
        3.138278510E-2
        3.146064993E-2
        3.153862734E-2
        3.161671738E-2
        3.169492009E-2
        3.177323552E-2
        3.185166372E-2
        3.193020472E-2
        3.200885859E-2
        3.208762535E-2
        3.216650507E-2
        3.224549779E-2
        3.232460354E-2
        3.240382239E-2
        3.248315437E-2
        3.256259954E-2
        3.264215793E-2
        3.272182959E-2
        3.280161457E-2
        3.288151292E-2
        3.296152468E-2
        3.304164990E-2
        3.312188862E-2
        3.320224089E-2
        3.328270675E-2
        3.336328626E-2
        3.344397945E-2
        3.352478638E-2
        3.360570708E-2
        3.368674161E-2
        3.376789000E-2
        3.384915231E-2
        3.393052859E-2
        3.401201887E-2
        3.409362320E-2
        3.417534163E-2
        3.425717420E-2
        3.433912096E-2
        3.442118196E-2
        3.450335723E-2
        3.458564683E-2
        3.466805080E-2
        3.475056919E-2
        3.483320204E-2
        3.491594939E-2
        3.499881130E-2
        3.508178780E-2
        3.516487895E-2
        3.524808478E-2
        3.533140535E-2
        3.541484069E-2
        3.549839086E-2
        3.558205590E-2
        3.566583585E-2
        3.574973075E-2
        3.583374066E-2
        3.591786562E-2
        3.600210567E-2
        3.608646086E-2
        3.617093124E-2
        3.625551684E-2
        3.634021771E-2
        3.642503390E-2
        3.650996546E-2
        3.659501242E-2
        3.668017483E-2
        3.676545274E-2
        3.685084619E-2
        3.693635523E-2
        3.702197990E-2
        3.710772025E-2
        3.719357631E-2
