luts/LMT_Power_22.spi1d
Version 1
From 0.000000 1.000000
Length 4096
Components 1
{
        0.000000000E+0
        1.129903637E-8
        5.191673797E-8
        1.266800327E-7
        2.385466860E-7
        3.897403906E-7
        5.820685809E-7
        8.170659167E-7
        1.096072743E-6
        1.420283126E-6
        1.790776582E-6
        2.208540227E-6
        2.674484886E-6
        3.189457222E-6
        3.754249098E-6
        4.369604967E-6
        5.036227828E-6
        5.754784082E-6
        6.525907562E-6
        7.350202915E-6
        8.228248458E-6
        9.160598630E-6
        1.014778610E-5
        1.119032361E-5
        1.228870555E-5
        1.344340943E-5
        1.465489706E-5
        1.592361570E-5
        1.724999905E-5
        1.863446815E-5
        2.007743215E-5
        2.157928908E-5
        2.314042649E-5
        2.476122202E-5
        2.644204403E-5
        2.818325202E-5
        2.998519713E-5
        3.184822256E-5
        3.377266399E-5
        3.575884988E-5
        3.780710187E-5
        3.991773506E-5
        4.209105831E-5
        4.432737450E-5
        4.662698080E-5
        4.899016892E-5
        5.141722528E-5
        5.390843127E-5
        5.646406342E-5
        5.908439361E-5
        6.176968920E-5
        6.452021323E-5
        6.733622457E-5
        7.021797806E-5
        7.316572463E-5
        7.617971148E-5
        7.926018214E-5
        8.240737665E-5
        8.562153164E-5
        8.890288042E-5
        9.225165314E-5
        9.566807682E-5
        9.915237549E-5
        1.027047702E-4
        1.063254794E-4
        1.100147183E-4
        1.137727000E-4
        1.175996347E-4
        1.214957299E-4
        1.254611911E-4
        1.294962209E-4
        1.336010200E-4
        1.377757864E-4
        1.420207163E-4
        1.463360035E-4
        1.507218396E-4
        1.551784143E-4
        1.597059152E-4
        1.643045281E-4
        1.689744367E-4
        1.737158229E-4
        1.785288667E-4
        1.834137464E-4
        1.883706385E-4
        1.933997177E-4
        1.985011573E-4
        2.036751287E-4
        2.089218017E-4
        2.142413446E-4
        2.196339242E-4
        2.250997058E-4
        2.306388531E-4
        2.362515284E-4
        2.419378926E-4
        2.476981053E-4
        2.535323245E-4
        2.594407071E-4
        2.654234085E-4
        2.714805830E-4
        2.776123834E-4
        2.838189615E-4
        2.901004677E-4
        2.964570512E-4
        3.028888602E-4
        3.093960416E-4
        3.159787411E-4
        3.226371035E-4
        3.293712724E-4
        3.361813901E-4
        3.430675982E-4
        3.500300370E-4
        3.570688460E-4
        3.641841634E-4
        3.713761266E-4
        3.786448720E-4
        3.859905350E-4
        3.934132502E-4
        4.009131510E-4
        4.084903700E-4
        4.161450390E-4
        4.238772888E-4
        4.316872494E-4
        4.395750499E-4
        4.475408184E-4
        4.555846825E-4
        4.637067686E-4
        4.719072025E-4
        4.801861092E-4
        4.885436129E-4
        4.969798369E-4
        5.054949039E-4
        5.140889357E-4
        5.227620535E-4
        5.315143775E-4
        5.403460275E-4
        5.492571224E-4
        5.582477804E-4
        5.673181191E-4
        5.764682552E-4
        5.856983049E-4
        5.950083838E-4
        6.043986066E-4
        6.138690875E-4
        6.234199400E-4
        6.330512770E-4
        6.427632108E-4
        6.525558529E-4
        6.624293145E-4
        6.723837058E-4
        6.824191368E-4
        6.925357167E-4
        7.027335540E-4
        7.130127568E-4
        7.233734327E-4
        7.338156885E-4
        7.443396306E-4
        7.549453648E-4
        7.656329964E-4
        7.764026301E-4
        7.872543701E-4
        7.981883201E-4
        8.092045832E-4
        8.203032620E-4
        8.314844588E-4
        8.427482751E-4
        8.540948120E-4
        8.655241702E-4
        8.770364498E-4
        8.886317505E-4
        9.003101715E-4
        9.120718115E-4
        9.239167687E-4
        9.358451410E-4
        9.478570256E-4
        9.599525195E-4
        9.721317191E-4
        9.843947204E-4
        9.967416189E-4
        1.009172510E-3
        1.021687488E-3
        1.034286647E-3
        1.046970081E-3
        1.059737884E-3
        1.072590149E-3
        1.085526968E-3
        1.098548433E-3
        1.111654637E-3
        1.124845670E-3
        1.138121624E-3
        1.151482589E-3
        1.164928656E-3
        1.178459915E-3
        1.192076454E-3
        1.205778363E-3
        1.219565731E-3
        1.233438646E-3
        1.247397196E-3
        1.261441469E-3
        1.275571553E-3
        1.289787533E-3
        1.304089497E-3
        1.318477530E-3
        1.332951720E-3
        1.347512151E-3
        1.362158908E-3
        1.376892077E-3
        1.391711742E-3
        1.406617987E-3
        1.421610896E-3
        1.436690553E-3
        1.451857041E-3
        1.467110442E-3
        1.482450840E-3
        1.497878317E-3
        1.513392955E-3
        1.528994835E-3
        1.544684039E-3
        1.560460648E-3
        1.576324743E-3
        1.592276404E-3
        1.608315711E-3
        1.624442744E-3
        1.640657584E-3
        1.656960309E-3
        1.673350997E-3
        1.689829729E-3
        1.706396583E-3
        1.723051636E-3
        1.739794966E-3
        1.756626652E-3
        1.773546771E-3
        1.790555399E-3
        1.807652613E-3
        1.824838491E-3
        1.842113108E-3
        1.859476540E-3
        1.876928864E-3
        1.894470155E-3
        1.912100487E-3
        1.929819936E-3
        1.947628578E-3
        1.965526485E-3
        1.983513733E-3
        2.001590396E-3
        2.019756547E-3
        2.038012260E-3
        2.056357608E-3
        2.074792664E-3
        2.093317501E-3
        2.111932192E-3
        2.130636809E-3
        2.149431424E-3
        2.168316109E-3
        2.187290936E-3
        2.206355975E-3
        2.225511299E-3
        2.244756978E-3
        2.264093083E-3
        2.283519685E-3
        2.303036853E-3
        2.322644658E-3
        2.342343170E-3
        2.362132459E-3
        2.382012594E-3
        2.401983643E-3
        2.422045677E-3
        2.442198764E-3
        2.462442973E-3
        2.482778372E-3
        2.503205029E-3
        2.523723012E-3
        2.544332389E-3
        2.565033228E-3
        2.585825596E-3
        2.606709561E-3
        2.627685188E-3
        2.648752546E-3
        2.669911700E-3
        2.691162718E-3
        2.712505664E-3
        2.733940607E-3
        2.755467610E-3
        2.777086741E-3
        2.798798063E-3
        2.820601644E-3
        2.842497547E-3
        2.864485838E-3
        2.886566582E-3
        2.908739842E-3
        2.931005684E-3
        2.953364171E-3
        2.975815369E-3
        2.998359339E-3
        3.020996147E-3
        3.043725855E-3
        3.066548528E-3
        3.089464227E-3
        3.112473017E-3
        3.135574960E-3
        3.158770118E-3
        3.182058554E-3
        3.205440331E-3
        3.228915510E-3
        3.252484153E-3
        3.276146323E-3
        3.299902081E-3
        3.323751489E-3
        3.347694607E-3
        3.371731497E-3
        3.395862220E-3
        3.420086837E-3
        3.444405408E-3
        3.468817994E-3
        3.493324656E-3
        3.517925454E-3
        3.542620447E-3
        3.567409696E-3
        3.592293260E-3
        3.617271199E-3
        3.642343573E-3
        3.667510441E-3
        3.692771862E-3
        3.718127894E-3
        3.743578598E-3
        3.769124031E-3
        3.794764252E-3
        3.820499320E-3
        3.846329293E-3
        3.872254229E-3
        3.898274186E-3
        3.924389222E-3
        3.950599395E-3
        3.976904762E-3
        4.003305381E-3
        4.029801309E-3
        4.056392603E-3
        4.083079320E-3
        4.109861518E-3
        4.136739252E-3
        4.163712580E-3
        4.190781558E-3
        4.217946242E-3
        4.245206690E-3
        4.272562955E-3
        4.300015096E-3
        4.327563167E-3
        4.355207224E-3
        4.382947324E-3
        4.410783520E-3
        4.438715869E-3
        4.466744426E-3
        4.494869246E-3
        4.523090384E-3
        4.551407894E-3
        4.579821832E-3
        4.608332252E-3
        4.636939208E-3
        4.665642754E-3
        4.694442946E-3
        4.723339836E-3
        4.752333480E-3
        4.781423930E-3
        4.810611241E-3
        4.839895466E-3
        4.869276658E-3
        4.898754872E-3
        4.928330159E-3
        4.958002574E-3
        4.987772170E-3
        5.017638998E-3
        5.047603113E-3
        5.077664567E-3
        5.107823411E-3
        5.138079700E-3
        5.168433484E-3
        5.198884817E-3
        5.229433750E-3
        5.260080335E-3
        5.290824625E-3
        5.321666671E-3
        5.352606525E-3
        5.383644238E-3
        5.414779861E-3
        5.446013447E-3
        5.477345046E-3
        5.508774709E-3
        5.540302488E-3
        5.571928433E-3
        5.603652596E-3
        5.635475026E-3
        5.667395775E-3
        5.699414892E-3
        5.731532430E-3
        5.763748436E-3
        5.796062963E-3
        5.828476060E-3
        5.860987776E-3
        5.893598163E-3
        5.926307269E-3
        5.959115144E-3
        5.992021838E-3
        6.025027401E-3
        6.058131881E-3
        6.091335328E-3
        6.124637792E-3
        6.158039321E-3
        6.191539964E-3
        6.225139770E-3
        6.258838788E-3
        6.292637067E-3
        6.326534656E-3
        6.360531602E-3
        6.394627954E-3
        6.428823761E-3
        6.463119071E-3
        6.497513931E-3
        6.532008391E-3
        6.566602498E-3
        6.601296299E-3
        6.636089843E-3
        6.670983177E-3
        6.705976349E-3
        6.741069407E-3
        6.776262397E-3
        6.811555367E-3
        6.846948365E-3
        6.882441436E-3
        6.918034630E-3
        6.953727992E-3
        6.989521569E-3
        7.025415408E-3
        7.061409556E-3
        7.097504059E-3
        7.133698965E-3
        7.169994318E-3
        7.206390167E-3
        7.242886556E-3
        7.279483533E-3
        7.316181142E-3
        7.352979431E-3
        7.389878446E-3
        7.426878231E-3
        7.463978833E-3
        7.501180298E-3
        7.538482671E-3
        7.575885997E-3
        7.613390323E-3
        7.650995693E-3
        7.688702152E-3
        7.726509747E-3
        7.764418521E-3
        7.802428521E-3
        7.840539790E-3
        7.878752374E-3
        7.917066318E-3
        7.955481666E-3
        7.993998463E-3
        8.032616754E-3
        8.071336583E-3
        8.110157994E-3
        8.149081031E-3
        8.188105740E-3
        8.227232164E-3
        8.266460347E-3
        8.305790333E-3
        8.345222166E-3
        8.384755891E-3
        8.424391550E-3
        8.464129187E-3
        8.503968847E-3
        8.543910573E-3
        8.583954408E-3
        8.624100395E-3
        8.664348578E-3
        8.704699001E-3
        8.745151706E-3
        8.785706736E-3
        8.826364135E-3
        8.867123946E-3
        8.907986211E-3
        8.948950973E-3
        8.990018276E-3
        9.031188161E-3
        9.072460672E-3
        9.113835850E-3
        9.155313739E-3
        9.196894381E-3
        9.238577817E-3
        9.280364092E-3
        9.322253245E-3
        9.364245321E-3
        9.406340360E-3
        9.448538405E-3
        9.490839498E-3
        9.533243680E-3
        9.575750994E-3
        9.618361481E-3
        9.661075182E-3
        9.703892140E-3
        9.746812396E-3
        9.789835991E-3
        9.832962966E-3
        9.876193364E-3
        9.919527225E-3
        9.962964590E-3
        1.000650550E-2
        1.005015000E-2
        1.009389812E-2
        1.013774992E-2
        1.018170542E-2
        1.022576467E-2
        1.026992772E-2
        1.031419459E-2
        1.035856534E-2
        1.040304000E-2
        1.044761861E-2
        1.049230122E-2
        1.053708786E-2
        1.058197858E-2
        1.062697341E-2
        1.067207239E-2
        1.071727557E-2
        1.076258299E-2
        1.080799468E-2
        1.085351068E-2
        1.089913104E-2
        1.094485579E-2
        1.099068498E-2
        1.103661864E-2
        1.108265681E-2
        1.112879954E-2
        1.117504686E-2
        1.122139881E-2
        1.126785544E-2
        1.131441677E-2
        1.136108285E-2
        1.140785373E-2
        1.145472943E-2
        1.150170999E-2
        1.154879547E-2
        1.159598589E-2
        1.164328129E-2
        1.169068172E-2
        1.173818721E-2
        1.178579780E-2
        1.183351353E-2
        1.188133443E-2
        1.192926056E-2
        1.197729194E-2
        1.202542861E-2
        1.207367061E-2
        1.212201799E-2
        1.217047077E-2
        1.221902900E-2
        1.226769271E-2
        1.231646195E-2
        1.236533675E-2
        1.241431714E-2
        1.246340318E-2
        1.251259489E-2
        1.256189231E-2
        1.261129548E-2
        1.266080444E-2
        1.271041923E-2
        1.276013988E-2
        1.280996643E-2
        1.285989893E-2
        1.290993739E-2
        1.296008187E-2
        1.301033241E-2
        1.306068903E-2
        1.311115177E-2
        1.316172068E-2
        1.321239579E-2
        1.326317714E-2
        1.331406476E-2
        1.336505869E-2
        1.341615897E-2
        1.346736563E-2
        1.351867872E-2
        1.357009826E-2
        1.362162430E-2
        1.367325687E-2
        1.372499602E-2
        1.377684176E-2
        1.382879415E-2
        1.388085322E-2
        1.393301900E-2
        1.398529153E-2
        1.403767085E-2
        1.409015700E-2
        1.414275000E-2
        1.419544990E-2
        1.424825674E-2
        1.430117054E-2
        1.435419135E-2
        1.440731919E-2
        1.446055412E-2
        1.451389615E-2
        1.456734534E-2
        1.462090171E-2
        1.467456529E-2
        1.472833614E-2
        1.478221428E-2
        1.483619974E-2
        1.489029256E-2
        1.494449279E-2
        1.499880044E-2
        1.505321557E-2
        1.510773820E-2
        1.516236837E-2
        1.521710611E-2
        1.527195147E-2
        1.532690447E-2
        1.538196515E-2
        1.543713355E-2
        1.549240970E-2
        1.554779363E-2
        1.560328538E-2
        1.565888499E-2
        1.571459249E-2
        1.577040792E-2
        1.582633130E-2
        1.588236269E-2
        1.593850210E-2
        1.599474957E-2
        1.605110514E-2
        1.610756885E-2
        1.616414073E-2
        1.622082080E-2
        1.627760912E-2
        1.633450571E-2
        1.639151060E-2
        1.644862383E-2
        1.650584543E-2
        1.656317545E-2
        1.662061391E-2
        1.667816084E-2
        1.673581628E-2
        1.679358027E-2
        1.685145284E-2
        1.690943402E-2
        1.696752385E-2
        1.702572236E-2
        1.708402958E-2
        1.714244555E-2
        1.720097031E-2
        1.725960388E-2
        1.731834630E-2
        1.737719760E-2
        1.743615782E-2
        1.749522698E-2
        1.755440514E-2
        1.761369231E-2
        1.767308853E-2
        1.773259383E-2
        1.779220825E-2
        1.785193182E-2
        1.791176458E-2
        1.797170655E-2
        1.803175778E-2
        1.809191828E-2
        1.815218811E-2
        1.821256728E-2
        1.827305583E-2
        1.833365380E-2
        1.839436122E-2
        1.845517812E-2
        1.851610454E-2
        1.857714050E-2
        1.863828604E-2
        1.869954119E-2
        1.876090599E-2
        1.882238047E-2
        1.888396466E-2
        1.894565859E-2
        1.900746230E-2
        1.906937581E-2
        1.913139917E-2
        1.919353239E-2
        1.925577553E-2
        1.931812860E-2
        1.938059164E-2
        1.944316468E-2
        1.950584776E-2
        1.956864091E-2
        1.963154415E-2
        1.969455753E-2
        1.975768107E-2
        1.982091480E-2
        1.988425876E-2
        1.994771299E-2
        2.001127750E-2
        2.007495233E-2
        2.013873752E-2
        2.020263310E-2
        2.026663910E-2
        2.033075554E-2
        2.039498247E-2
        2.045931991E-2
        2.052376790E-2
        2.058832646E-2
        2.065299564E-2
        2.071777545E-2
        2.078266593E-2
        2.084766712E-2
        2.091277904E-2
        2.097800173E-2
        2.104333522E-2
        2.110877953E-2
        2.117433471E-2
        2.124000077E-2
        2.130577776E-2
        2.137166570E-2
        2.143766463E-2
        2.150377457E-2
        2.156999556E-2
        2.163632762E-2
        2.170277080E-2
        2.176932512E-2
        2.183599060E-2
        2.190276729E-2
        2.196965521E-2
        2.203665440E-2
        2.210376488E-2
        2.217098668E-2
        2.223831984E-2
        2.230576439E-2
        2.237332035E-2
        2.244098776E-2
        2.250876665E-2
        2.257665705E-2
        2.264465899E-2
        2.271277250E-2
        2.278099761E-2
        2.284933435E-2
        2.291778275E-2
        2.298634284E-2
        2.305501465E-2
        2.312379822E-2
        2.319269357E-2
        2.326170073E-2
        2.333081974E-2
        2.340005062E-2
        2.346939340E-2
        2.353884812E-2
        2.360841480E-2
        2.367809347E-2
        2.374788416E-2
        2.381778691E-2
        2.388780175E-2
        2.395792869E-2
        2.402816778E-2
        2.409851905E-2
        2.416898251E-2
        2.423955821E-2
        2.431024617E-2
        2.438104643E-2
        2.445195900E-2
        2.452298393E-2
        2.459412124E-2
        2.466537096E-2
        2.473673312E-2
        2.480820775E-2
        2.487979488E-2
        2.495149453E-2
        2.502330675E-2
        2.509523155E-2
        2.516726897E-2
        2.523941904E-2
        2.531168179E-2
        2.538405723E-2
        2.545654542E-2
        2.552914636E-2
        2.560186010E-2
        2.567468666E-2
        2.574762607E-2
        2.582067837E-2
        2.589384357E-2
        2.596712171E-2
        2.604051281E-2
        2.611401692E-2
        2.618763405E-2
        2.626136423E-2
        2.633520749E-2
        2.640916387E-2
        2.648323339E-2
        2.655741608E-2
        2.663171196E-2
        2.670612108E-2
        2.678064345E-2
        2.685527910E-2
        2.693002807E-2
        2.700489038E-2
        2.707986606E-2
        2.715495514E-2
        2.723015764E-2
        2.730547361E-2
        2.738090305E-2
        2.745644601E-2
        2.753210252E-2
        2.760787259E-2
        2.768375626E-2
        2.775975355E-2
        2.783586450E-2
        2.791208914E-2
        2.798842749E-2
        2.806487957E-2
        2.814144543E-2
        2.821812508E-2
        2.829491855E-2
        2.837182588E-2
        2.844884709E-2
        2.852598220E-2
        2.860323125E-2
        2.868059427E-2
        2.875807128E-2
        2.883566231E-2
        2.891336739E-2
        2.899118655E-2
        2.906911981E-2
        2.914716720E-2
        2.922532875E-2
        2.930360449E-2
        2.938199445E-2
        2.946049865E-2
        2.953911712E-2
        2.961784988E-2
        2.969669698E-2
        2.977565843E-2
        2.985473426E-2
        2.993392450E-2
        3.001322917E-2
        3.009264832E-2
        3.017218195E-2
        3.025183010E-2
        3.033159280E-2
        3.041147007E-2
        3.049146195E-2
        3.057156845E-2
        3.065178961E-2
        3.073212545E-2
        3.081257600E-2
        3.089314130E-2
        3.097382135E-2
        3.105461620E-2
        3.113552587E-2
        3.121655039E-2
        3.129768978E-2
        3.137894407E-2
        3.146031329E-2
        3.154179747E-2
        3.162339663E-2
        3.170511079E-2
        3.178694000E-2
        3.186888426E-2
        3.195094362E-2
        3.203311809E-2
        3.211540771E-2
        3.219781250E-2
        3.228033249E-2
        3.236296770E-2
        3.244571816E-2
        3.252858390E-2
        3.261156495E-2
        3.269466133E-2
        3.277787306E-2
        3.286120018E-2
        3.294464271E-2
        3.302820068E-2
        3.311187412E-2
        3.319566305E-2
        3.327956749E-2
        3.336358748E-2
        3.344772304E-2
        3.353197419E-2
        3.361634097E-2
        3.370082340E-2
        3.378542151E-2
        3.387013532E-2
        3.395496486E-2
        3.403991015E-2
        3.412497123E-2
        3.421014811E-2
        3.429544083E-2
        3.438084941E-2
        3.446637388E-2
        3.455201426E-2
        3.463777057E-2
        3.472364286E-2
        3.480963113E-2
        3.489573542E-2
        3.498195576E-2
        3.506829217E-2
        3.515474467E-2
        3.524131329E-2
        3.532799806E-2
        3.541479900E-2
        3.550171614E-2
        3.558874951E-2
        3.567589913E-2
        3.576316503E-2
        3.585054723E-2
        3.593804575E-2
        3.602566064E-2
        3.611339190E-2
        3.620123957E-2
        3.628920367E-2
        3.637728422E-2
        3.646548126E-2
        3.655379481E-2
        3.664222490E-2
        3.673077154E-2
        3.681943477E-2
        3.690821461E-2
        3.699711108E-2
        3.708612422E-2
        3.717525405E-2
        3.726450058E-2
        3.735386386E-2
        3.744334390E-2
        3.753294073E-2
        3.762265438E-2
        3.771248486E-2
        3.780243221E-2
        3.789249645E-2
        3.798267761E-2
        3.807297571E-2
        3.816339077E-2
        3.825392283E-2
        3.834457190E-2
        3.843533801E-2
        3.852622119E-2
        3.861722147E-2
        3.870833886E-2
        3.879957339E-2
        3.889092510E-2
        3.898239399E-2
        3.907398010E-2
        3.916568346E-2
        3.925750408E-2
        3.934944200E-2
        3.944149723E-2
        3.953366980E-2
        3.962595975E-2
        3.971836708E-2
        3.981089184E-2
        3.990353403E-2
        3.999629369E-2
        4.008917084E-2
        4.018216551E-2
        4.027527772E-2
        4.036850750E-2
        4.046185487E-2
        4.055531985E-2
        4.064890247E-2
        4.074260276E-2
        4.083642074E-2
        4.093035643E-2
        4.102440986E-2
        4.111858105E-2
        4.121287003E-2
        4.130727682E-2
        4.140180145E-2
        4.149644394E-2
        4.159120431E-2
        4.168608260E-2
        4.178107882E-2
        4.187619299E-2
        4.197142516E-2
        4.206677533E-2
        4.216224353E-2
        4.225782978E-2
        4.235353412E-2
        4.244935657E-2
        4.254529714E-2
        4.264135586E-2
        4.273753277E-2
        4.283382787E-2
        4.293024120E-2
        4.302677278E-2
        4.312342264E-2
        4.322019079E-2
        4.331707727E-2
        4.341408209E-2
        4.351120529E-2
        4.360844688E-2
        4.370580688E-2
        4.380328533E-2
        4.390088225E-2
        4.399859766E-2
        4.409643158E-2
        4.419438404E-2
        4.429245507E-2
        4.439064468E-2
        4.448895290E-2
        4.458737975E-2
        4.468592527E-2
        4.478458946E-2
        4.488337236E-2
        4.498227399E-2
        4.508129438E-2
        4.518043354E-2
        4.527969150E-2
        4.537906828E-2
        4.547856392E-2
        4.557817842E-2
        4.567791182E-2
        4.577776414E-2
        4.587773540E-2
        4.597782563E-2
        4.607803485E-2
        4.617836308E-2
        4.627881035E-2
        4.637937668E-2
        4.648006209E-2
        4.658086661E-2
        4.668179026E-2
        4.678283307E-2
        4.688399505E-2
        4.698527623E-2
        4.708667664E-2
        4.718819630E-2
        4.728983522E-2
        4.739159344E-2
        4.749347098E-2
        4.759546786E-2
        4.769758411E-2
        4.779981974E-2
        4.790217478E-2
        4.800464926E-2
        4.810724320E-2
        4.820995661E-2
        4.831278953E-2
        4.841574198E-2
        4.851881397E-2
        4.862200554E-2
        4.872531671E-2
        4.882874749E-2
        4.893229792E-2
