luts/LMT_Power_22_sRGBScaled.spi1d
Version 1
From 0.000000 1.000000
Length 4096
Components 1
{
            0.000000000E+0
            3.105867014E-6
            8.936780523E-6
            1.658356312E-5
            2.571457366E-5
            3.613630607E-5
            4.771732443E-5
            6.036063686E-5
            7.399077296E-5
            8.854679376E-5
            1.039781275E-4
            1.202419102E-4
            1.373011960E-4
            1.551237016E-4
            1.736808954E-4
            1.929473188E-4
            2.129000681E-4
            2.335183913E-4
            2.547833691E-4
            2.766776585E-4
            2.991852839E-4
            3.222914655E-4
            3.459824764E-4
            3.702455220E-4
            3.950686390E-4
            4.204406082E-4
            4.463508800E-4
            4.727895101E-4
            4.997471031E-4
            5.272147639E-4
            5.551840541E-4
            5.836469543E-4
            6.125958301E-4
            6.420234023E-4
            6.719227197E-4
            7.022871354E-4
            7.331102847E-4
            7.643860659E-4
            7.961086223E-4
            8.282723264E-4
            8.608717649E-4
            8.939017257E-4
            9.273571853E-4
            9.612332980E-4
            9.955253854E-4
            1.030228927E-3
            1.065339551E-3
            1.100853027E-3
            1.136765258E-3
            1.173072275E-3
            1.209770226E-3
            1.246855376E-3
            1.284324098E-3
            1.322172868E-3
            1.360398261E-3
            1.398996946E-3
            1.437965682E-3
            1.477301312E-3
            1.517000764E-3
            1.557061043E-3
            1.597479229E-3
            1.638252474E-3
            1.679378000E-3
            1.720853095E-3
            1.762675111E-3
            1.804841461E-3
            1.847349617E-3
            1.890197107E-3
            1.933381516E-3
            1.976900478E-3
            2.020751682E-3
            2.064932863E-3
            2.109441803E-3
            2.154276331E-3
            2.199434321E-3
            2.244913686E-3
            2.290712384E-3
            2.336828410E-3
            2.383259799E-3
            2.430004623E-3
            2.477060990E-3
            2.524427044E-3
            2.572100961E-3
            2.620080951E-3
            2.668365257E-3
            2.716952150E-3
            2.765839934E-3
            2.815026941E-3
            2.864511531E-3
            2.914292093E-3
            2.964367040E-3
            3.014734815E-3
            3.065393884E-3
            3.116342737E-3
            3.167579889E-3
            3.219103878E-3
            3.270913266E-3
            3.323006636E-3
            3.375382593E-3
            3.428039762E-3
            3.480976791E-3
            3.534192344E-3
            3.587685110E-3
            3.641453791E-3
            3.695497113E-3
            3.749813817E-3
            3.804402662E-3
            3.859262425E-3
            3.914391901E-3
            3.969789898E-3
            4.025455245E-3
            4.081386782E-3
            4.137583367E-3
            4.194043873E-3
            4.250767188E-3
            4.307752213E-3
            4.364997865E-3
            4.422503072E-3
            4.480266779E-3
            4.538287942E-3
            4.596565530E-3
            4.655098526E-3
            4.713885924E-3
            4.772926732E-3
            4.832219967E-3
            4.891764661E-3
            4.951559856E-3
            5.011604603E-3
            5.071897969E-3
            5.132439028E-3
            5.193226864E-3
            5.254260576E-3
            5.315539268E-3
            5.377062056E-3
            5.438828068E-3
            5.500836438E-3
            5.563086312E-3
            5.625576844E-3
            5.688307198E-3
            5.751276546E-3
            5.814484070E-3
            5.877928959E-3
            5.941610412E-3
            6.005527636E-3
            6.069679846E-3
            6.134066265E-3
            6.198686123E-3
            6.263538660E-3
            6.328623122E-3
            6.393938763E-3
            6.459484844E-3
            6.525260634E-3
            6.591265409E-3
            6.657498451E-3
            6.723959050E-3
            6.790646503E-3
            6.857560113E-3
            6.924699190E-3
            6.992063050E-3
            7.059651016E-3
            7.127462417E-3
            7.195496588E-3
            7.263752871E-3
            7.332230613E-3
            7.400929167E-3
            7.469847893E-3
            7.538986154E-3
            7.608343323E-3
            7.677918774E-3
            7.747711889E-3
            7.817722055E-3
            7.887948665E-3
            7.958391116E-3
            8.029048810E-3
            8.099921157E-3
            8.171007567E-3
            8.242307460E-3
            8.313820257E-3
            8.385545387E-3
            8.457482282E-3
            8.529630378E-3
            8.601989117E-3
            8.674557945E-3
            8.747336313E-3
            8.820323676E-3
            8.893519493E-3
            8.966923229E-3
            9.040534350E-3
            9.114352330E-3
            9.188376644E-3
            9.262606774E-3
            9.337042203E-3
            9.411682420E-3
            9.486526917E-3
            9.561575191E-3
            9.636826742E-3
            9.712281074E-3
            9.787937694E-3
            9.863796113E-3
            9.939855848E-3
            1.001611642E-2
            1.009257734E-2
            1.016923814E-2
            1.024609836E-2
            1.032315752E-2
            1.040041515E-2
            1.047787081E-2
            1.055552402E-2
            1.063337434E-2
            1.071142132E-2
            1.078966451E-2
            1.086810346E-2
            1.094673773E-2
            1.102556688E-2
            1.110459048E-2
            1.118380810E-2
            1.126321930E-2
            1.134282367E-2
            1.142262076E-2
            1.150261018E-2
            1.158279149E-2
            1.166316429E-2
            1.174372816E-2
            1.182448268E-2
            1.190542746E-2
            1.198656210E-2
            1.206788618E-2
            1.214939931E-2
            1.223110109E-2
            1.231299113E-2
            1.239506904E-2
            1.247733444E-2
            1.255978692E-2
            1.264242612E-2
            1.272525164E-2
            1.280826312E-2
            1.289146017E-2
            1.297484241E-2
            1.305840949E-2
            1.314216102E-2
            1.322609665E-2
            1.331021600E-2
            1.339451871E-2
            1.347900443E-2
            1.356367279E-2
            1.364852344E-2
            1.373355603E-2
            1.381877020E-2
            1.390416560E-2
            1.398974188E-2
            1.407549871E-2
            1.416143573E-2
            1.424755261E-2
            1.433384900E-2
            1.442032457E-2
            1.450697898E-2
            1.459381190E-2
            1.468082300E-2
            1.476801194E-2
            1.485537840E-2
            1.494292205E-2
            1.503064257E-2
            1.511853964E-2
            1.520661294E-2
            1.529486214E-2
            1.538328693E-2
            1.547188699E-2
            1.556066202E-2
            1.564961170E-2
            1.573873571E-2
            1.582803376E-2
            1.591750553E-2
            1.600715072E-2
            1.609696903E-2
            1.618696015E-2
            1.627712378E-2
            1.636745963E-2
            1.645796741E-2
            1.654864680E-2
            1.663949753E-2
            1.673051929E-2
            1.682171180E-2
            1.691307477E-2
            1.700460791E-2
            1.709631094E-2
            1.718818357E-2
            1.728022551E-2
            1.737243649E-2
            1.746481623E-2
            1.755736444E-2
            1.765008086E-2
            1.774296519E-2
            1.783601718E-2
            1.792923654E-2
            1.802262301E-2
            1.811617631E-2
            1.820989618E-2
            1.830378234E-2
            1.839783453E-2
            1.849205249E-2
            1.858643596E-2
            1.868098466E-2
            1.877569834E-2
            1.887057674E-2
            1.896561960E-2
            1.906082667E-2
            1.915619768E-2
            1.925173238E-2
            1.934743053E-2
            1.944329186E-2
            1.953931612E-2
            1.963550307E-2
            1.973185245E-2
            1.982836403E-2
            1.992503754E-2
            2.002187275E-2
            2.011886942E-2
            2.021602729E-2
            2.031334613E-2
            2.041082570E-2
            2.050846576E-2
            2.060626606E-2
            2.070422638E-2
            2.080234647E-2
            2.090062610E-2
            2.099906504E-2
            2.109766305E-2
            2.119641990E-2
            2.129533536E-2
            2.139440920E-2
            2.149364118E-2
            2.159303109E-2
            2.169257870E-2
            2.179228377E-2
            2.189214609E-2
            2.199216544E-2
            2.209234157E-2
            2.219267429E-2
            2.229316336E-2
            2.239380856E-2
            2.249460968E-2
            2.259556650E-2
            2.269667880E-2
            2.279794636E-2
            2.289936897E-2
            2.300094641E-2
            2.310267848E-2
            2.320456496E-2
            2.330660563E-2
            2.340880029E-2
            2.351114872E-2
            2.361365073E-2
            2.371630609E-2
            2.381911460E-2
            2.392207606E-2
            2.402519026E-2
            2.412845700E-2
            2.423187607E-2
            2.433544726E-2
            2.443917039E-2
            2.454304524E-2
            2.464707161E-2
            2.475124931E-2
            2.485557814E-2
            2.496005790E-2
            2.506468839E-2
            2.516946941E-2
            2.527440077E-2
            2.537948228E-2
            2.548471374E-2
            2.559009495E-2
            2.569562573E-2
            2.580130588E-2
            2.590713522E-2
            2.601311355E-2
            2.611924068E-2
            2.622551642E-2
            2.633194059E-2
            2.643851300E-2
            2.654523346E-2
            2.665210179E-2
            2.675911780E-2
            2.686628131E-2
            2.697359213E-2
            2.708105008E-2
            2.718865498E-2
            2.729640664E-2
            2.740430489E-2
            2.751234955E-2
            2.762054043E-2
            2.772887736E-2
            2.783736016E-2
            2.794598865E-2
            2.805476266E-2
            2.816368201E-2
            2.827274652E-2
            2.838195602E-2
            2.849131033E-2
            2.860080929E-2
            2.871045272E-2
            2.882024044E-2
            2.893017228E-2
            2.904024808E-2
            2.915046767E-2
            2.926083086E-2
            2.937133751E-2
            2.948198743E-2
            2.959278045E-2
            2.970371642E-2
            2.981479517E-2
            2.992601652E-2
            3.003738032E-2
            3.014888639E-2
            3.026053458E-2
            3.037232473E-2
            3.048425665E-2
            3.059633021E-2
            3.070854522E-2
            3.082090154E-2
            3.093339900E-2
            3.104603745E-2
            3.115881671E-2
            3.127173664E-2
            3.138479707E-2
            3.149799784E-2
            3.161133881E-2
            3.172481980E-2
            3.183844067E-2
            3.195220126E-2
            3.206610142E-2
            3.218014098E-2
            3.229431980E-2
            3.240863773E-2
            3.252309460E-2
            3.263769027E-2
            3.275242458E-2
            3.286729738E-2
            3.298230853E-2
            3.309745786E-2
            3.321274524E-2
            3.332817051E-2
            3.344373352E-2
            3.355943413E-2
            3.367527218E-2
            3.379124752E-2
            3.390736003E-2
            3.402360953E-2
            3.413999589E-2
            3.425651897E-2
            3.437317861E-2
            3.448997468E-2
            3.460690703E-2
            3.472397551E-2
            3.484117998E-2
            3.495852031E-2
            3.507599634E-2
            3.519360794E-2
            3.531135496E-2
            3.542923726E-2
            3.554725470E-2
            3.566540715E-2
            3.578369446E-2
            3.590211650E-2
            3.602067312E-2
            3.613936419E-2
            3.625818956E-2
            3.637714911E-2
            3.649624270E-2
            3.661547018E-2
            3.673483142E-2
            3.685432629E-2
            3.697395466E-2
            3.709371638E-2
            3.721361132E-2
            3.733363935E-2
            3.745380034E-2
            3.757409415E-2
            3.769452064E-2
            3.781507970E-2
            3.793577118E-2
            3.805659495E-2
            3.817755089E-2
            3.829863886E-2
            3.841985873E-2
            3.854121037E-2
            3.866269365E-2
            3.878430845E-2
            3.890605463E-2
            3.902793207E-2
            3.914994064E-2
            3.927208021E-2
            3.939435065E-2
            3.951675184E-2
            3.963928365E-2
            3.976194596E-2
            3.988473863E-2
            4.000766155E-2
            4.013071459E-2
            4.025389762E-2
            4.037721052E-2
            4.050065317E-2
            4.062422544E-2
            4.074792722E-2
            4.087175837E-2
            4.099571877E-2
            4.111980831E-2
            4.124402687E-2
            4.136837431E-2
            4.149285052E-2
            4.161745538E-2
            4.174218877E-2
            4.186705057E-2
            4.199204066E-2
            4.211715892E-2
            4.224240523E-2
            4.236777948E-2
            4.249328154E-2
            4.261891130E-2
            4.274466864E-2
            4.287055344E-2
            4.299656558E-2
            4.312270496E-2
            4.324897145E-2
            4.337536494E-2
            4.350188531E-2
            4.362853245E-2
            4.375530624E-2
            4.388220656E-2
            4.400923331E-2
            4.413638638E-2
            4.426366563E-2
            4.439107097E-2
            4.451860229E-2
            4.464625945E-2
            4.477404237E-2
            4.490195092E-2
            4.502998498E-2
            4.515814446E-2
            4.528642924E-2
            4.541483921E-2
            4.554337426E-2
            4.567203427E-2
            4.580081914E-2
            4.592972876E-2
            4.605876302E-2
            4.618792181E-2
            4.631720503E-2
            4.644661255E-2
            4.657614428E-2
            4.670580011E-2
            4.683557993E-2
            4.696548363E-2
            4.709551111E-2
            4.722566226E-2
            4.735593697E-2
            4.748633514E-2
            4.761685666E-2
            4.774750143E-2
            4.787826933E-2
            4.800916028E-2
            4.814017415E-2
            4.827131085E-2
            4.840257027E-2
            4.853395231E-2
            4.866545687E-2
            4.879708384E-2
            4.892883312E-2
            4.906070460E-2
            4.919269819E-2
            4.932481378E-2
            4.945705127E-2
            4.958941055E-2
            4.972189154E-2
            4.985449412E-2
            4.998721819E-2
            5.012006366E-2
            5.025303042E-2
            5.038611837E-2
            5.051932742E-2
            5.065265746E-2
            5.078610839E-2
            5.091968012E-2
            5.105337255E-2
            5.118718558E-2
            5.132111910E-2
            5.145517303E-2
            5.158934726E-2
            5.172364169E-2
            5.185805624E-2
            5.199259079E-2
            5.212724526E-2
            5.226201955E-2
            5.239691356E-2
            5.253192720E-2
            5.266706036E-2
            5.280231296E-2
            5.293768490E-2
            5.307317608E-2
            5.320878641E-2
            5.334451579E-2
            5.348036413E-2
            5.361633134E-2
            5.375241732E-2
            5.388862197E-2
            5.402494521E-2
            5.416138694E-2
            5.429794706E-2
            5.443462549E-2
            5.457142213E-2
            5.470833689E-2
            5.484536967E-2
            5.498252039E-2
            5.511978896E-2
            5.525717527E-2
            5.539467924E-2
            5.553230079E-2
            5.567003981E-2
            5.580789622E-2
            5.594586992E-2
            5.608396084E-2
            5.622216887E-2
            5.636049392E-2
            5.649893591E-2
            5.663749476E-2
            5.677617036E-2
            5.691496262E-2
            5.705387148E-2
            5.719289682E-2
            5.733203857E-2
            5.747129663E-2
            5.761067092E-2
            5.775016135E-2
            5.788976784E-2
            5.802949029E-2
            5.816932861E-2
            5.830928273E-2
            5.844935256E-2
            5.858953800E-2
            5.872983898E-2
            5.887025540E-2
            5.901078718E-2
            5.915143423E-2
            5.929219648E-2
            5.943307383E-2
            5.957406619E-2
            5.971517349E-2
            5.985639564E-2
            5.999773255E-2
            6.013918415E-2
            6.028075034E-2
            6.042243104E-2
            6.056422617E-2
            6.070613564E-2
            6.084815937E-2
            6.099029729E-2
            6.113254929E-2
            6.127491531E-2
            6.141739526E-2
            6.155998906E-2
            6.170269662E-2
            6.184551787E-2
            6.198845271E-2
            6.213150107E-2
            6.227466288E-2
            6.241793803E-2
            6.256132647E-2
            6.270482809E-2
            6.284844284E-2
            6.299217061E-2
            6.313601133E-2
            6.327996493E-2
            6.342403132E-2
            6.356821042E-2
            6.371250216E-2
            6.385690644E-2
            6.400142320E-2
            6.414605236E-2
            6.429079383E-2
            6.443564753E-2
            6.458061339E-2
            6.472569133E-2
            6.487088128E-2
            6.501618314E-2
            6.516159685E-2
            6.530712232E-2
            6.545275949E-2
            6.559850826E-2
            6.574436857E-2
            6.589034034E-2
            6.603642348E-2
            6.618261793E-2
            6.632892361E-2
            6.647534043E-2
            6.662186833E-2
            6.676850722E-2
            6.691525704E-2
            6.706211770E-2
            6.720908913E-2
            6.735617126E-2
            6.750336400E-2
            6.765066728E-2
            6.779808104E-2
            6.794560519E-2
            6.809323965E-2
            6.824098436E-2
            6.838883924E-2
            6.853680422E-2
            6.868487921E-2
            6.883306416E-2
            6.898135897E-2
            6.912976359E-2
            6.927827793E-2
            6.942690192E-2
            6.957563550E-2
            6.972447858E-2
            6.987343109E-2
            7.002249297E-2
            7.017166413E-2
            7.032094451E-2
            7.047033403E-2
            7.061983262E-2
            7.076944021E-2
            7.091915673E-2
            7.106898211E-2
            7.121891626E-2
            7.136895914E-2
            7.151911065E-2
            7.166937073E-2
            7.181973931E-2
            7.197021632E-2
            7.212080169E-2
            7.227149534E-2
            7.242229721E-2
            7.257320723E-2
            7.272422532E-2
            7.287535142E-2
            7.302658546E-2
            7.317792736E-2
            7.332937706E-2
            7.348093448E-2
            7.363259957E-2
            7.378437224E-2
            7.393625243E-2
            7.408824008E-2
            7.424033510E-2
            7.439253745E-2
            7.454484703E-2
            7.469726379E-2
            7.484978767E-2
            7.500241858E-2
            7.515515646E-2
            7.530800125E-2
            7.546095288E-2
            7.561401128E-2
            7.576717637E-2
            7.592044811E-2
            7.607382641E-2
            7.622731121E-2
            7.638090245E-2
            7.653460005E-2
            7.668840396E-2
            7.684231410E-2
            7.699633040E-2
            7.715045281E-2
            7.730468125E-2
            7.745901566E-2
            7.761345598E-2
            7.776800213E-2
            7.792265406E-2
            7.807741169E-2
            7.823227496E-2
            7.838724381E-2
            7.854231817E-2
            7.869749798E-2
            7.885278317E-2
            7.900817367E-2
            7.916366943E-2
            7.931927038E-2
            7.947497644E-2
            7.963078757E-2
            7.978670369E-2
            7.994272474E-2
            8.009885066E-2
            8.025508138E-2
            8.041141684E-2
            8.056785698E-2
            8.072440173E-2
            8.088105102E-2
            8.103780481E-2
            8.119466302E-2
            8.135162558E-2
            8.150869245E-2
            8.166586355E-2
            8.182313882E-2
            8.198051820E-2
            8.213800163E-2
            8.229558905E-2
            8.245328038E-2
            8.261107558E-2
            8.276897458E-2
            8.292697731E-2
            8.308508372E-2
            8.324329375E-2
            8.340160733E-2
            8.356002440E-2
            8.371854489E-2
            8.387716876E-2
            8.403589594E-2
            8.419472636E-2
            8.435365997E-2
            8.451269671E-2
            8.467183651E-2
            8.483107932E-2
            8.499042507E-2
            8.514987371E-2
            8.530942517E-2
            8.546907940E-2
            8.562883633E-2
            8.578869590E-2
            8.594865806E-2
            8.610872275E-2
            8.626888990E-2
            8.642915946E-2
            8.658953136E-2
            8.675000556E-2
            8.691058198E-2
            8.707126058E-2
            8.723204129E-2
            8.739292405E-2
            8.755390880E-2
            8.771499549E-2
            8.787618406E-2
            8.803747445E-2
            8.819886660E-2
            8.836036045E-2
            8.852195595E-2
            8.868365303E-2
            8.884545165E-2
            8.900735173E-2
            8.916935323E-2
            8.933145609E-2
            8.949366025E-2
            8.965596565E-2
            8.981837223E-2
            8.998087994E-2
            9.014348872E-2
            9.030619852E-2
            9.046900928E-2
            9.063192093E-2
            9.079493343E-2
            9.095804672E-2
            9.112126073E-2
            9.128457543E-2
            9.144799074E-2
            9.161150662E-2
            9.177512300E-2
            9.193883983E-2
            9.210265706E-2
            9.226657463E-2
            9.243059248E-2
            9.259471056E-2
            9.275892881E-2
            9.292324718E-2
            9.308766561E-2
            9.325218405E-2
            9.341680244E-2
            9.358152073E-2
            9.374633887E-2
            9.391125679E-2
            9.407627444E-2
            9.424139177E-2
            9.440660873E-2
            9.457192525E-2
            9.473734129E-2
            9.490285680E-2
            9.506847171E-2
            9.523418597E-2
            9.539999953E-2
            9.556591234E-2
            9.573192434E-2
            9.589803547E-2
            9.606424570E-2
            9.623055495E-2
            9.639696318E-2
            9.656347033E-2
            9.673007636E-2
