luts/LMT_Power_16.spi1d
Version 1
From 0.000000 1.000000
Length 4096
Components 1
{
        0.000000000E+0
        1.661092243E-6
        5.035490063E-6
        9.633581099E-6
        1.526475142E-5
        2.181452481E-5
        2.920355693E-5
        3.737236780E-5
        4.627407322E-5
        5.587039803E-5
        6.612927330E-5
        7.702328667E-5
        8.852863009E-5
        1.006243560E-4
        1.132918340E-4
        1.265143431E-4
        1.402767588E-4
        1.545653083E-4
        1.693673757E-4
        1.846713448E-4
        2.004664702E-4
        2.167427712E-4
        2.334909432E-4
        2.507022824E-4
        2.683686225E-4
        2.864822798E-4
        3.050360068E-4
        3.240229509E-4
        3.434366193E-4
        3.632708473E-4
        3.835197714E-4
        4.041778044E-4
        4.252396143E-4
        4.467001045E-4
        4.685543968E-4
        4.907978157E-4
        5.134258745E-4
        5.364342624E-4
        5.598188333E-4
        5.835755950E-4
        6.077006997E-4
        6.321904354E-4
        6.570412180E-4
        6.822495834E-4
        7.078121815E-4
        7.337257693E-4
        7.599872055E-4
        7.865934450E-4
        8.135415341E-4
        8.408286056E-4
        8.684518751E-4
        8.964086363E-4
        9.246962578E-4
        9.533121795E-4
        9.822539093E-4
        1.011519020E-3
        1.041105147E-3
        1.071009984E-3
        1.101231283E-3
        1.131766849E-3
        1.162614542E-3
        1.193772269E-3
        1.225237988E-3
        1.257009701E-3
        1.289085456E-3
        1.321463344E-3
        1.354141497E-3
        1.387118087E-3
        1.420391323E-3
        1.453959453E-3
        1.487820760E-3
        1.521973561E-3
        1.556416207E-3
        1.591147081E-3
        1.626164597E-3
        1.661467199E-3
        1.697053360E-3
        1.732921582E-3
        1.769070394E-3
        1.805498352E-3
        1.842204036E-3
        1.879186053E-3
        1.916443032E-3
        1.953973629E-3
        1.991776518E-3
        2.029850399E-3
        2.068193992E-3
        2.106806038E-3
        2.145685299E-3
        2.184830555E-3
        2.224240608E-3
        2.263914275E-3
        2.303850395E-3
        2.344047823E-3
        2.384505431E-3
        2.425222109E-3
        2.466196761E-3
        2.507428311E-3
        2.548915694E-3
        2.590657864E-3
        2.632653789E-3
        2.674902449E-3
        2.717402841E-3
        2.760153975E-3
        2.803154874E-3
        2.846404575E-3
        2.889902127E-3
        2.933646593E-3
        2.977637046E-3
        3.021872573E-3
        3.066352272E-3
        3.111075253E-3
        3.156040637E-3
        3.201247555E-3
        3.246695151E-3
        3.292382577E-3
        3.338308998E-3
        3.384473586E-3
        3.430875526E-3
        3.477514011E-3
        3.524388244E-3
        3.571497437E-3
        3.618840811E-3
        3.666417596E-3
        3.714227032E-3
        3.762268367E-3
        3.810540856E-3
        3.859043764E-3
        3.907776363E-3
        3.956737935E-3
        4.005927766E-3
        4.055345154E-3
        4.104989402E-3
        4.154859820E-3
        4.204955728E-3
        4.255276450E-3
        4.305821318E-3
        4.356589673E-3
        4.407580860E-3
        4.458794232E-3
        4.510229148E-3
        4.561884974E-3
        4.613761081E-3
        4.665856848E-3
        4.718171659E-3
        4.770704905E-3
        4.823455981E-3
        4.876424290E-3
        4.929609238E-3
        4.983010241E-3
        5.036626715E-3
        5.090458086E-3
        5.144503783E-3
        5.198763242E-3
        5.253235901E-3
        5.307921206E-3
        5.362818608E-3
        5.417927561E-3
        5.473247525E-3
        5.528777966E-3
        5.584518352E-3
        5.640468159E-3
        5.696626863E-3
        5.752993950E-3
        5.809568906E-3
        5.866351223E-3
        5.923340399E-3
        5.980535933E-3
        6.037937330E-3
        6.095544100E-3
        6.153355755E-3
        6.211371812E-3
        6.269591794E-3
        6.328015223E-3
        6.386641630E-3
        6.445470546E-3
        6.504501509E-3
        6.563734057E-3
        6.623167735E-3
        6.682802091E-3
        6.742636674E-3
        6.802671039E-3
        6.862904744E-3
        6.923337351E-3
        6.983968422E-3
        7.044797527E-3
        7.105824237E-3
        7.167048126E-3
        7.228468771E-3
        7.290085753E-3
        7.351898656E-3
        7.413907067E-3
        7.476110575E-3
        7.538508774E-3
        7.601101260E-3
        7.663887631E-3
        7.726867489E-3
        7.790040438E-3
        7.853406086E-3
        7.916964043E-3
        7.980713922E-3
        8.044655338E-3
        8.108787910E-3
        8.173111259E-3
        8.237625007E-3
        8.302328782E-3
        8.367222211E-3
        8.432304926E-3
        8.497576562E-3
        8.563036753E-3
        8.628685138E-3
        8.694521359E-3
        8.760545059E-3
        8.826755884E-3
        8.893153482E-3
        8.959737502E-3
        9.026507599E-3
        9.093463426E-3
        9.160604641E-3
        9.227930904E-3
        9.295441875E-3
        9.363137219E-3
        9.431016602E-3
        9.499079691E-3
        9.567326156E-3
        9.635755670E-3
        9.704367906E-3
        9.773162541E-3
        9.842139254E-3
        9.911297723E-3
        9.980637631E-3
        1.005015866E-2
        1.011986050E-2
        1.018974284E-2
        1.025980537E-2
        1.033004777E-2
        1.040046975E-2
        1.047107099E-2
        1.054185119E-2
        1.061281006E-2
        1.068394730E-2
        1.075526260E-2
        1.082675566E-2
        1.089842621E-2
        1.097027394E-2
        1.104229856E-2
        1.111449978E-2
        1.118687732E-2
        1.125943089E-2
        1.133216020E-2
        1.140506498E-2
        1.147814494E-2
        1.155139981E-2
        1.162482929E-2
        1.169843313E-2
        1.177221104E-2
        1.184616274E-2
        1.192028798E-2
        1.199458647E-2
        1.206905796E-2
        1.214370216E-2
        1.221851882E-2
        1.229350767E-2
        1.236866844E-2
        1.244400088E-2
        1.251950473E-2
        1.259517972E-2
        1.267102560E-2
        1.274704212E-2
        1.282322901E-2
        1.289958602E-2
        1.297611290E-2
        1.305280941E-2
        1.312967528E-2
        1.320671028E-2
        1.328391415E-2
        1.336128666E-2
        1.343882754E-2
        1.351653657E-2
        1.359441349E-2
        1.367245808E-2
        1.375067008E-2
        1.382904926E-2
        1.390759538E-2
        1.398630821E-2
        1.406518751E-2
        1.414423304E-2
        1.422344458E-2
        1.430282190E-2
        1.438236475E-2
        1.446207292E-2
        1.454194617E-2
        1.462198428E-2
        1.470218702E-2
        1.478255416E-2
        1.486308549E-2
        1.494378078E-2
        1.502463980E-2
        1.510566235E-2
        1.518684819E-2
        1.526819710E-2
        1.534970888E-2
        1.543138331E-2
        1.551322016E-2
        1.559521922E-2
        1.567738029E-2
        1.575970314E-2
        1.584218757E-2
        1.592483337E-2
        1.600764032E-2
        1.609060821E-2
        1.617373685E-2
        1.625702601E-2
        1.634047551E-2
        1.642408512E-2
        1.650785465E-2
        1.659178389E-2
        1.667587265E-2
        1.676012071E-2
        1.684452788E-2
        1.692909397E-2
        1.701381876E-2
        1.709870206E-2
        1.718374368E-2
        1.726894342E-2
        1.735430108E-2
        1.743981647E-2
        1.752548940E-2
        1.761131967E-2
        1.769730709E-2
        1.778345147E-2
        1.786975262E-2
        1.795621034E-2
        1.804282446E-2
        1.812959478E-2
        1.821652111E-2
        1.830360328E-2
        1.839084108E-2
        1.847823435E-2
        1.856578289E-2
        1.865348651E-2
        1.874134505E-2
        1.882935831E-2
        1.891752612E-2
        1.900584829E-2
        1.909432465E-2
        1.918295501E-2
        1.927173920E-2
        1.936067704E-2
        1.944976836E-2
        1.953901297E-2
        1.962841071E-2
        1.971796139E-2
        1.980766484E-2
        1.989752090E-2
        1.998752938E-2
        2.007769012E-2
        2.016800294E-2
        2.025846768E-2
        2.034908416E-2
        2.043985222E-2
        2.053077168E-2
        2.062184238E-2
        2.071306415E-2
        2.080443683E-2
        2.089596025E-2
        2.098763424E-2
        2.107945863E-2
        2.117143328E-2
        2.126355800E-2
        2.135583264E-2
        2.144825704E-2
        2.154083103E-2
        2.163355446E-2
        2.172642715E-2
        2.181944897E-2
        2.191261973E-2
        2.200593929E-2
        2.209940749E-2
        2.219302417E-2
        2.228678918E-2
        2.238070235E-2
        2.247476353E-2
        2.256897256E-2
        2.266332930E-2
        2.275783359E-2
        2.285248527E-2
        2.294728419E-2
        2.304223021E-2
        2.313732316E-2
        2.323256289E-2
        2.332794926E-2
        2.342348212E-2
        2.351916131E-2
        2.361498669E-2
        2.371095811E-2
        2.380707542E-2
        2.390333847E-2
        2.399974711E-2
        2.409630121E-2
        2.419300061E-2
        2.428984517E-2
        2.438683474E-2
        2.448396918E-2
        2.458124834E-2
        2.467867209E-2
        2.477624027E-2
        2.487395275E-2
        2.497180938E-2
        2.506981003E-2
        2.516795455E-2
        2.526624280E-2
        2.536467464E-2
        2.546324994E-2
        2.556196854E-2
        2.566083032E-2
        2.575983514E-2
        2.585898285E-2
        2.595827333E-2
        2.605770643E-2
        2.615728202E-2
        2.625699996E-2
        2.635686012E-2
        2.645686237E-2
        2.655700656E-2
        2.665729256E-2
        2.675772024E-2
        2.685828948E-2
        2.695900012E-2
        2.705985205E-2
        2.716084513E-2
        2.726197922E-2
        2.736325421E-2
        2.746466995E-2
        2.756622632E-2
        2.766792319E-2
        2.776976043E-2
        2.787173790E-2
        2.797385549E-2
        2.807611306E-2
        2.817851049E-2
        2.828104764E-2
        2.838372440E-2
        2.848654063E-2
        2.858949621E-2
        2.869259101E-2
        2.879582491E-2
        2.889919778E-2
        2.900270950E-2
        2.910635995E-2
        2.921014900E-2
        2.931407652E-2
        2.941814241E-2
        2.952234652E-2
        2.962668874E-2
        2.973116895E-2
        2.983578703E-2
        2.994054286E-2
        3.004543631E-2
        3.015046726E-2
        3.025563560E-2
        3.036094121E-2
        3.046638396E-2
        3.057196374E-2
        3.067768043E-2
        3.078353391E-2
        3.088952407E-2
        3.099565078E-2
        3.110191393E-2
        3.120831340E-2
        3.131484908E-2
        3.142152084E-2
        3.152832859E-2
        3.163527219E-2
        3.174235153E-2
        3.184956650E-2
        3.195691699E-2
        3.206440288E-2
        3.217202406E-2
        3.227978041E-2
        3.238767183E-2
        3.249569819E-2
        3.260385938E-2
        3.271215531E-2
        3.282058584E-2
        3.292915088E-2
        3.303785031E-2
        3.314668401E-2
        3.325565189E-2
        3.336475382E-2
        3.347398971E-2
        3.358335944E-2
        3.369286289E-2
        3.380249997E-2
        3.391227056E-2
        3.402217456E-2
        3.413221186E-2
        3.424238234E-2
        3.435268591E-2
        3.446312246E-2
        3.457369187E-2
        3.468439405E-2
        3.479522889E-2
        3.490619627E-2
        3.501729610E-2
        3.512852828E-2
        3.523989268E-2
        3.535138922E-2
        3.546301779E-2
        3.557477828E-2
        3.568667058E-2
        3.579869461E-2
        3.591085024E-2
        3.602313739E-2
        3.613555594E-2
        3.624810579E-2
        3.636078685E-2
        3.647359901E-2
        3.658654217E-2
        3.669961623E-2
        3.681282108E-2
        3.692615663E-2
        3.703962278E-2
        3.715321942E-2
        3.726694646E-2
        3.738080379E-2
        3.749479132E-2
        3.760890895E-2
        3.772315658E-2
        3.783753411E-2
        3.795204144E-2
        3.806667848E-2
        3.818144512E-2
        3.829634128E-2
        3.841136684E-2
        3.852652172E-2
        3.864180582E-2
        3.875721904E-2
        3.887276128E-2
        3.898843245E-2
        3.910423246E-2
        3.922016121E-2
        3.933621860E-2
        3.945240453E-2
        3.956871892E-2
        3.968516167E-2
        3.980173268E-2
        3.991843187E-2
        4.003525913E-2
        4.015221437E-2
        4.026929750E-2
        4.038650844E-2
        4.050384707E-2
        4.062131331E-2
        4.073890708E-2
        4.085662827E-2
        4.097447680E-2
        4.109245257E-2
        4.121055549E-2
        4.132878547E-2
        4.144714242E-2
        4.156562626E-2
        4.168423688E-2
        4.180297419E-2
        4.192183812E-2
        4.204082856E-2
        4.215994544E-2
        4.227918865E-2
        4.239855811E-2
        4.251805374E-2
        4.263767543E-2
        4.275742311E-2
        4.287729669E-2
        4.299729607E-2
        4.311742117E-2
        4.323767191E-2
        4.335804819E-2
        4.347854993E-2
        4.359917703E-2
        4.371992942E-2
        4.384080701E-2
        4.396180971E-2
        4.408293743E-2
        4.420419009E-2
        4.432556761E-2
        4.444706989E-2
        4.456869685E-2
        4.469044841E-2
        4.481232448E-2
        4.493432498E-2
        4.505644982E-2
        4.517869891E-2
        4.530107218E-2
        4.542356955E-2
        4.554619091E-2
        4.566893620E-2
        4.579180533E-2
        4.591479822E-2
        4.603791478E-2
        4.616115492E-2
        4.628451858E-2
        4.640800566E-2
        4.653161609E-2
        4.665534977E-2
        4.677920664E-2
        4.690318660E-2
        4.702728958E-2
        4.715151550E-2
        4.727586427E-2
        4.740033581E-2
        4.752493004E-2
        4.764964689E-2
        4.777448627E-2
        4.789944810E-2
        4.802453230E-2
        4.814973880E-2
        4.827506750E-2
        4.840051834E-2
        4.852609123E-2
        4.865178610E-2
        4.877760286E-2
        4.890354144E-2
        4.902960176E-2
        4.915578374E-2
        4.928208730E-2
        4.940851237E-2
        4.953505886E-2
        4.966172670E-2
        4.978851581E-2
        4.991542612E-2
        5.004245754E-2
        5.016961000E-2
        5.029688343E-2
        5.042427774E-2
        5.055179287E-2
        5.067942872E-2
        5.080718524E-2
        5.093506233E-2
        5.106305994E-2
        5.119117797E-2
        5.131941636E-2
        5.144777503E-2
        5.157625390E-2
        5.170485290E-2
        5.183357196E-2
        5.196241100E-2
        5.209136994E-2
        5.222044872E-2
        5.234964725E-2
        5.247896547E-2
        5.260840330E-2
        5.273796066E-2
        5.286763749E-2
        5.299743371E-2
        5.312734924E-2
        5.325738402E-2
        5.338753796E-2
        5.351781101E-2
        5.364820308E-2
        5.377871410E-2
        5.390934400E-2
        5.404009271E-2
        5.417096016E-2
        5.430194627E-2
        5.443305098E-2
        5.456427420E-2
        5.469561588E-2
        5.482707594E-2
        5.495865430E-2
        5.509035090E-2
        5.522216567E-2
        5.535409854E-2
        5.548614943E-2
        5.561831827E-2
        5.575060500E-2
        5.588300955E-2
        5.601553184E-2
        5.614817181E-2
        5.628092938E-2
        5.641380449E-2
        5.654679707E-2
        5.667990704E-2
        5.681313435E-2
        5.694647891E-2
        5.707994067E-2
        5.721351955E-2
        5.734721548E-2
        5.748102840E-2
        5.761495824E-2
        5.774900493E-2
        5.788316840E-2
        5.801744858E-2
        5.815184542E-2
        5.828635883E-2
        5.842098875E-2
        5.855573512E-2
        5.869059787E-2
        5.882557693E-2
        5.896067223E-2
        5.909588372E-2
        5.923121131E-2
        5.936665494E-2
        5.950221456E-2
        5.963789009E-2
        5.977368146E-2
        5.990958862E-2
        6.004561149E-2
        6.018175001E-2
        6.031800411E-2
        6.045437373E-2
        6.059085881E-2
        6.072745927E-2
        6.086417506E-2
        6.100100611E-2
        6.113795235E-2
        6.127501371E-2
        6.141219015E-2
        6.154948158E-2
        6.168688795E-2
        6.182440920E-2
        6.196204525E-2
        6.209979604E-2
        6.223766152E-2
        6.237564161E-2
        6.251373626E-2
        6.265194540E-2
        6.279026896E-2
        6.292870689E-2
        6.306725912E-2
        6.320592559E-2
        6.334470624E-2
        6.348360100E-2
        6.362260981E-2
        6.376173260E-2
        6.390096933E-2
        6.404031991E-2
        6.417978430E-2
        6.431936243E-2
        6.445905424E-2
        6.459885967E-2
        6.473877865E-2
        6.487881112E-2
        6.501895703E-2
        6.515921631E-2
        6.529958890E-2
        6.544007473E-2
        6.558067376E-2
        6.572138592E-2
        6.586221114E-2
        6.600314937E-2
        6.614420054E-2
        6.628536460E-2
        6.642664149E-2
        6.656803114E-2
        6.670953350E-2
        6.685114850E-2
        6.699287610E-2
        6.713471621E-2
        6.727666880E-2
        6.741873379E-2
        6.756091114E-2
        6.770320077E-2
        6.784560263E-2
        6.798811666E-2
        6.813074281E-2
        6.827348101E-2
        6.841633121E-2
        6.855929334E-2
        6.870236736E-2
        6.884555319E-2
        6.898885078E-2
        6.913226008E-2
        6.927578103E-2
        6.941941356E-2
        6.956315762E-2
        6.970701316E-2
        6.985098011E-2
        6.999505842E-2
        7.013924803E-2
        7.028354888E-2
        7.042796092E-2
        7.057248408E-2
        7.071711832E-2
        7.086186358E-2
        7.100671979E-2
        7.115168690E-2
        7.129676486E-2
        7.144195361E-2
        7.158725309E-2
        7.173266325E-2
        7.187818403E-2
        7.202381537E-2
        7.216955722E-2
        7.231540952E-2
        7.246137222E-2
        7.260744526E-2
        7.275362859E-2
        7.289992214E-2
        7.304632587E-2
        7.319283972E-2
        7.333946363E-2
        7.348619756E-2
        7.363304143E-2
        7.377999521E-2
        7.392705883E-2
        7.407423224E-2
        7.422151539E-2
        7.436890821E-2
        7.451641067E-2
        7.466402269E-2
        7.481174424E-2
        7.495957525E-2
        7.510751566E-2
        7.525556544E-2
        7.540372451E-2
        7.555199284E-2
        7.570037036E-2
        7.584885702E-2
        7.599745277E-2
        7.614615755E-2
        7.629497131E-2
        7.644389400E-2
        7.659292557E-2
        7.674206596E-2
        7.689131512E-2
        7.704067299E-2
        7.719013953E-2
        7.733971468E-2
        7.748939838E-2
        7.763919059E-2
        7.778909126E-2
        7.793910033E-2
        7.808921774E-2
        7.823944345E-2
        7.838977741E-2
        7.854021956E-2
        7.869076985E-2
        7.884142823E-2
        7.899219465E-2
        7.914306905E-2
        7.929405139E-2
        7.944514161E-2
        7.959633967E-2
        7.974764550E-2
        7.989905906E-2
        8.005058030E-2
        8.020220917E-2
        8.035394562E-2
        8.050578959E-2
        8.065774103E-2
        8.080979990E-2
        8.096196615E-2
        8.111423971E-2
        8.126662055E-2
        8.141910861E-2
        8.157170384E-2
        8.172440620E-2
        8.187721563E-2
        8.203013208E-2
        8.218315550E-2
        8.233628584E-2
        8.248952306E-2
        8.264286709E-2
        8.279631791E-2
        8.294987544E-2
        8.310353965E-2
        8.325731048E-2
        8.341118789E-2
        8.356517183E-2
        8.371926224E-2
        8.387345909E-2
        8.402776231E-2
        8.418217186E-2
        8.433668769E-2
        8.449130976E-2
        8.464603801E-2
        8.480087239E-2
        8.495581287E-2
        8.511085938E-2
        8.526601188E-2
        8.542127033E-2
        8.557663467E-2
        8.573210486E-2
        8.588768084E-2
        8.604336257E-2
        8.619915001E-2
        8.635504310E-2
        8.651104180E-2
        8.666714605E-2
        8.682335582E-2
        8.697967105E-2
        8.713609170E-2
        8.729261772E-2
        8.744924906E-2
        8.760598567E-2
        8.776282751E-2
        8.791977454E-2
        8.807682669E-2
        8.823398394E-2
        8.839124622E-2
        8.854861350E-2
        8.870608572E-2
        8.886366284E-2
        8.902134482E-2
        8.917913160E-2
        8.933702314E-2
        8.949501940E-2
        8.965312033E-2
        8.981132587E-2
        8.996963600E-2
        9.012805065E-2
        9.028656979E-2
        9.044519336E-2
        9.060392133E-2
        9.076275364E-2
        9.092169025E-2
        9.108073112E-2
        9.123987620E-2
        9.139912544E-2
        9.155847880E-2
        9.171793623E-2
        9.187749769E-2
        9.203716314E-2
        9.219693252E-2
        9.235680579E-2
        9.251678291E-2
        9.267686384E-2
        9.283704852E-2
        9.299733691E-2
        9.315772897E-2
        9.331822466E-2
        9.347882393E-2
        9.363952673E-2
        9.380033302E-2
        9.396124275E-2
        9.412225589E-2
        9.428337238E-2
        9.444459219E-2
        9.460591527E-2
        9.476734157E-2
        9.492887105E-2
        9.509050367E-2
        9.525223938E-2
        9.541407814E-2
        9.557601990E-2
        9.573806463E-2
        9.590021228E-2
        9.606246280E-2
        9.622481615E-2
        9.638727229E-2
        9.654983117E-2
        9.671249276E-2
        9.687525700E-2
        9.703812386E-2
        9.720109329E-2
        9.736416525E-2
        9.752733969E-2
        9.769061658E-2
        9.785399587E-2
        9.801747751E-2
        9.818106147E-2
        9.834474770E-2
        9.850853616E-2
        9.867242681E-2
        9.883641960E-2
        9.900051450E-2
        9.916471145E-2
        9.932901042E-2
        9.949341137E-2
        9.965791425E-2
        9.982251902E-2
        9.998722564E-2
        1.001520341E-1
        1.003169443E-1
        1.004819562E-1
        1.006470698E-1
        1.008122850E-1
        1.009776018E-1
        1.011430202E-1
        1.013085401E-1
        1.014741615E-1
        1.016398843E-1
        1.018057085E-1
        1.019716341E-1
        1.021376609E-1
        1.023037890E-1
        1.024700184E-1
        1.026363489E-1
        1.028027806E-1
        1.029693134E-1
        1.031359472E-1
        1.033026821E-1
        1.034695179E-1
        1.036364547E-1
        1.038034924E-1
        1.039706309E-1
        1.041378703E-1
        1.043052104E-1
        1.044726513E-1
        1.046401929E-1
        1.048078351E-1
        1.049755779E-1
        1.051434213E-1
        1.053113653E-1
        1.054794097E-1
        1.056475546E-1
        1.058157999E-1
        1.059841456E-1
        1.061525916E-1
        1.063211380E-1
        1.064897845E-1
        1.066585313E-1
        1.068273783E-1
        1.069963254E-1
        1.071653726E-1
        1.073345198E-1
        1.075037671E-1
        1.076731144E-1
        1.078425616E-1
        1.080121087E-1
        1.081817556E-1
        1.083515024E-1
        1.085213490E-1
        1.086912953E-1
        1.088613413E-1
        1.090314869E-1
        1.092017322E-1
        1.093720771E-1
        1.095425216E-1
        1.097130655E-1
        1.098837089E-1
        1.100544518E-1
        1.102252940E-1
        1.103962356E-1
        1.105672765E-1
        1.107384167E-1
        1.109096562E-1
        1.110809948E-1
        1.112524326E-1
        1.114239695E-1
