luts/LMT_Two_Part_Sharp.spi1d
Version 1
From 0.000000 1.000000
Length 4096
Components 1
{
        0.000000000E+0
        1.890094769E-5
        3.780189539E-5
        5.670284308E-5
        7.560379077E-5
        9.450473847E-5
        1.134056862E-4
        1.323066339E-4
        1.512075815E-4
        1.701085292E-4
        1.890094769E-4
        2.079104246E-4
        2.268113723E-4
        2.457123200E-4
        2.646132677E-4
        2.835142154E-4
        3.024151631E-4
        3.213161108E-4
        3.402170585E-4
        3.591180062E-4
        3.780189539E-4
        3.969199016E-4
        4.158208493E-4
        4.347217970E-4
        4.536227446E-4
        4.725236923E-4
        4.914246400E-4
        5.103255877E-4
        5.292265354E-4
        5.481274831E-4
        5.670284308E-4
        5.859293785E-4
        6.048303262E-4
        6.237312739E-4
        6.426322216E-4
        6.615331693E-4
        6.804341170E-4
        6.993350647E-4
        7.182360124E-4
        7.371369600E-4
        7.560379077E-4
        7.749388554E-4
        7.938398031E-4
        8.127407508E-4
        8.316416985E-4
        8.505426462E-4
        8.694435939E-4
        8.883445416E-4
        9.072454893E-4
        9.261464370E-4
        9.450473847E-4
        9.639483324E-4
        9.828492801E-4
        1.001750228E-3
        1.020651175E-3
        1.039552123E-3
        1.058453071E-3
        1.077354019E-3
        1.096254966E-3
        1.115155914E-3
        1.134056862E-3
        1.152957809E-3
        1.171858757E-3
        1.190759705E-3
        1.209660652E-3
        1.228561600E-3
        1.247462548E-3
        1.266363495E-3
        1.285264443E-3
        1.304165391E-3
        1.323066339E-3
        1.341967286E-3
        1.360868234E-3
        1.379769182E-3
        1.398670129E-3
        1.417571077E-3
        1.436472025E-3
        1.455372972E-3
        1.474273920E-3
        1.493174868E-3
        1.512075815E-3
        1.530976763E-3
        1.549877711E-3
        1.568778659E-3
        1.587679606E-3
        1.606580554E-3
        1.625481502E-3
        1.644382449E-3
        1.663283397E-3
        1.682184345E-3
        1.701085292E-3
        1.719986240E-3
        1.738887188E-3
        1.757788135E-3
        1.776689083E-3
        1.795590031E-3
        1.814490979E-3
        1.833391926E-3
        1.852292874E-3
        1.871193822E-3
        1.890094769E-3
        1.908995717E-3
        1.927896665E-3
        1.946797612E-3
        1.965698560E-3
        1.984599508E-3
        2.003500456E-3
        2.022401403E-3
        2.041302351E-3
        2.060203299E-3
        2.079104246E-3
        2.098005194E-3
        2.116906142E-3
        2.135807089E-3
        2.154708037E-3
        2.173608985E-3
        2.192509932E-3
        2.211410880E-3
        2.230311828E-3
        2.249212776E-3
        2.268113723E-3
        2.287014671E-3
        2.305915619E-3
        2.324816566E-3
        2.343717514E-3
        2.362618462E-3
        2.381519409E-3
        2.400420357E-3
        2.419321305E-3
        2.438222252E-3
        2.457123200E-3
        2.476024148E-3
        2.494925096E-3
        2.513826043E-3
        2.532726991E-3
        2.551627939E-3
        2.570528886E-3
        2.589429834E-3
        2.608330782E-3
        2.627231729E-3
        2.646132677E-3
        2.665033625E-3
        2.683934572E-3
        2.702835520E-3
        2.721736468E-3
        2.740637416E-3
        2.759538363E-3
        2.778439311E-3
        2.797340259E-3
        2.816241206E-3
        2.835142154E-3
        2.854043102E-3
        2.872944049E-3
        2.891844997E-3
        2.910745945E-3
        2.929646892E-3
        2.948547840E-3
        2.967448788E-3
        2.986349736E-3
        3.005250683E-3
        3.024151631E-3
        3.043052579E-3
        3.061953526E-3
        3.080854474E-3
        3.099755422E-3
        3.118656369E-3
        3.137679356E-3
        3.156962145E-3
        3.176313884E-3
        3.195734643E-3
        3.215224494E-3
        3.234783506E-3
        3.254411749E-3
        3.274109293E-3
        3.293876207E-3
        3.313712562E-3
        3.333618426E-3
        3.353593870E-3
        3.373638962E-3
        3.393753771E-3
        3.413938368E-3
        3.434192820E-3
        3.454517197E-3
        3.474911567E-3
        3.495376000E-3
        3.515910563E-3
        3.536515326E-3
        3.557190356E-3
        3.577935723E-3
        3.598751494E-3
        3.619637736E-3
        3.640594520E-3
        3.661621911E-3
        3.682719979E-3
        3.703888790E-3
        3.725128412E-3
        3.746438914E-3
        3.767820361E-3
        3.789272823E-3
        3.810796365E-3
        3.832391055E-3
        3.854056960E-3
        3.875794147E-3
        3.897602683E-3
        3.919482634E-3
        3.941434068E-3
        3.963457050E-3
        3.985551647E-3
        4.007717927E-3
        4.029955954E-3
        4.052265795E-3
        4.074647517E-3
        4.097101184E-3
        4.119626864E-3
        4.142224622E-3
        4.164894524E-3
        4.187636635E-3
        4.210451021E-3
        4.233337748E-3
        4.256296880E-3
        4.279328484E-3
        4.302432624E-3
        4.325609365E-3
        4.348858773E-3
        4.372180912E-3
        4.395575848E-3
        4.419043645E-3
        4.442584368E-3
        4.466198081E-3
        4.489884849E-3
        4.513644736E-3
        4.537477807E-3
        4.561384126E-3
        4.585363757E-3
        4.609416765E-3
        4.633543212E-3
        4.657743164E-3
        4.682016684E-3
        4.706363836E-3
        4.730784683E-3
        4.755279289E-3
        4.779847718E-3
        4.804490033E-3
        4.829206297E-3
        4.853996573E-3
        4.878860926E-3
        4.903799417E-3
        4.928812111E-3
        4.953899069E-3
        4.979060355E-3
        5.004296032E-3
        5.029606162E-3
        5.054990807E-3
        5.080450032E-3
        5.105983897E-3
        5.131592465E-3
        5.157275799E-3
        5.183033961E-3
        5.208867013E-3
        5.234775017E-3
        5.260758035E-3
        5.286816129E-3
        5.312949360E-3
        5.339157792E-3
        5.365441485E-3
        5.391800501E-3
        5.418234901E-3
        5.444744747E-3
        5.471330101E-3
        5.497991024E-3
        5.524727576E-3
        5.551539819E-3
        5.578427815E-3
        5.605391624E-3
        5.632431307E-3
        5.659546926E-3
        5.686738540E-3
        5.714006211E-3
        5.741349999E-3
        5.768769965E-3
        5.796266169E-3
        5.823838672E-3
        5.851487535E-3
        5.879212817E-3
        5.907014578E-3
        5.934892880E-3
        5.962847781E-3
        5.990879343E-3
        6.018987624E-3
        6.047172686E-3
        6.075434587E-3
        6.103773387E-3
        6.132189146E-3
        6.160681924E-3
        6.189251780E-3
        6.217898774E-3
        6.246622965E-3
        6.275424412E-3
        6.304303174E-3
        6.333259312E-3
        6.362292883E-3
        6.391403947E-3
        6.420592563E-3
        6.449858790E-3
        6.479202687E-3
        6.508624312E-3
        6.538123724E-3
        6.567700982E-3
        6.597356145E-3
        6.627089271E-3
        6.656900417E-3
        6.686789644E-3
        6.716757009E-3
        6.746802570E-3
        6.776926385E-3
        6.807128514E-3
        6.837409013E-3
        6.867767940E-3
        6.898205355E-3
        6.928721314E-3
        6.959315875E-3
        6.989989096E-3
        7.020741035E-3
        7.051571749E-3
        7.082481297E-3
        7.113469734E-3
        7.144537120E-3
        7.175683510E-3
        7.206908963E-3
        7.238213536E-3
        7.269597286E-3
        7.301060270E-3
        7.332602544E-3
        7.364224167E-3
        7.395925195E-3
        7.427705685E-3
        7.459565693E-3
        7.491505276E-3
        7.523524492E-3
        7.555623396E-3
        7.587802046E-3
        7.620060498E-3
        7.652398807E-3
        7.684817031E-3
        7.717315227E-3
        7.749893449E-3
        7.782551755E-3
        7.815290200E-3
        7.848108841E-3
        7.881007733E-3
        7.913986934E-3
        7.947046497E-3
        7.980186481E-3
        8.013406939E-3
        8.046707928E-3
        8.080089504E-3
        8.113551722E-3
        8.147094638E-3
        8.180718307E-3
        8.214422785E-3
        8.248208127E-3
        8.282074389E-3
        8.316021625E-3
        8.350049892E-3
        8.384159243E-3
        8.418349735E-3
        8.452621422E-3
        8.486974360E-3
        8.521408602E-3
        8.555924205E-3
        8.590521223E-3
        8.625199711E-3
        8.659959723E-3
        8.694801314E-3
        8.729724539E-3
        8.764729452E-3
        8.799816108E-3
        8.834984562E-3
        8.870234867E-3
        8.905567078E-3
        8.940981249E-3
        8.976477435E-3
        9.012055690E-3
        9.047716067E-3
        9.083458621E-3
        9.119283406E-3
        9.155190476E-3
        9.191179885E-3
        9.227251687E-3
        9.263405935E-3
        9.299642683E-3
        9.335961985E-3
        9.372363894E-3
        9.408848465E-3
        9.445415750E-3
        9.482065804E-3
        9.518798679E-3
        9.555614429E-3
        9.592513107E-3
        9.629494767E-3
        9.666559462E-3
        9.703707245E-3
        9.740938169E-3
        9.778252288E-3
        9.815649653E-3
        9.853130319E-3
        9.890694339E-3
        9.928341764E-3
        9.966072648E-3
        1.000388704E-2
        1.004178500E-2
        1.007976658E-2
        1.011783183E-2
        1.015598080E-2
        1.019421354E-2
        1.023253011E-2
        1.027093056E-2
        1.030941495E-2
        1.034798331E-2
        1.038663572E-2
        1.042537221E-2
        1.046419285E-2
        1.050309767E-2
        1.054208675E-2
        1.058116012E-2
        1.062031784E-2
        1.065955996E-2
        1.069888653E-2
        1.073829761E-2
        1.077779325E-2
        1.081737350E-2
        1.085703840E-2
        1.089678802E-2
        1.093662240E-2
        1.097654160E-2
        1.101654566E-2
        1.105663464E-2
        1.109680859E-2
        1.113706757E-2
        1.117741161E-2
        1.121784078E-2
        1.125835512E-2
        1.129895469E-2
        1.133963954E-2
        1.138040971E-2
        1.142126526E-2
        1.146220625E-2
        1.150323271E-2
        1.154434471E-2
        1.158554229E-2
        1.162682551E-2
        1.166819441E-2
        1.170964904E-2
        1.175118946E-2
        1.179281572E-2
        1.183452787E-2
        1.187632595E-2
        1.191821002E-2
        1.196018013E-2
        1.200223633E-2
        1.204437867E-2
        1.208660720E-2
        1.212892197E-2
        1.217132303E-2
        1.221381043E-2
        1.225638423E-2
        1.229904446E-2
        1.234179119E-2
        1.238462445E-2
        1.242754431E-2
        1.247055081E-2
        1.251364400E-2
        1.255682393E-2
        1.260009065E-2
        1.264344421E-2
        1.268688466E-2
        1.273041205E-2
        1.277402643E-2
        1.281772785E-2
        1.286151636E-2
        1.290539201E-2
        1.294935484E-2
        1.299340492E-2
        1.303754227E-2
        1.308176697E-2
        1.312607905E-2
        1.317047856E-2
        1.321496556E-2
        1.325954009E-2
        1.330420220E-2
        1.334895194E-2
        1.339378937E-2
        1.343871452E-2
        1.348372745E-2
        1.352882821E-2
        1.357401684E-2
        1.361929340E-2
        1.366465793E-2
        1.371011048E-2
        1.375565111E-2
        1.380127985E-2
        1.384699677E-2
        1.389280190E-2
        1.393869529E-2
        1.398467700E-2
        1.403074708E-2
        1.407690556E-2
        1.412315250E-2
        1.416948796E-2
        1.421591196E-2
        1.426242457E-2
        1.430902584E-2
        1.435571580E-2
        1.440249452E-2
        1.444936203E-2
        1.449631839E-2
        1.454336364E-2
        1.459049783E-2
        1.463772101E-2
        1.468503323E-2
        1.473243454E-2
        1.477992497E-2
        1.482750459E-2
        1.487517344E-2
        1.492293156E-2
        1.497077901E-2
        1.501871583E-2
        1.506674206E-2
        1.511485777E-2
        1.516306299E-2
        1.521135777E-2
        1.525974216E-2
        1.530821621E-2
        1.535677997E-2
        1.540543347E-2
        1.545417678E-2
        1.550300993E-2
        1.555193297E-2
        1.560094596E-2
        1.565004893E-2
        1.569924194E-2
        1.574852503E-2
        1.579789825E-2
        1.584736165E-2
        1.589691527E-2
        1.594655916E-2
        1.599629337E-2
        1.604611794E-2
        1.609603292E-2
        1.614603836E-2
        1.619613431E-2
        1.624632080E-2
        1.629659790E-2
        1.634696564E-2
        1.639742407E-2
        1.644797324E-2
        1.649861319E-2
        1.654934398E-2
        1.660016564E-2
        1.665107823E-2
        1.670208179E-2
        1.675317636E-2
        1.680436200E-2
        1.685563874E-2
        1.690700664E-2
        1.695846575E-2
        1.701001610E-2
        1.706165775E-2
        1.711339074E-2
        1.716521511E-2
        1.721713092E-2
        1.726913820E-2
        1.732123701E-2
        1.737342739E-2
        1.742570939E-2
        1.747808305E-2
        1.753054842E-2
        1.758310554E-2
        1.763575446E-2
        1.768849523E-2
        1.774132789E-2
        1.779425248E-2
        1.784726906E-2
        1.790037767E-2
        1.795357835E-2
        1.800687115E-2
        1.806025612E-2
        1.811373330E-2
        1.816730273E-2
        1.822096446E-2
        1.827471854E-2
        1.832856502E-2
        1.838250393E-2
        1.843653532E-2
        1.849065924E-2
        1.854487573E-2
        1.859918485E-2
        1.865358662E-2
        1.870808111E-2
        1.876266835E-2
        1.881734838E-2
        1.887212126E-2
        1.892698703E-2
        1.898194574E-2
        1.903699742E-2
        1.909214213E-2
        1.914737990E-2
        1.920271079E-2
        1.925813483E-2
        1.931365208E-2
        1.936926258E-2
        1.942496637E-2
        1.948076349E-2
        1.953665400E-2
        1.959263793E-2
        1.964871533E-2
        1.970488625E-2
        1.976115073E-2
        1.981750881E-2
        1.987396054E-2
        1.993050597E-2
        1.998714513E-2
        2.004387807E-2
        2.010070484E-2
        2.015762548E-2
        2.021464003E-2
        2.027174855E-2
        2.032895106E-2
        2.038624763E-2
        2.044363828E-2
        2.050112307E-2
        2.055870204E-2
        2.061637523E-2
        2.067414269E-2
        2.073200446E-2
        2.078996059E-2
        2.084801112E-2
        2.090615609E-2
        2.096439554E-2
        2.102272953E-2
        2.108115809E-2
        2.113968127E-2
        2.119829912E-2
        2.125701166E-2
        2.131581896E-2
        2.137472105E-2
        2.143371798E-2
        2.149280979E-2
        2.155199652E-2
        2.161127822E-2
        2.167065493E-2
        2.173012670E-2
        2.178969356E-2
        2.184935556E-2
        2.190911275E-2
        2.196896517E-2
        2.202891285E-2
        2.208895585E-2
        2.214909421E-2
        2.220932797E-2
        2.226965718E-2
        2.233008187E-2
        2.239060209E-2
        2.245121789E-2
        2.251192930E-2
        2.257273637E-2
        2.263363914E-2
        2.269463766E-2
        2.275573197E-2
        2.281692211E-2
        2.287820813E-2
        2.293959006E-2
        2.300106795E-2
        2.306264184E-2
        2.312431178E-2
        2.318607781E-2
        2.324793997E-2
        2.330989831E-2
        2.337195286E-2
        2.343410367E-2
        2.349635078E-2
        2.355869423E-2
        2.362113408E-2
        2.368367035E-2
        2.374630309E-2
        2.380903235E-2
        2.387185817E-2
        2.393478058E-2
        2.399779964E-2
        2.406091538E-2
        2.412412785E-2
        2.418743709E-2
        2.425084313E-2
        2.431434604E-2
        2.437794583E-2
        2.444164257E-2
        2.450543628E-2
        2.456932702E-2
        2.463331482E-2
        2.469739972E-2
        2.476158178E-2
        2.482586102E-2
        2.489023750E-2
        2.495471125E-2
        2.501928232E-2
        2.508395074E-2
        2.514871657E-2
        2.521357984E-2
        2.527854059E-2
        2.534359886E-2
        2.540875471E-2
        2.547400816E-2
        2.553935927E-2
        2.560480806E-2
        2.567035459E-2
        2.573599890E-2
        2.580174103E-2
        2.586758101E-2
        2.593351889E-2
        2.599955472E-2
        2.606568853E-2
        2.613192037E-2
        2.619825027E-2
        2.626467828E-2
        2.633120444E-2
        2.639782879E-2
        2.646455138E-2
        2.653137223E-2
        2.659829141E-2
        2.666530893E-2
        2.673242486E-2
        2.679963923E-2
        2.686695207E-2
        2.693436344E-2
        2.700187337E-2
        2.706948190E-2
        2.713718907E-2
        2.720499494E-2
        2.727289952E-2
        2.734090288E-2
        2.740900505E-2
        2.747720606E-2
        2.754550597E-2
        2.761390481E-2
        2.768240261E-2
        2.775099944E-2
        2.781969532E-2
        2.788849029E-2
        2.795738440E-2
        2.802637768E-2
        2.809547018E-2
        2.816466194E-2
        2.823395300E-2
        2.830334340E-2
        2.837283318E-2
        2.844242238E-2
        2.851211104E-2
        2.858189920E-2
        2.865178691E-2
        2.872177420E-2
        2.879186111E-2
        2.886204768E-2
        2.893233396E-2
        2.900271999E-2
        2.907320580E-2
        2.914379144E-2
        2.921447694E-2
        2.928526235E-2
        2.935614770E-2
        2.942713304E-2
        2.949821841E-2
        2.956940385E-2
        2.964068939E-2
        2.971207508E-2
        2.978356096E-2
        2.985514707E-2
        2.992683344E-2
        2.999862013E-2
        3.007050716E-2
        3.014249458E-2
        3.021458243E-2
        3.028677075E-2
        3.035905957E-2
        3.043144895E-2
        3.050393891E-2
        3.057652950E-2
        3.064922076E-2
        3.072201272E-2
        3.079490544E-2
        3.086789894E-2
        3.094099326E-2
        3.101418846E-2
        3.108748456E-2
        3.116088161E-2
        3.123437964E-2
        3.130797870E-2
        3.138167883E-2
        3.145548006E-2
        3.152938243E-2
        3.160338599E-2
        3.167749078E-2
        3.175169682E-2
        3.182600417E-2
        3.190041286E-2
        3.197492293E-2
        3.204953443E-2
        3.212424738E-2
        3.219906183E-2
        3.227397783E-2
        3.234899540E-2
        3.242411459E-2
        3.249933543E-2
        3.257465798E-2
        3.265008226E-2
        3.272560831E-2
        3.280123618E-2
        3.287696590E-2
        3.295279751E-2
        3.302873106E-2
        3.310476657E-2
        3.318090410E-2
        3.325714367E-2
        3.333348533E-2
        3.340992912E-2
        3.348647507E-2
        3.356312323E-2
        3.363987364E-2
        3.371672632E-2
        3.379368133E-2
        3.387073870E-2
        3.394789847E-2
        3.402516067E-2
        3.410252535E-2
        3.417999255E-2
        3.425756230E-2
        3.433523465E-2
        3.441300963E-2
        3.449088728E-2
        3.456886764E-2
        3.464695074E-2
        3.472513664E-2
        3.480342536E-2
        3.488181694E-2
        3.496031143E-2
        3.503890885E-2
        3.511760926E-2
        3.519641269E-2
        3.527531917E-2
        3.535432874E-2
        3.543344145E-2
        3.551265734E-2
        3.559197643E-2
        3.567139877E-2
        3.575092440E-2
        3.583055336E-2
        3.591028567E-2
        3.599012139E-2
        3.607006056E-2
        3.615010320E-2
        3.623024935E-2
        3.631049906E-2
        3.639085237E-2
        3.647130931E-2
        3.655186991E-2
        3.663253423E-2
        3.671330229E-2
        3.679417413E-2
        3.687514980E-2
        3.695622932E-2
        3.703741275E-2
        3.711870011E-2
        3.720009144E-2
        3.728158679E-2
        3.736318619E-2
        3.744488967E-2
        3.752669728E-2
        3.760860906E-2
        3.769062503E-2
        3.777274525E-2
        3.785496974E-2
        3.793729855E-2
        3.801973171E-2
        3.810226926E-2
        3.818491124E-2
        3.826765769E-2
        3.835050864E-2
        3.843346413E-2
        3.851652420E-2
        3.859968889E-2
        3.868295823E-2
        3.876633226E-2
        3.884981102E-2
        3.893339455E-2
        3.901708289E-2
        3.910087606E-2
        3.918477412E-2
        3.926877709E-2
        3.935288502E-2
        3.943709794E-2
        3.952141589E-2
        3.960583890E-2
        3.969036702E-2
        3.977500028E-2
        3.985973872E-2
        3.994458238E-2
        4.002953129E-2
        4.011458549E-2
        4.019974502E-2
        4.028500991E-2
        4.037038020E-2
        4.045585594E-2
        4.054143715E-2
        4.062712388E-2
        4.071291615E-2
        4.079881402E-2
        4.088481751E-2
        4.097092666E-2
        4.105714151E-2
        4.114346210E-2
        4.122988846E-2
        4.131642064E-2
        4.140305866E-2
        4.148980256E-2
        4.157665238E-2
        4.166360817E-2
        4.175066995E-2
        4.183783776E-2
        4.192511164E-2
        4.201249162E-2
        4.209997775E-2
        4.218757006E-2
        4.227526858E-2
        4.236307336E-2
        4.245098443E-2
        4.253900182E-2
        4.262712557E-2
        4.271535573E-2
        4.280369232E-2
        4.289213539E-2
        4.298068496E-2
        4.306934108E-2
        4.315810379E-2
        4.324697311E-2
        4.333594909E-2
        4.342503177E-2
        4.351422117E-2
        4.360351734E-2
        4.369292030E-2
        4.378243011E-2
        4.387204680E-2
        4.396177039E-2
        4.405160094E-2
        4.414153846E-2
        4.423158301E-2
        4.432173462E-2
        4.441199331E-2
        4.450235914E-2
        4.459283214E-2
        4.468341233E-2
        4.477409977E-2
        4.486489448E-2
        4.495579650E-2
        4.504680587E-2
        4.513792262E-2
        4.522914679E-2
        4.532047842E-2
        4.541191754E-2
        4.550346418E-2
        4.559511839E-2
        4.568688020E-2
        4.577874965E-2
        4.587072677E-2
        4.596281160E-2
        4.605500417E-2
        4.614730452E-2
        4.623971269E-2
        4.633222871E-2
        4.642485262E-2
        4.651758446E-2
        4.661042425E-2
        4.670337204E-2
        4.679642786E-2
        4.688959175E-2
        4.698286374E-2
        4.707624387E-2
        4.716973217E-2
        4.726332869E-2
        4.735703345E-2
        4.745084650E-2
        4.754476786E-2
        4.763879758E-2
        4.773293568E-2
        4.782718222E-2
        4.792153721E-2
        4.801600070E-2
        4.811057272E-2
        4.820525330E-2
        4.830004249E-2
        4.839494032E-2
        4.848994683E-2
        4.858506204E-2
        4.868028600E-2
        4.877561874E-2
        4.887106030E-2
        4.896661070E-2
        4.906227000E-2
        4.915803821E-2
        4.925391539E-2
        4.934990156E-2
        4.944599676E-2
        4.954220102E-2
        4.963851438E-2
        4.973493687E-2
        4.983146854E-2
        4.992810941E-2
        5.002485952E-2
        5.012171891E-2
        5.021868761E-2
        5.031576565E-2
        5.041295308E-2
        5.051024992E-2
        5.060765621E-2
        5.070517199E-2
        5.080279730E-2
        5.090053216E-2
        5.099837661E-2
        5.109633069E-2
        5.119439444E-2
        5.129256788E-2
        5.139085105E-2
        5.148924399E-2
        5.158774674E-2
        5.168635932E-2
        5.178508177E-2
        5.188391413E-2
        5.198285644E-2
        5.208190872E-2
        5.218107101E-2
        5.228034335E-2
        5.237972577E-2
