luts/LMT_Power_18.spi1d
Version 1
From 0.000000 1.000000
Length 4096
Components 1
{
        0.000000000E+0
        3.147334983E-7
        1.095965697E-6
        2.273846940E-6
        3.816374219E-6
        5.702810976E-6
        7.917994937E-6
        1.045007581E-5
        1.328938691E-5
        1.642780299E-5
        1.985834123E-5
        2.357489691E-5
        2.757205981E-5
        3.184498167E-5
        3.638927753E-5
        4.120095051E-5
        4.627633303E-5
        5.161204028E-5
        5.720493260E-5
        6.305208477E-5
        6.915076058E-5
        7.549839159E-5
        8.209255914E-5
        8.893097912E-5
        9.601148880E-5
        1.033320355E-4
        1.108906669E-4
        1.186855221E-4
        1.267148242E-4
        1.349768738E-4
        1.434700427E-4
        1.521927687E-4
        1.611435511E-4
        1.703209461E-4
        1.797235629E-4
        1.893500608E-4
        1.991991452E-4
        2.092695654E-4
        2.195601116E-4
        2.300696128E-4
        2.407969343E-4
        2.517409757E-4
        2.629006693E-4
        2.742749781E-4
        2.858628944E-4
        2.976634382E-4
        3.096756559E-4
        3.218986189E-4
        3.343314226E-4
        3.469731853E-4
        3.598230470E-4
        3.728801684E-4
        3.861437302E-4
        3.996129322E-4
        4.132869924E-4
        4.271651464E-4
        4.412466464E-4
        4.555307610E-4
        4.700167741E-4
        4.847039847E-4
        4.995917059E-4
        5.146792650E-4
        5.299660022E-4
        5.454512710E-4
        5.611344369E-4
        5.770148775E-4
        5.930919822E-4
        6.093651512E-4
        6.258337958E-4
        6.424973376E-4
        6.593552083E-4
        6.764068495E-4
        6.936517122E-4
        7.110892567E-4
        7.287189521E-4
        7.465402763E-4
        7.645527155E-4
        7.827557640E-4
        8.011489242E-4
        8.197317061E-4
        8.385036272E-4
        8.574642121E-4
        8.766129928E-4
        8.959495080E-4
        9.154733030E-4
        9.351839298E-4
        9.550809468E-4
        9.751639183E-4
        9.954324150E-4
        1.015886013E-3
        1.036524295E-3
        1.057346849E-3
        1.078353267E-3
        1.099543148E-3
        1.120916096E-3
        1.142471720E-3
        1.164209633E-3
        1.186129455E-3
        1.208230808E-3
        1.230513320E-3
        1.252976625E-3
        1.275620359E-3
        1.298444162E-3
        1.321447682E-3
        1.344630567E-3
        1.367992472E-3
        1.391533053E-3
        1.415251973E-3
        1.439148896E-3
        1.463223493E-3
        1.487475435E-3
        1.511904400E-3
        1.536510066E-3
        1.561292118E-3
        1.586250242E-3
        1.611384128E-3
        1.636693470E-3
        1.662177963E-3
        1.687837307E-3
        1.713671206E-3
        1.739679364E-3
        1.765861490E-3
        1.792217296E-3
        1.818746496E-3
        1.845448807E-3
        1.872323949E-3
        1.899371645E-3
        1.926591619E-3
        1.953983600E-3
        1.981547319E-3
        2.009282507E-3
        2.037188900E-3
        2.065266237E-3
        2.093514257E-3
        2.121932703E-3
        2.150521319E-3
        2.179279854E-3
        2.208208056E-3
        2.237305677E-3
        2.266572470E-3
        2.296008192E-3
        2.325612600E-3
        2.355385455E-3
        2.385326519E-3
        2.415435555E-3
        2.445712330E-3
        2.476156612E-3
        2.506768170E-3
        2.537546777E-3
        2.568492206E-3
        2.599604232E-3
        2.630882633E-3
        2.662327188E-3
        2.693937678E-3
        2.725713885E-3
        2.757655593E-3
        2.789762589E-3
        2.822034660E-3
        2.854471594E-3
        2.887073183E-3
        2.919839220E-3
        2.952769497E-3
        2.985863812E-3
        3.019121959E-3
        3.052543739E-3
        3.086128950E-3
        3.119877395E-3
        3.153788877E-3
        3.187863198E-3
        3.222100166E-3
        3.256499588E-3
        3.291061270E-3
        3.325785025E-3
        3.360670662E-3
        3.395717994E-3
        3.430926834E-3
        3.466296998E-3
        3.501828303E-3
        3.537520564E-3
        3.573373602E-3
        3.609387236E-3
        3.645561287E-3
        3.681895578E-3
        3.718389933E-3
        3.755044175E-3
        3.791858130E-3
        3.828831627E-3
        3.865964492E-3
        3.903256555E-3
        3.940707646E-3
        3.978317597E-3
        4.016086240E-3
        4.054013408E-3
        4.092098936E-3
        4.130342660E-3
        4.168744416E-3
        4.207304041E-3
        4.246021375E-3
        4.284896257E-3
        4.323928527E-3
        4.363118026E-3
        4.402464599E-3
        4.441968087E-3
        4.481628335E-3
        4.521445188E-3
        4.561418493E-3
        4.601548096E-3
        4.641833846E-3
        4.682275591E-3
        4.722873181E-3
        4.763626467E-3
        4.804535300E-3
        4.845599532E-3
        4.886819017E-3
        4.928193608E-3
        4.969723160E-3
        5.011407529E-3
        5.053246571E-3
        5.095240143E-3
        5.137388104E-3
        5.179690312E-3
        5.222146626E-3
        5.264756907E-3
        5.307521016E-3
        5.350438815E-3
        5.393510166E-3
        5.436734932E-3
        5.480112978E-3
        5.523644168E-3
        5.567328367E-3
        5.611165443E-3
        5.655155260E-3
        5.699297688E-3
        5.743592594E-3
        5.788039848E-3
        5.832639318E-3
        5.877390875E-3
        5.922294390E-3
        5.967349735E-3
        6.012556781E-3
        6.057915401E-3
        6.103425470E-3
        6.149086860E-3
        6.194899447E-3
        6.240863107E-3
        6.286977714E-3
        6.333243146E-3
        6.379659280E-3
        6.426225994E-3
        6.472943166E-3
        6.519810674E-3
        6.566828399E-3
        6.613996221E-3
        6.661314020E-3
        6.708781677E-3
        6.756399075E-3
        6.804166096E-3
        6.852082622E-3
        6.900148537E-3
        6.948363726E-3
        6.996728072E-3
        7.045241461E-3
        7.093903778E-3
        7.142714910E-3
        7.191674743E-3
        7.240783165E-3
        7.290040062E-3
        7.339445324E-3
        7.388998838E-3
        7.438700495E-3
        7.488550184E-3
        7.538547794E-3
        7.588693218E-3
        7.638986345E-3
        7.689427067E-3
        7.740015278E-3
        7.790750868E-3
        7.841633732E-3
        7.892663762E-3
        7.943840853E-3
        7.995164899E-3
        8.046635795E-3
        8.098253437E-3
        8.150017720E-3
        8.201928539E-3
        8.253985793E-3
        8.306189378E-3
        8.358539192E-3
        8.411035132E-3
        8.463677097E-3
        8.516464986E-3
        8.569398698E-3
        8.622478133E-3
        8.675703190E-3
        8.729073770E-3
        8.782589774E-3
        8.836251104E-3
        8.890057661E-3
        8.944009346E-3
        8.998106063E-3
        9.052347715E-3
        9.106734204E-3
        9.161265434E-3
        9.215941309E-3
        9.270761734E-3
        9.325726614E-3
        9.380835853E-3
        9.436089357E-3
        9.491487032E-3
        9.547028785E-3
        9.602714521E-3
        9.658544148E-3
        9.714517574E-3
        9.770634705E-3
        9.826895450E-3
        9.883299718E-3
        9.939847417E-3
        9.996538456E-3
        1.005337274E-2
        1.011035019E-2
        1.016747071E-2
        1.022473421E-2
        1.028214060E-2
        1.033968979E-2
        1.039738169E-2
        1.045521622E-2
        1.051319329E-2
        1.057131281E-2
        1.062957469E-2
        1.068797884E-2
        1.074652518E-2
        1.080521363E-2
        1.086404410E-2
        1.092301649E-2
        1.098213073E-2
        1.104138673E-2
        1.110078441E-2
        1.116032368E-2
        1.122000446E-2
        1.127982666E-2
        1.133979020E-2
        1.139989500E-2
        1.146014097E-2
        1.152052803E-2
        1.158105611E-2
        1.164172511E-2
        1.170253495E-2
        1.176348556E-2
        1.182457685E-2
        1.188580874E-2
        1.194718115E-2
        1.200869401E-2
        1.207034722E-2
        1.213214071E-2
        1.219407441E-2
        1.225614822E-2
        1.231836208E-2
        1.238071590E-2
        1.244320961E-2
        1.250584312E-2
        1.256861637E-2
        1.263152926E-2
        1.269458173E-2
        1.275777369E-2
        1.282110508E-2
        1.288457581E-2
        1.294818580E-2
        1.301193499E-2
        1.307582329E-2
        1.313985062E-2
        1.320401693E-2
        1.326832211E-2
        1.333276612E-2
        1.339734886E-2
        1.346207026E-2
        1.352693026E-2
        1.359192877E-2
        1.365706572E-2
        1.372234104E-2
        1.378775466E-2
        1.385330650E-2
        1.391899649E-2
        1.398482455E-2
        1.405079062E-2
        1.411689462E-2
        1.418313648E-2
        1.424951614E-2
        1.431603350E-2
        1.438268852E-2
        1.444948110E-2
        1.451641120E-2
        1.458347872E-2
        1.465068361E-2
        1.471802579E-2
        1.478550520E-2
        1.485312176E-2
        1.492087540E-2
        1.498876606E-2
        1.505679366E-2
        1.512495814E-2
        1.519325942E-2
        1.526169745E-2
        1.533027215E-2
        1.539898344E-2
        1.546783128E-2
        1.553681558E-2
        1.560593628E-2
        1.567519332E-2
        1.574458662E-2
        1.581411612E-2
        1.588378175E-2
        1.595358345E-2
        1.602352115E-2
        1.609359478E-2
        1.616380428E-2
        1.623414958E-2
        1.630463061E-2
        1.637524732E-2
        1.644599963E-2
        1.651688749E-2
        1.658791082E-2
        1.665906956E-2
        1.673036365E-2
        1.680179302E-2
        1.687335761E-2
        1.694505735E-2
        1.701689219E-2
        1.708886205E-2
        1.716096688E-2
        1.723320662E-2
        1.730558118E-2
        1.737809053E-2
        1.745073459E-2
        1.752351330E-2
        1.759642659E-2
        1.766947442E-2
        1.774265671E-2
        1.781597340E-2
        1.788942443E-2
        1.796300974E-2
        1.803672927E-2
        1.811058296E-2
        1.818457075E-2
        1.825869257E-2
        1.833294836E-2
        1.840733808E-2
        1.848186164E-2
        1.855651900E-2
        1.863131010E-2
        1.870623487E-2
        1.878129325E-2
        1.885648519E-2
        1.893181063E-2
        1.900726951E-2
        1.908286176E-2
        1.915858733E-2
        1.923444617E-2
        1.931043820E-2
        1.938656338E-2
        1.946282165E-2
        1.953921295E-2
        1.961573721E-2
        1.969239439E-2
        1.976918442E-2
        1.984610725E-2
        1.992316282E-2
        2.000035107E-2
        2.007767195E-2
        2.015512540E-2
        2.023271136E-2
        2.031042978E-2
        2.038828059E-2
        2.046626375E-2
        2.054437919E-2
        2.062262687E-2
        2.070100672E-2
        2.077951869E-2
        2.085816273E-2
        2.093693877E-2
        2.101584676E-2
        2.109488666E-2
        2.117405840E-2
        2.125336192E-2
        2.133279718E-2
        2.141236412E-2
        2.149206268E-2
        2.157189281E-2
        2.165185446E-2
        2.173194757E-2
        2.181217209E-2
        2.189252796E-2
        2.197301513E-2
        2.205363355E-2
        2.213438317E-2
        2.221526392E-2
        2.229627576E-2
        2.237741864E-2
        2.245869249E-2
        2.254009728E-2
        2.262163294E-2
        2.270329942E-2
        2.278509667E-2
        2.286702465E-2
        2.294908329E-2
        2.303127254E-2
        2.311359236E-2
        2.319604269E-2
        2.327862348E-2
        2.336133467E-2
        2.344417623E-2
        2.352714808E-2
        2.361025019E-2
        2.369348251E-2
        2.377684498E-2
        2.386033755E-2
        2.394396016E-2
        2.402771278E-2
        2.411159535E-2
        2.419560782E-2
        2.427975014E-2
        2.436402226E-2
        2.444842412E-2
        2.453295569E-2
        2.461761690E-2
        2.470240772E-2
        2.478732809E-2
        2.487237795E-2
        2.495755727E-2
        2.504286599E-2
        2.512830407E-2
        2.521387145E-2
        2.529956809E-2
        2.538539393E-2
        2.547134893E-2
        2.555743304E-2
        2.564364622E-2
        2.572998840E-2
        2.581645956E-2
        2.590305962E-2
        2.598978856E-2
        2.607664632E-2
        2.616363286E-2
        2.625074812E-2
        2.633799205E-2
        2.642536462E-2
        2.651286577E-2
        2.660049546E-2
        2.668825364E-2
        2.677614026E-2
        2.686415528E-2
        2.695229864E-2
        2.704057031E-2
        2.712897023E-2
        2.721749836E-2
        2.730615465E-2
        2.739493906E-2
        2.748385154E-2
        2.757289204E-2
        2.766206052E-2
        2.775135693E-2
        2.784078123E-2
        2.793033336E-2
        2.802001330E-2
        2.810982098E-2
        2.819975636E-2
        2.828981941E-2
        2.838001007E-2
        2.847032829E-2
        2.856077404E-2
        2.865134727E-2
        2.874204793E-2
        2.883287598E-2
        2.892383137E-2
        2.901491406E-2
        2.910612401E-2
        2.919746117E-2
        2.928892549E-2
        2.938051693E-2
        2.947223546E-2
        2.956408102E-2
        2.965605356E-2
        2.974815306E-2
        2.984037946E-2
        2.993273271E-2
        3.002521278E-2
        3.011781962E-2
        3.021055320E-2
        3.030341345E-2
        3.039640035E-2
        3.048951385E-2
        3.058275390E-2
        3.067612047E-2
        3.076961350E-2
        3.086323297E-2
        3.095697882E-2
        3.105085101E-2
        3.114484950E-2
        3.123897425E-2
        3.133322521E-2
        3.142760234E-2
        3.152210561E-2
        3.161673496E-2
        3.171149036E-2
        3.180637177E-2
        3.190137914E-2
        3.199651242E-2
        3.209177159E-2
        3.218715660E-2
        3.228266740E-2
        3.237830396E-2
        3.247406623E-2
        3.256995417E-2
        3.266596774E-2
        3.276210691E-2
        3.285837162E-2
        3.295476184E-2
        3.305127753E-2
        3.314791865E-2
        3.324468515E-2
        3.334157699E-2
        3.343859414E-2
        3.353573656E-2
        3.363300420E-2
        3.373039702E-2
        3.382791498E-2
        3.392555805E-2
        3.402332618E-2
        3.412121934E-2
        3.421923748E-2
        3.431738056E-2
        3.441564855E-2
        3.451404140E-2
        3.461255907E-2
        3.471120153E-2
        3.480996873E-2
        3.490886065E-2
        3.500787722E-2
        3.510701843E-2
        3.520628422E-2
        3.530567456E-2
        3.540518942E-2
        3.550482874E-2
        3.560459250E-2
        3.570448065E-2
        3.580449315E-2
        3.590462998E-2
        3.600489108E-2
        3.610527642E-2
        3.620578596E-2
        3.630641966E-2
        3.640717749E-2
        3.650805940E-2
        3.660906536E-2
        3.671019533E-2
        3.681144927E-2
        3.691282715E-2
        3.701432892E-2
        3.711595455E-2
        3.721770400E-2
        3.731957723E-2
        3.742157421E-2
        3.752369490E-2
        3.762593926E-2
        3.772830724E-2
        3.783079883E-2
        3.793341397E-2
        3.803615264E-2
        3.813901479E-2
        3.824200038E-2
        3.834510939E-2
        3.844834176E-2
        3.855169748E-2
        3.865517649E-2
        3.875877877E-2
        3.886250427E-2
        3.896635296E-2
        3.907032481E-2
        3.917441977E-2
        3.927863781E-2
        3.938297890E-2
        3.948744299E-2
        3.959203005E-2
        3.969674005E-2
        3.980157295E-2
        3.990652871E-2
        4.001160730E-2
        4.011680868E-2
        4.022213282E-2
        4.032757967E-2
        4.043314921E-2
        4.053884140E-2
        4.064465620E-2
        4.075059357E-2
        4.085665349E-2
        4.096283592E-2
        4.106914081E-2
        4.117556814E-2
        4.128211788E-2
        4.138878998E-2
        4.149558440E-2
        4.160250113E-2
        4.170954011E-2
        4.181670132E-2
        4.192398472E-2
        4.203139028E-2
        4.213891796E-2
        4.224656772E-2
        4.235433954E-2
        4.246223337E-2
        4.257024919E-2
        4.267838695E-2
        4.278664663E-2
        4.289502819E-2
        4.300353159E-2
        4.311215681E-2
        4.322090380E-2
        4.332977254E-2
        4.343876298E-2
        4.354787510E-2
        4.365710886E-2
        4.376646423E-2
        4.387594117E-2
        4.398553965E-2
        4.409525964E-2
        4.420510110E-2
        4.431506400E-2
        4.442514830E-2
        4.453535398E-2
        4.464568100E-2
        4.475612932E-2
        4.486669891E-2
        4.497738974E-2
        4.508820177E-2
        4.519913498E-2
        4.531018933E-2
        4.542136478E-2
        4.553266131E-2
        4.564407887E-2
        4.575561745E-2
        4.586727700E-2
        4.597905749E-2
        4.609095889E-2
        4.620298116E-2
        4.631512428E-2
        4.642738822E-2
        4.653977293E-2
        4.665227838E-2
        4.676490455E-2
        4.687765141E-2
        4.699051891E-2
        4.710350703E-2
        4.721661573E-2
        4.732984499E-2
        4.744319477E-2
        4.755666503E-2
        4.767025575E-2
        4.778396690E-2
        4.789779844E-2
        4.801175035E-2
        4.812582258E-2
        4.824001511E-2
        4.835432790E-2
        4.846876093E-2
        4.858331416E-2
        4.869798757E-2
        4.881278111E-2
        4.892769476E-2
        4.904272849E-2
        4.915788226E-2
        4.927315605E-2
        4.938854982E-2
        4.950406355E-2
        4.961969719E-2
        4.973545073E-2
        4.985132412E-2
        4.996731734E-2
        5.008343036E-2
        5.019966314E-2
        5.031601566E-2
        5.043248788E-2
        5.054907978E-2
        5.066579132E-2
        5.078262247E-2
        5.089957320E-2
        5.101664348E-2
        5.113383329E-2
        5.125114258E-2
        5.136857133E-2
        5.148611952E-2
        5.160378710E-2
        5.172157405E-2
        5.183948034E-2
        5.195750593E-2
        5.207565081E-2
        5.219391493E-2
        5.231229827E-2
        5.243080080E-2
        5.254942249E-2
        5.266816330E-2
        5.278702321E-2
        5.290600219E-2
        5.302510021E-2
        5.314431724E-2
        5.326365325E-2
        5.338310821E-2
        5.350268208E-2
        5.362237485E-2
        5.374218648E-2
        5.386211693E-2
        5.398216620E-2
        5.410233423E-2
        5.422262100E-2
        5.434302649E-2
        5.446355067E-2
        5.458419350E-2
        5.470495495E-2
        5.482583501E-2
        5.494683363E-2
        5.506795079E-2
        5.518918646E-2
        5.531054061E-2
        5.543201321E-2
        5.555360424E-2
        5.567531366E-2
        5.579714145E-2
        5.591908757E-2
        5.604115200E-2
        5.616333471E-2
        5.628563567E-2
        5.640805486E-2
        5.653059223E-2
        5.665324778E-2
        5.677602146E-2
        5.689891325E-2
        5.702192311E-2
        5.714505103E-2
        5.726829698E-2
        5.739166092E-2
        5.751514282E-2
        5.763874266E-2
        5.776246042E-2
        5.788629606E-2
        5.801024955E-2
        5.813432087E-2
        5.825850998E-2
        5.838281687E-2
        5.850724150E-2
        5.863178385E-2
        5.875644388E-2
        5.888122157E-2
        5.900611690E-2
        5.913112982E-2
        5.925626033E-2
        5.938150838E-2
        5.950687395E-2
        5.963235702E-2
        5.975795755E-2
        5.988367552E-2
        6.000951091E-2
        6.013546367E-2
        6.026153379E-2
        6.038772125E-2
        6.051402600E-2
        6.064044803E-2
        6.076698730E-2
        6.089364380E-2
        6.102041749E-2
        6.114730834E-2
        6.127431634E-2
        6.140144144E-2
        6.152868363E-2
        6.165604288E-2
        6.178351916E-2
        6.191111245E-2
        6.203882271E-2
        6.216664992E-2
        6.229459406E-2
        6.242265510E-2
        6.255083300E-2
        6.267912775E-2
        6.280753932E-2
        6.293606768E-2
        6.306471280E-2
        6.319347466E-2
        6.332235323E-2
        6.345134849E-2
        6.358046040E-2
        6.370968895E-2
        6.383903410E-2
        6.396849584E-2
        6.409807412E-2
        6.422776894E-2
        6.435758025E-2
        6.448750804E-2
        6.461755228E-2
        6.474771294E-2
        6.487799000E-2
        6.500838343E-2
        6.513889320E-2
        6.526951929E-2
        6.540026168E-2
        6.553112033E-2
        6.566209522E-2
        6.579318633E-2
        6.592439363E-2
        6.605571710E-2
        6.618715670E-2
        6.631871241E-2
        6.645038421E-2
        6.658217208E-2
        6.671407598E-2
        6.684609589E-2
        6.697823178E-2
        6.711048363E-2
        6.724285142E-2
        6.737533512E-2
        6.750793470E-2
        6.764065014E-2
        6.777348141E-2
        6.790642849E-2
        6.803949135E-2
        6.817266997E-2
        6.830596432E-2
        6.843937438E-2
        6.857290011E-2
        6.870654151E-2
        6.884029854E-2
        6.897417117E-2
        6.910815939E-2
        6.924226316E-2
        6.937648247E-2
        6.951081728E-2
        6.964526757E-2
        6.977983333E-2
        6.991451451E-2
        7.004931110E-2
        7.018422308E-2
        7.031925042E-2
        7.045439308E-2
        7.058965106E-2
        7.072502433E-2
        7.086051285E-2
        7.099611661E-2
        7.113183558E-2
        7.126766974E-2
        7.140361906E-2
        7.153968352E-2
        7.167586309E-2
        7.181215775E-2
        7.194856748E-2
        7.208509225E-2
        7.222173203E-2
        7.235848681E-2
        7.249535655E-2
        7.263234124E-2
        7.276944085E-2
        7.290665536E-2
        7.304398473E-2
        7.318142896E-2
        7.331898801E-2
        7.345666186E-2
        7.359445048E-2
        7.373235386E-2
        7.387037196E-2
        7.400850477E-2
        7.414675226E-2
        7.428511441E-2
        7.442359119E-2
        7.456218258E-2
        7.470088856E-2
        7.483970909E-2
        7.497864417E-2
        7.511769376E-2
        7.525685784E-2
        7.539613639E-2
        7.553552939E-2
        7.567503680E-2
        7.581465861E-2
        7.595439480E-2
        7.609424533E-2
        7.623421020E-2
        7.637428936E-2
        7.651448281E-2
        7.665479052E-2
        7.679521245E-2
        7.693574860E-2
        7.707639894E-2
        7.721716344E-2
        7.735804208E-2
        7.749903484E-2
        7.764014169E-2
        7.778136262E-2
        7.792269759E-2
        7.806414659E-2
        7.820570960E-2
        7.834738658E-2
        7.848917752E-2
        7.863108240E-2
        7.877310118E-2
        7.891523386E-2
        7.905748040E-2
        7.919984078E-2
        7.934231498E-2
        7.948490298E-2
        7.962760475E-2
        7.977042028E-2
        7.991334954E-2
        8.005639250E-2
        8.019954914E-2
        8.034281945E-2
        8.048620340E-2
        8.062970096E-2
        8.077331212E-2
        8.091703685E-2
        8.106087512E-2
        8.120482693E-2
        8.134889224E-2
        8.149307103E-2
        8.163736328E-2
        8.178176896E-2
        8.192628807E-2
        8.207092056E-2
        8.221566643E-2
        8.236052564E-2
        8.250549818E-2
        8.265058403E-2
        8.279578315E-2
        8.294109554E-2
        8.308652116E-2
        8.323206000E-2
        8.337771204E-2
        8.352347724E-2
        8.366935560E-2
        8.381534708E-2
        8.396145167E-2
        8.410766934E-2
        8.425400007E-2
        8.440044385E-2
        8.454700064E-2
        8.469367043E-2
