luts/LMT_ACES_LMT_sRGBScaled.spi1d
Version 1
From 0.000000 1.000000
Length 4096
Components 1
{
            0.000000000E+0
            3.113330437E-6
            8.956464059E-6
            1.661814447E-5
            2.576605666E-5
            3.620632292E-5
            4.780726513E-5
            6.047171853E-5
            7.412408195E-5
            8.870331342E-5
            1.041587575E-4
            1.204474808E-4
            1.375324787E-4
            1.553814172E-4
            1.739657208E-4
            1.932598923E-4
            2.132409936E-4
            2.338882422E-4
            2.551826909E-4
            2.771069718E-4
            2.996450865E-4
            3.227822343E-4
            3.465046691E-4
            3.707995788E-4
            3.956549834E-4
            4.210596486E-4
            4.470030107E-4
            4.734751119E-4
            5.004665446E-4
            5.279684019E-4
            5.559722345E-4
            5.844700124E-4
            6.134540918E-4
            6.429171838E-4
            6.728523288E-4
            7.032528713E-4
            7.341124387E-4
            7.654249219E-4
            7.971844568E-4
            8.293854092E-4
            8.620223590E-4
            8.950900879E-4
            9.285835665E-4
            9.624979432E-4
            9.968285341E-4
            1.031570813E-3
            1.066720404E-3
            1.102273070E-3
            1.138224712E-3
            1.174571352E-3
            1.211309139E-3
            1.248434330E-3
            1.285943295E-3
            1.323832506E-3
            1.362098534E-3
            1.400738044E-3
            1.439747791E-3
            1.479124617E-3
            1.518865444E-3
            1.558967274E-3
            1.599427185E-3
            1.640242325E-3
            1.681409913E-3
            1.722927235E-3
            1.764791639E-3
            1.807000536E-3
            1.849551394E-3
            1.892441741E-3
            1.935669156E-3
            1.979231274E-3
            2.023125779E-3
            2.067350404E-3
            2.111902930E-3
            2.156781184E-3
            2.201983034E-3
            2.247506396E-3
            2.293349222E-3
            2.339509508E-3
            2.385985285E-3
            2.432774623E-3
            2.479875629E-3
            2.527286445E-3
            2.575005244E-3
            2.623030236E-3
            2.671359661E-3
            2.719991789E-3
            2.768924922E-3
            2.818157390E-3
            2.867687552E-3
            2.917513795E-3
            2.967634531E-3
            3.018048201E-3
            3.068753269E-3
            3.119748225E-3
            3.171031581E-3
            3.222601876E-3
            3.274457668E-3
            3.326597539E-3
            3.379020093E-3
            3.431723955E-3
            3.484707770E-3
            3.537970203E-3
            3.591509938E-3
            3.645325680E-3
            3.699416151E-3
            3.753780091E-3
            3.808416260E-3
            3.863323432E-3
            3.918500400E-3
            3.973945973E-3
            4.029658978E-3
            4.085638254E-3
            4.141882658E-3
            4.198391063E-3
            4.255162354E-3
            4.312195432E-3
            4.369489213E-3
            4.427042624E-3
            4.484854610E-3
            4.542924124E-3
            4.601250136E-3
            4.659831627E-3
            4.718667591E-3
            4.777757033E-3
            4.837098973E-3
            4.896692438E-3
            4.956536471E-3
            5.016630124E-3
            5.076972460E-3
            5.137562554E-3
            5.198399489E-3
            5.259482362E-3
            5.320810278E-3
            5.382382352E-3
            5.444197710E-3
            5.506255486E-3
            5.568554826E-3
            5.631094882E-3
            5.693874817E-3
            5.756893804E-3
            5.820151023E-3
            5.883645664E-3
            5.947376923E-3
            6.011344008E-3
            6.075546132E-3
            6.139982518E-3
            6.204652396E-3
            6.269555005E-3
            6.334689590E-3
            6.400055404E-3
            6.465651709E-3
            6.531477771E-3
            6.597532868E-3
            6.663816279E-3
            6.730327296E-3
            6.797065214E-3
            6.864029335E-3
            6.931218968E-3
            6.998633431E-3
            7.066272044E-3
            7.134134136E-3
            7.202219042E-3
            7.270526103E-3
            7.339054666E-3
            7.407804083E-3
            7.476773714E-3
            7.545962921E-3
            7.615371076E-3
            7.684997553E-3
            7.754841735E-3
            7.824903007E-3
            7.895180761E-3
            7.965674394E-3
            8.036383309E-3
            8.107306913E-3
            8.178444618E-3
            8.249795841E-3
            8.321360006E-3
            8.393136538E-3
            8.465124869E-3
            8.537324437E-3
            8.609734683E-3
            8.682355051E-3
            8.755184992E-3
            8.828223961E-3
            8.901471417E-3
            8.974926823E-3
            9.048589647E-3
            9.122459361E-3
            9.196535440E-3
            9.270817364E-3
            9.345304619E-3
            9.419996691E-3
            9.494893073E-3
            9.569993260E-3
            9.645296753E-3
            9.720803055E-3
            9.796511673E-3
            9.872422118E-3
            9.948533906E-3
            1.002484655E-2
            1.010135958E-2
            1.017807252E-2
            1.025498489E-2
            1.033209623E-2
            1.040940608E-2
            1.048691397E-2
            1.056461944E-2
            1.064252204E-2
            1.072062132E-2
            1.079891684E-2
            1.087740814E-2
            1.095609478E-2
            1.103497633E-2
            1.111405235E-2
            1.119332241E-2
            1.127278608E-2
            1.135244292E-2
            1.143229253E-2
            1.151233447E-2
            1.159256832E-2
            1.167299369E-2
            1.175361014E-2
            1.183441727E-2
            1.191541467E-2
            1.199660195E-2
            1.207797869E-2
            1.215954450E-2
            1.224129898E-2
            1.232324173E-2
            1.240537238E-2
            1.248769052E-2
            1.257019577E-2
            1.265288775E-2
            1.273576607E-2
            1.281883036E-2
            1.290208024E-2
            1.298551534E-2
            1.306913528E-2
            1.315293969E-2
            1.323692820E-2
            1.332110046E-2
            1.340545610E-2
            1.348999475E-2
            1.357471606E-2
            1.365961967E-2
            1.374470523E-2
            1.382997239E-2
            1.391542079E-2
            1.400105009E-2
            1.408685995E-2
            1.417285001E-2
            1.425901994E-2
            1.434536939E-2
            1.443189803E-2
            1.451860553E-2
            1.460549154E-2
            1.469255575E-2
            1.477979781E-2
            1.486721740E-2
            1.495481419E-2
            1.504258786E-2
            1.513053809E-2
            1.521866455E-2
            1.530696692E-2
            1.539544490E-2
            1.548409816E-2
            1.557292639E-2
            1.566192928E-2
            1.575110651E-2
            1.584045779E-2
            1.592998279E-2
            1.601968123E-2
            1.610955279E-2
            1.619959717E-2
            1.628981407E-2
            1.638020319E-2
            1.647076424E-2
            1.656149692E-2
            1.665240094E-2
            1.674347600E-2
            1.683472182E-2
            1.692613810E-2
            1.701772456E-2
            1.710948090E-2
            1.720140686E-2
            1.729350213E-2
            1.738576645E-2
            1.747819953E-2
            1.757080109E-2
            1.766357085E-2
            1.775650854E-2
            1.784961388E-2
            1.794288661E-2
            1.803632644E-2
            1.812993311E-2
            1.822370634E-2
            1.831764588E-2
            1.841175146E-2
            1.850602280E-2
            1.860045964E-2
            1.869506173E-2
            1.878982880E-2
            1.888476059E-2
            1.897985685E-2
            1.907511731E-2
            1.917054171E-2
            1.926612981E-2
            1.936188135E-2
            1.945779608E-2
            1.955387375E-2
            1.965011410E-2
            1.974651688E-2
            1.984308186E-2
            1.993980878E-2
            2.003669739E-2
            2.013374746E-2
            2.023095874E-2
            2.032833099E-2
            2.042586396E-2
            2.052355742E-2
            2.062141113E-2
            2.071942484E-2
            2.081759834E-2
            2.091593137E-2
            2.101442370E-2
            2.111307511E-2
            2.121188535E-2
            2.131085420E-2
            2.140998143E-2
            2.150926681E-2
            2.160871011E-2
            2.170831110E-2
            2.180806956E-2
            2.190798527E-2
            2.200805799E-2
            2.210828750E-2
            2.220867359E-2
            2.230921603E-2
            2.240991460E-2
            2.251076908E-2
            2.261177926E-2
            2.271294492E-2
            2.281426584E-2
            2.291574180E-2
            2.301737259E-2
            2.311915800E-2
            2.322109781E-2
            2.332319182E-2
            2.342543981E-2
            2.352784157E-2
            2.363039690E-2
            2.373310558E-2
            2.383596740E-2
            2.393898217E-2
            2.404214967E-2
            2.414546970E-2
            2.424894206E-2
            2.435256655E-2
            2.445634295E-2
            2.456027108E-2
            2.466435072E-2
            2.476858169E-2
            2.487296377E-2
            2.497749678E-2
            2.508218051E-2
            2.518701478E-2
            2.529199937E-2
            2.539713410E-2
            2.550241878E-2
            2.560785321E-2
            2.571343720E-2
            2.581917055E-2
            2.592505308E-2
            2.603108459E-2
            2.613726490E-2
            2.624359382E-2
            2.635007115E-2
            2.645669671E-2
            2.656347032E-2
            2.667039179E-2
            2.677746093E-2
            2.688467756E-2
            2.699204150E-2
            2.709955256E-2
            2.720721055E-2
            2.731501531E-2
            2.742296664E-2
            2.753106438E-2
            2.763930832E-2
            2.774769831E-2
            2.785623416E-2
            2.796491569E-2
            2.807374273E-2
            2.818271510E-2
            2.829183262E-2
            2.840109512E-2
            2.851050243E-2
            2.862005437E-2
            2.872975077E-2
            2.883959145E-2
            2.894957625E-2
            2.905970500E-2
            2.916997751E-2
            2.928039364E-2
            2.939095319E-2
            2.950165602E-2
            2.961250194E-2
            2.972349079E-2
            2.983462241E-2
            2.994589662E-2
            3.005731327E-2
            3.016887219E-2
            3.028057320E-2
            3.039241616E-2
            3.050440090E-2
            3.061652725E-2
            3.072879505E-2
            3.084120414E-2
            3.095375437E-2
            3.106644556E-2
            3.117927756E-2
            3.129225022E-2
            3.140536336E-2
            3.151861684E-2
            3.163201050E-2
            3.174554417E-2
            3.185921771E-2
            3.197303096E-2
            3.208698376E-2
            3.220107595E-2
            3.231530739E-2
            3.242967792E-2
            3.254418739E-2
            3.265883564E-2
            3.277362252E-2
            3.288854787E-2
            3.300361156E-2
            3.311881343E-2
            3.323415332E-2
            3.334963110E-2
            3.346524660E-2
            3.358099968E-2
            3.369689019E-2
            3.381291799E-2
            3.392908293E-2
            3.404538486E-2
            3.416182363E-2
            3.427839911E-2
            3.439511113E-2
            3.451195957E-2
            3.462894427E-2
            3.474606509E-2
            3.486332189E-2
            3.498071453E-2
            3.509824286E-2
            3.521590674E-2
            3.533370603E-2
            3.545164059E-2
            3.556971028E-2
            3.568791495E-2
            3.580625447E-2
            3.592472871E-2
            3.604333751E-2
            3.616208074E-2
            3.628095827E-2
            3.639996996E-2
            3.651911567E-2
            3.663839525E-2
            3.675780859E-2
            3.687735554E-2
            3.699703597E-2
            3.711684973E-2
            3.723679671E-2
            3.735687675E-2
            3.747708974E-2
            3.759743553E-2
            3.771791400E-2
            3.783852500E-2
            3.795926842E-2
            3.808014412E-2
            3.820115196E-2
            3.832229181E-2
            3.844356356E-2
            3.856496706E-2
            3.868650218E-2
            3.880816880E-2
            3.892996679E-2
            3.905189603E-2
            3.917395637E-2
            3.929614770E-2
            3.941846988E-2
            3.954092279E-2
            3.966350631E-2
            3.978622031E-2
            3.990906466E-2
            4.003203924E-2
            4.015514392E-2
            4.027837857E-2
            4.040174308E-2
            4.052523732E-2
            4.064886117E-2
            4.077261450E-2
            4.089649719E-2
            4.102050912E-2
            4.114465016E-2
            4.126892020E-2
            4.139331911E-2
            4.151784677E-2
            4.164250307E-2
            4.176728788E-2
            4.189220107E-2
            4.201724254E-2
            4.214241217E-2
            4.226770982E-2
            4.239313539E-2
            4.251868876E-2
            4.264436981E-2
            4.277017842E-2
            4.289611448E-2
            4.302217786E-2
            4.314836845E-2
            4.327468614E-2
            4.340113081E-2
            4.352770234E-2
            4.365440063E-2
            4.378122554E-2
            4.390817698E-2
            4.403525482E-2
            4.416245895E-2
            4.428978925E-2
            4.441724563E-2
            4.454482795E-2
            4.467253611E-2
            4.480037000E-2
            4.492832951E-2
            4.505641451E-2
            4.518462491E-2
            4.531296059E-2
            4.544142143E-2
            4.557000734E-2
            4.569871819E-2
            4.582755389E-2
            4.595651431E-2
            4.608559935E-2
            4.621480891E-2
            4.634414286E-2
            4.647360111E-2
            4.660318355E-2
            4.673289006E-2
            4.686272055E-2
            4.699267489E-2
            4.712275300E-2
            4.725295475E-2
            4.738328005E-2
            4.751372878E-2
            4.764430084E-2
            4.777499614E-2
            4.790581455E-2
            4.803675597E-2
            4.816782031E-2
            4.829900746E-2
            4.843031730E-2
            4.856174975E-2
            4.869330469E-2
            4.882498202E-2
            4.895678164E-2
            4.908870344E-2
            4.922074733E-2
            4.935291320E-2
            4.948520095E-2
            4.961761047E-2
            4.975014168E-2
            4.988279445E-2
            5.001556870E-2
            5.014846432E-2
            5.028148122E-2
            5.041461928E-2
            5.054787842E-2
            5.068125853E-2
            5.081475952E-2
            5.094838128E-2
            5.108212371E-2
            5.121598673E-2
            5.134997022E-2
            5.148407409E-2
            5.161829824E-2
            5.175264257E-2
            5.188710700E-2
            5.202169141E-2
            5.215639572E-2
            5.229121982E-2
            5.242616362E-2
            5.256122703E-2
            5.269640995E-2
            5.283171227E-2
            5.296713392E-2
            5.310267478E-2
            5.323833477E-2
            5.337411380E-2
            5.351001176E-2
            5.364602856E-2
            5.378216411E-2
            5.391841832E-2
            5.405479108E-2
            5.419128232E-2
            5.432789193E-2
            5.446461982E-2
            5.460146590E-2
            5.473843008E-2
            5.487551226E-2
            5.501271236E-2
            5.515003027E-2
            5.528746592E-2
            5.542501920E-2
            5.556269003E-2
            5.570047831E-2
            5.583838396E-2
            5.597640688E-2
            5.611454698E-2
            5.625280419E-2
            5.639117839E-2
            5.652966951E-2
            5.666827745E-2
            5.680700213E-2
            5.694584346E-2
            5.708480134E-2
            5.722387570E-2
            5.736306643E-2
            5.750237346E-2
            5.764179669E-2
            5.778133604E-2
            5.792099142E-2
            5.806076274E-2
            5.820064992E-2
            5.834065287E-2
            5.848077149E-2
            5.862100572E-2
            5.876135545E-2
            5.890182060E-2
            5.904240109E-2
            5.918309683E-2
            5.932390774E-2
            5.946483372E-2
            5.960587470E-2
            5.974703060E-2
            5.988830131E-2
            6.002968677E-2
            6.017118688E-2
            6.031280157E-2
            6.045453074E-2
            6.059637432E-2
            6.073833222E-2
            6.088040435E-2
            6.102259064E-2
            6.116489100E-2
            6.130730535E-2
            6.144983361E-2
            6.159247568E-2
            6.173523150E-2
            6.187810098E-2
            6.202108403E-2
            6.216418058E-2
            6.230739054E-2
            6.245071384E-2
            6.259415038E-2
            6.273770010E-2
            6.288136290E-2
            6.302513871E-2
            6.316902745E-2
            6.331302904E-2
            6.345714339E-2
            6.360137044E-2
            6.374571009E-2
            6.389016227E-2
            6.403472689E-2
            6.417940389E-2
            6.432419318E-2
            6.446909467E-2
            6.461410831E-2
            6.475923399E-2
            6.490447165E-2
            6.504982121E-2
            6.519528259E-2
            6.534085571E-2
            6.548654049E-2
            6.563233686E-2
            6.577824474E-2
            6.592426405E-2
            6.607039472E-2
            6.621663666E-2
            6.636298980E-2
            6.650945407E-2
            6.665602939E-2
            6.680271568E-2
            6.694951286E-2
            6.709642087E-2
            6.724343962E-2
            6.739056904E-2
            6.753780905E-2
            6.768515958E-2
            6.783262055E-2
            6.798019189E-2
            6.812787352E-2
            6.827566537E-2
            6.842356737E-2
            6.857157943E-2
            6.871970149E-2
            6.886793347E-2
            6.901627530E-2
            6.916472691E-2
            6.931328821E-2
            6.946195914E-2
            6.961073963E-2
            6.975962959E-2
            6.990862897E-2
            7.005773767E-2
            7.020695564E-2
            7.035628280E-2
            7.050571908E-2
            7.065526440E-2
            7.080491870E-2
            7.095468190E-2
            7.110455392E-2
            7.125453471E-2
            7.140462418E-2
            7.155482227E-2
            7.170512890E-2
            7.185554400E-2
            7.200606751E-2
            7.215669934E-2
            7.230743944E-2
            7.245828773E-2
            7.260924414E-2
            7.276030860E-2
            7.291148103E-2
            7.306276138E-2
            7.321414957E-2
            7.336564553E-2
            7.351724919E-2
            7.366896048E-2
            7.382077933E-2
            7.397270568E-2
            7.412473945E-2
            7.427688058E-2
            7.442912900E-2
            7.458148463E-2
            7.473394742E-2
            7.488651728E-2
            7.503919416E-2
            7.519197799E-2
            7.534486869E-2
            7.549786621E-2
            7.565097047E-2
            7.580418140E-2
            7.595749894E-2
            7.611092303E-2
            7.626445358E-2
            7.641809055E-2
            7.657183385E-2
            7.672568343E-2
            7.687963922E-2
            7.703370114E-2
            7.718786914E-2
            7.734214315E-2
            7.749652310E-2
            7.765100893E-2
            7.780560057E-2
            7.796029795E-2
            7.811510102E-2
            7.827000970E-2
            7.842502392E-2
            7.858014363E-2
            7.873536876E-2
            7.889069925E-2
            7.904613502E-2
            7.920167602E-2
            7.935732217E-2
            7.951307343E-2
            7.966892971E-2
            7.982489096E-2
            7.998095712E-2
            8.013712811E-2
            8.029340388E-2
            8.044978437E-2
            8.060626950E-2
            8.076285921E-2
            8.091955345E-2
            8.107635215E-2
            8.123325524E-2
            8.139026267E-2
            8.154737436E-2
            8.170459026E-2
            8.186191031E-2
            8.201933444E-2
            8.217686258E-2
            8.233449469E-2
            8.249223069E-2
            8.265007052E-2
            8.280801413E-2
            8.296606144E-2
            8.312421241E-2
            8.328246696E-2
            8.344082503E-2
            8.359928657E-2
            8.375785151E-2
            8.391651979E-2
            8.407529135E-2
            8.423416613E-2
            8.439314407E-2
            8.455222511E-2
            8.471140918E-2
            8.487069624E-2
            8.503008621E-2
            8.518957903E-2
            8.534917465E-2
            8.550887301E-2
            8.566867405E-2
            8.582857770E-2
            8.598858391E-2
            8.614869261E-2
            8.630890376E-2
            8.646921728E-2
            8.662963312E-2
            8.679015123E-2
            8.695077153E-2
            8.711149398E-2
            8.727231851E-2
            8.743324506E-2
            8.759427358E-2
            8.775540401E-2
            8.791663629E-2
            8.807797036E-2
            8.823940616E-2
            8.840094363E-2
            8.856258273E-2
            8.872432338E-2
            8.888616553E-2
            8.904810913E-2
            8.921015411E-2
            8.937230042E-2
            8.953454800E-2
            8.969689679E-2
            8.985934674E-2
            9.002189779E-2
            9.018454989E-2
            9.034730296E-2
            9.051015697E-2
            9.067311185E-2
            9.083616754E-2
            9.099932400E-2
            9.116258115E-2
            9.132593895E-2
            9.148939734E-2
            9.165295627E-2
            9.181661567E-2
            9.198037550E-2
            9.214423569E-2
            9.230819620E-2
            9.247225695E-2
            9.263641791E-2
            9.280067901E-2
            9.296504020E-2
            9.312950143E-2
            9.329406263E-2
            9.345872375E-2
            9.362348475E-2
            9.378834555E-2
            9.395330612E-2
            9.411836639E-2
            9.428352631E-2
            9.444878582E-2
            9.461414488E-2
            9.477960342E-2
            9.494516139E-2
            9.511081874E-2
            9.527657542E-2
            9.544243136E-2
            9.560838652E-2
            9.577444085E-2
            9.594059428E-2
            9.610684677E-2
            9.627319826E-2
            9.643964869E-2
            9.660619803E-2
            9.677284620E-2
