luts/sRGB-albedo.spi1d
Version 1
From 0.000000 1.000000
Length 4096
Components 1
{
        0.000000000E+0
        1.081976960E-5
        1.085003038E-5
        1.088037580E-5
        1.091080608E-5
        1.094132147E-5
        1.097192221E-5
        1.100260853E-5
        1.103338068E-5
        1.106423888E-5
        1.109518340E-5
        1.112621446E-5
        1.115733230E-5
        1.118853718E-5
        1.121982933E-5
        1.125120900E-5
        1.128267643E-5
        1.131423187E-5
        1.134587557E-5
        1.137760776E-5
        1.140942871E-5
        1.144133865E-5
        1.147333784E-5
        1.150542652E-5
        1.153760495E-5
        1.156987338E-5
        1.160223205E-5
        1.163468122E-5
        1.166722115E-5
        1.169985209E-5
        1.173257429E-5
        1.176538801E-5
        1.179829350E-5
        1.183129102E-5
        1.186438082E-5
        1.189756318E-5
        1.193083834E-5
        1.196420656E-5
        1.199766811E-5
        1.203122324E-5
        1.206487222E-5
        1.209861531E-5
        1.213245277E-5
        1.216638487E-5
        1.220041187E-5
        1.223453403E-5
        1.226875163E-5
        1.230306493E-5
        1.233747420E-5
        1.237197970E-5
        1.240658171E-5
        1.244128050E-5
        1.247607633E-5
        1.251096947E-5
        1.254596021E-5
        1.258104881E-5
        1.261623554E-5
        1.265152068E-5
        1.268690451E-5
        1.272238731E-5
        1.275796934E-5
        1.279365088E-5
        1.282943222E-5
        1.286531364E-5
        1.290129540E-5
        1.293737781E-5
        1.297356112E-5
        1.300984564E-5
        1.304623163E-5
        1.308271939E-5
        1.311930920E-5
        1.315600134E-5
        1.319279611E-5
        1.322969378E-5
        1.326669465E-5
        1.330379900E-5
        1.334100712E-5
        1.337831931E-5
        1.341573585E-5
        1.345325704E-5
        1.349088317E-5
        1.352861454E-5
        1.356645143E-5
        1.360439414E-5
        1.364244297E-5
        1.368059822E-5
        1.371886018E-5
        1.375722915E-5
        1.379570543E-5
        1.383428932E-5
        1.387298112E-5
        1.391178114E-5
        1.395068967E-5
        1.398970702E-5
        1.402883350E-5
        1.406806940E-5
        1.410741504E-5
        1.414687072E-5
        1.418643675E-5
        1.422611344E-5
        1.426590110E-5
        1.430580004E-5
        1.434581057E-5
        1.438593299E-5
        1.442616764E-5
        1.446651481E-5
        1.450697482E-5
        1.454754799E-5
        1.458823464E-5
        1.462903508E-5
        1.466994963E-5
        1.471097861E-5
        1.475212234E-5
        1.479338115E-5
        1.483475534E-5
        1.487624525E-5
        1.491785120E-5
        1.495957352E-5
        1.500141252E-5
        1.504336854E-5
        1.508544190E-5
        1.512763293E-5
        1.516994196E-5
        1.521236932E-5
        1.525491535E-5
        1.529758036E-5
        1.534036470E-5
        1.538326871E-5
        1.542629270E-5
        1.546943703E-5
        1.551270202E-5
        1.555608801E-5
        1.559959535E-5
        1.564322437E-5
        1.568697541E-5
        1.573084881E-5
        1.577484492E-5
        1.581896408E-5
        1.586320663E-5
        1.590757292E-5
        1.595206329E-5
        1.599667809E-5
        1.604141767E-5
        1.608628238E-5
        1.613127257E-5
        1.617638858E-5
        1.622163078E-5
        1.626699951E-5
        1.631249513E-5
        1.635811799E-5
        1.640386845E-5
        1.644974686E-5
        1.649575359E-5
        1.654188898E-5
        1.658815341E-5
        1.663454724E-5
        1.668107081E-5
        1.672772451E-5
        1.677450868E-5
        1.682142370E-5
        1.686846994E-5
        1.691564775E-5
        1.696295751E-5
        1.701039958E-5
        1.705797435E-5
        1.710568217E-5
        1.715352342E-5
        1.720149847E-5
        1.724960770E-5
        1.729785148E-5
        1.734623019E-5
        1.739474420E-5
        1.744339390E-5
        1.749217966E-5
        1.754110187E-5
        1.759016090E-5
        1.763935714E-5
        1.768869098E-5
        1.773816279E-5
        1.778777296E-5
        1.783752188E-5
        1.788740995E-5
        1.793743753E-5
        1.798760504E-5
        1.803791286E-5
        1.808836137E-5
        1.813895098E-5
        1.818968208E-5
        1.824055507E-5
        1.829157033E-5
        1.834272828E-5
        1.839402931E-5
        1.844547381E-5
        1.849706219E-5
        1.854879486E-5
        1.860067221E-5
        1.865269466E-5
        1.870486260E-5
        1.875717644E-5
        1.880963660E-5
        1.886224347E-5
        1.891499748E-5
        1.896789903E-5
        1.902094854E-5
        1.907414641E-5
        1.912749307E-5
        1.918098893E-5
        1.923463441E-5
        1.928842992E-5
        1.934237589E-5
        1.939647273E-5
        1.945072087E-5
        1.950512074E-5
        1.955967275E-5
        1.961437733E-5
        1.966923491E-5
        1.972424591E-5
        1.977941077E-5
        1.983472992E-5
        1.989020378E-5
        1.994583279E-5
        2.000161738E-5
        2.005755800E-5
        2.011365507E-5
        2.016990903E-5
        2.022632032E-5
        2.028288938E-5
        2.033961666E-5
        2.039650259E-5
        2.045354762E-5
        2.051075220E-5
        2.056811676E-5
        2.062564176E-5
        2.068332765E-5
        2.074117487E-5
        2.079918389E-5
        2.085735514E-5
        2.091568908E-5
        2.097418618E-5
        2.103284687E-5
        2.109167164E-5
        2.115066092E-5
        2.120981518E-5
        2.126913489E-5
        2.132862050E-5
        2.138827248E-5
        2.144809130E-5
        2.150807742E-5
        2.156823131E-5
        2.162855343E-5
        2.168904427E-5
        2.174970428E-5
        2.181053396E-5
        2.187153376E-5
        2.193270416E-5
        2.199404565E-5
        2.205555869E-5
        2.211724378E-5
        2.217910138E-5
        2.224113200E-5
        2.230333609E-5
        2.236571416E-5
        2.242826669E-5
        2.249099417E-5
        2.255389709E-5
        2.261697593E-5
        2.268023119E-5
        2.274366336E-5
        2.280727294E-5
        2.287106042E-5
        2.293502631E-5
        2.299917109E-5
        2.306349528E-5
        2.312799937E-5
        2.319268386E-5
        2.325754926E-5
        2.332259608E-5
        2.338782482E-5
        2.345323600E-5
        2.351883011E-5
        2.358460768E-5
        2.365056922E-5
        2.371671524E-5
        2.378304626E-5
        2.384956279E-5
        2.391626535E-5
        2.398315447E-5
        2.405023066E-5
        2.411749446E-5
        2.418494637E-5
        2.425258694E-5
        2.432041669E-5
        2.438843614E-5
        2.445664583E-5
        2.452504628E-5
        2.459363804E-5
        2.466242164E-5
        2.473139761E-5
        2.480056650E-5
        2.486992883E-5
        2.493948516E-5
        2.500923603E-5
        2.507918197E-5
        2.514932354E-5
        2.521966128E-5
        2.529019574E-5
        2.536092748E-5
        2.543185703E-5
        2.550298497E-5
        2.557431183E-5
        2.564583818E-5
        2.571756458E-5
        2.578949158E-5
        2.586161974E-5
        2.593394964E-5
        2.600648182E-5
        2.607921687E-5
        2.615215534E-5
        2.622529781E-5
        2.629864484E-5
        2.637219701E-5
        2.644595489E-5
        2.651991905E-5
        2.659409008E-5
        2.666846855E-5
        2.674305505E-5
        2.681785014E-5
        2.689285443E-5
        2.696806848E-5
        2.704349290E-5
        2.711912826E-5
        2.719497516E-5
        2.727103419E-5
        2.734730594E-5
        2.742379101E-5
        2.750048999E-5
        2.757740349E-5
        2.765453209E-5
        2.773187641E-5
        2.780943705E-5
        2.788721461E-5
        2.796520970E-5
        2.804342292E-5
        2.812185489E-5
        2.820050622E-5
        2.827937753E-5
        2.835846942E-5
        2.843778251E-5
        2.851731743E-5
        2.859707479E-5
        2.867705522E-5
        2.875725934E-5
        2.883768777E-5
        2.891834115E-5
        2.899922009E-5
        2.908032524E-5
        2.916165723E-5
        2.924321668E-5
        2.932500424E-5
        2.940702055E-5
        2.948926623E-5
        2.957174195E-5
        2.965444833E-5
        2.973738602E-5
        2.982055568E-5
        2.990395794E-5
        2.998759347E-5
        3.007146290E-5
        3.015556691E-5
        3.023990613E-5
        3.032448124E-5
        3.040929288E-5
        3.049434173E-5
        3.057962844E-5
        3.066515369E-5
        3.075091813E-5
        3.083692243E-5
        3.092316728E-5
        3.100965333E-5
        3.109638127E-5
        3.118335177E-5
        3.127056551E-5
        3.135802316E-5
        3.144572542E-5
        3.153367297E-5
        3.162186649E-5
        3.171030667E-5
        3.179899420E-5
        3.188792977E-5
        3.197711407E-5
        3.206654781E-5
        3.215623168E-5
        3.224616637E-5
        3.233635259E-5
        3.242679105E-5
        3.251748245E-5
        3.260842749E-5
        3.269962688E-5
        3.279108135E-5
        3.288279159E-5
        3.297475833E-5
        3.306698228E-5
        3.315946417E-5
        3.325220471E-5
        3.334520462E-5
        3.343846464E-5
        3.353198549E-5
        3.362576790E-5
        3.371981260E-5
        3.381412032E-5
        3.390869181E-5
        3.400352779E-5
        3.409862901E-5
        3.419399621E-5
        3.428963013E-5
        3.438553152E-5
        3.448170113E-5
        3.457813971E-5
        3.467484801E-5
        3.477182678E-5
        3.486907678E-5
        3.496659877E-5
        3.506439351E-5
        3.516246177E-5
        3.526080430E-5
        3.535942187E-5
        3.545831526E-5
        3.555748524E-5
        3.565693258E-5
        3.575665805E-5
        3.585666243E-5
        3.595694650E-5
        3.605751105E-5
        3.615835686E-5
        3.625948472E-5
        3.636089541E-5
        3.646258972E-5
        3.656456846E-5
        3.666683241E-5
        3.676938237E-5
        3.687221915E-5
        3.697534354E-5
        3.707875634E-5
        3.718245838E-5
        3.728645044E-5
        3.739073336E-5
        3.749530793E-5
        3.760017497E-5
        3.770533531E-5
        3.781078976E-5
        3.791653915E-5
        3.802258430E-5
        3.812892603E-5
        3.823556519E-5
        3.834250259E-5
        3.844973907E-5
        3.855727548E-5
        3.866511264E-5
        3.877325140E-5
        3.888169260E-5
        3.899043710E-5
        3.909948573E-5
        3.920883934E-5
        3.931849880E-5
        3.942846496E-5
        3.953873867E-5
        3.964932079E-5
        3.976021219E-5
        3.987141373E-5
        3.998292628E-5
        4.009475071E-5
        4.020688789E-5
        4.031933869E-5
        4.043210400E-5
        4.054518469E-5
        4.065858165E-5
        4.077229575E-5
        4.088632789E-5
        4.100067896E-5
        4.111534984E-5
        4.123034144E-5
        4.134565464E-5
        4.146129035E-5
        4.157724948E-5
        4.169353292E-5
        4.181014158E-5
        4.192707637E-5
        4.204433821E-5
        4.216192800E-5
        4.227984667E-5
        4.239809514E-5
        4.251667432E-5
        4.263558515E-5
        4.275482854E-5
        4.287440544E-5
        4.299431677E-5
        4.311456347E-5
        4.323514648E-5
        4.335606673E-5
        4.347732517E-5
        4.359892275E-5
        4.372086041E-5
        4.384313911E-5
        4.396575980E-5
        4.408872344E-5
        4.421203098E-5
        4.433568339E-5
        4.445968163E-5
        4.458402666E-5
        4.470871947E-5
        4.483376102E-5
        4.495915228E-5
        4.508489424E-5
        4.521098788E-5
        4.533743417E-5
        4.546423411E-5
        4.559138869E-5
        4.571889889E-5
        4.584676571E-5
        4.597499015E-5
        4.610357321E-5
        4.623251589E-5
        4.636181920E-5
        4.649148415E-5
        4.662151174E-5
        4.675190299E-5
        4.688265893E-5
        4.701378056E-5
        4.714526891E-5
        4.727712501E-5
        4.740934989E-5
        4.754194457E-5
        4.767491010E-5
        4.780824750E-5
        4.794195782E-5
        4.807604211E-5
        4.821050140E-5
        4.834533675E-5
        4.848054920E-5
        4.861613982E-5
        4.875210966E-5
        4.888845978E-5
        4.902519125E-5
        4.916230512E-5
        4.929980248E-5
        4.943768439E-5
        4.957595193E-5
        4.971460617E-5
        4.985364821E-5
        4.999307911E-5
        5.013289998E-5
        5.027311190E-5
        5.041371597E-5
        5.055471328E-5
        5.069610493E-5
        5.083789202E-5
        5.098007567E-5
        5.112265697E-5
        5.126563705E-5
        5.140901702E-5
        5.155279799E-5
        5.169698109E-5
        5.184156743E-5
        5.198655816E-5
        5.213195440E-5
        5.227775729E-5
        5.242396796E-5
        5.257058755E-5
        5.271761720E-5
        5.286505807E-5
        5.301291131E-5
        5.316117805E-5
        5.330985948E-5
        5.345895673E-5
        5.360847098E-5
        5.375840340E-5
        5.390875514E-5
        5.405952739E-5
        5.421072132E-5
        5.436233811E-5
        5.451437894E-5
        5.466684500E-5
        5.481973748E-5
        5.497305757E-5
        5.512680647E-5
        5.528098537E-5
        5.543559548E-5
        5.559063800E-5
        5.574611415E-5
        5.590202513E-5
        5.605837217E-5
        5.621515647E-5
        5.637237928E-5
        5.653004180E-5
        5.668814528E-5
        5.684669094E-5
        5.700568002E-5
        5.716511376E-5
        5.732499341E-5
        5.748532021E-5
        5.764609541E-5
        5.780732027E-5
        5.796899605E-5
        5.813112400E-5
        5.829370539E-5
        5.845674148E-5
        5.862023356E-5
        5.878418290E-5
        5.894859076E-5
        5.911345845E-5
        5.927878723E-5
        5.944457841E-5
        5.961083328E-5
        5.977755313E-5
        5.994473926E-5
        6.011239297E-5
        6.028051558E-5
        6.044910840E-5
        6.061817274E-5
        6.078770992E-5
        6.095772126E-5
        6.112820809E-5
        6.129917174E-5
        6.147061354E-5
        6.164253483E-5
        6.181493695E-5
        6.198782124E-5
        6.216118906E-5
        6.233504175E-5
        6.250938068E-5
        6.268420720E-5
        6.285952267E-5
        6.303532847E-5
        6.321162596E-5
        6.338841652E-5
        6.356570153E-5
        6.374348237E-5
        6.392176043E-5
        6.410053709E-5
        6.427981376E-5
        6.445959184E-5
        6.463987271E-5
        6.482065780E-5
        6.500194851E-5
        6.518374625E-5
        6.536605245E-5
        6.554886852E-5
        6.573219589E-5
        6.591603599E-5
        6.610039026E-5
        6.628526013E-5
        6.647064704E-5
        6.665655245E-5
        6.684297779E-5
        6.702992454E-5
        6.721739413E-5
        6.740538804E-5
        6.759390773E-5
        6.778295468E-5
        6.797253035E-5
        6.816263623E-5
        6.835327380E-5
        6.854444455E-5
        6.873614996E-5
        6.892839153E-5
        6.912117077E-5
        6.931448917E-5
        6.950834824E-5
        6.970274951E-5
        6.989769447E-5
        7.009318466E-5
        7.028922159E-5
        7.048580680E-5
        7.068294183E-5
        7.088062820E-5
        7.107886746E-5
        7.127766115E-5
        7.147701084E-5
        7.167691806E-5
        7.187738439E-5
        7.207841138E-5
        7.228000061E-5
        7.248215364E-5
        7.268487206E-5
        7.288815743E-5
        7.309201136E-5
        7.329643543E-5
        7.350143123E-5
        7.370700036E-5
        7.391314443E-5
        7.411986505E-5
        7.432716382E-5
        7.453504237E-5
        7.474350231E-5
        7.495254528E-5
        7.516217289E-5
        7.537238680E-5
        7.558318863E-5
        7.579458003E-5
        7.600656265E-5
        7.621913815E-5
        7.643230818E-5
        7.664607440E-5
        7.686043849E-5
        7.707540211E-5
        7.729096694E-5
        7.750713467E-5
        7.772390697E-5
        7.794128555E-5
        7.815927208E-5
        7.837786829E-5
        7.859707586E-5
        7.881689652E-5
        7.903733197E-5
        7.925838394E-5
        7.948005414E-5
        7.970234432E-5
        7.992525619E-5
        8.014879151E-5
        8.037295201E-5
        8.059773945E-5
        8.082315557E-5
        8.104920213E-5
        8.127588091E-5
        8.150319366E-5
        8.173114216E-5
        8.195972818E-5
        8.218895352E-5
        8.241881996E-5
        8.264932928E-5
        8.288048330E-5
        8.311228381E-5
        8.334473262E-5
        8.357783154E-5
        8.381158240E-5
        8.404598701E-5
        8.428104721E-5
        8.451676482E-5
        8.475314169E-5
        8.499017966E-5
        8.522788057E-5
        8.546624630E-5
        8.570527868E-5
        8.594497959E-5
        8.618535089E-5
        8.642639447E-5
        8.666811220E-5
        8.691050597E-5
        8.715357766E-5
        8.739732918E-5
        8.764176243E-5
        8.788687930E-5
        8.813268172E-5
        8.837917161E-5
        8.862635087E-5
        8.887422145E-5
        8.912278527E-5
        8.937204428E-5
        8.962200042E-5
        8.987265563E-5
        9.012401188E-5
        9.037607112E-5
        9.062883532E-5
        9.088230646E-5
        9.113648650E-5
        9.139137744E-5
        9.164698126E-5
        9.190329995E-5
        9.216033551E-5
        9.241808995E-5
        9.267656528E-5
        9.293576352E-5
        9.319568668E-5
        9.345633680E-5
        9.371771590E-5
        9.397982603E-5
        9.424266923E-5
        9.450624756E-5
        9.477056306E-5
        9.503561779E-5
        9.530141384E-5
        9.556795326E-5
        9.583523814E-5
        9.610327057E-5
        9.637205263E-5
        9.664158642E-5
        9.691187405E-5
        9.718291761E-5
        9.745471923E-5
        9.772728103E-5
        9.800060513E-5
        9.827469367E-5
        9.854954877E-5
        9.882517260E-5
        9.910156728E-5
        9.937873499E-5
        9.965667789E-5
        9.993539813E-5
        1.002148979E-4
        1.004951794E-4
        1.007762448E-4
        1.010580962E-4
        1.013407359E-4
        1.016241662E-4
        1.019083891E-4
        1.021934069E-4
        1.024792219E-4
        1.027658363E-4
        1.030532522E-4
        1.033414720E-4
        1.036304979E-4
        1.039203322E-4
        1.042109770E-4
        1.045024348E-4
        1.047947076E-4
        1.050877979E-4
        1.053817080E-4
        1.056764400E-4
        1.059719964E-4
        1.062683793E-4
        1.065655912E-4
        1.068636343E-4
        1.071625110E-4
        1.074622236E-4
        1.077627744E-4
        1.080641658E-4
        1.083664002E-4
        1.086694798E-4
        1.089734071E-4
        1.092781844E-4
        1.095838142E-4
        1.098902987E-4
        1.101976403E-4
        1.105058416E-4
        1.108149048E-4
        1.111248325E-4
        1.114356269E-4
        1.117472906E-4
        1.120598259E-4
        1.123732353E-4
        1.126875213E-4
        1.130026863E-4
        1.133187327E-4
        1.136356630E-4
        1.139534798E-4
        1.142721854E-4
        1.145917823E-4
        1.149122731E-4
        1.152336603E-4
        1.155559463E-4
        1.158791337E-4
        1.162032250E-4
        1.165282227E-4
        1.168541294E-4
        1.171809475E-4
        1.175086797E-4
        1.178373285E-4
        1.181668965E-4
        1.184973862E-4
        1.188288002E-4
        1.191611411E-4
        1.194944116E-4
        1.198286141E-4
        1.201637513E-4
        1.204998258E-4
        1.208368403E-4
        1.211747973E-4
        1.215136995E-4
        1.218535496E-4
        1.221943501E-4
        1.225361038E-4
        1.228788134E-4
        1.232224814E-4
        1.235671106E-4
        1.239127036E-4
        1.242592632E-4
        1.246067921E-4
        1.249552929E-4
        1.253047685E-4
        1.256552214E-4
        1.260066545E-4
        1.263590705E-4
        1.267124721E-4
        1.270668621E-4
        1.274222433E-4
        1.277786184E-4
        1.281359902E-4
        1.284943615E-4
        1.288537351E-4
        1.292141138E-4
        1.295755004E-4
        1.299378978E-4
        1.303013087E-4
        1.306657360E-4
        1.310311825E-4
        1.313976511E-4
        1.317651446E-4
        1.321336660E-4
        1.325032180E-4
        1.328738036E-4
        1.332454257E-4
        1.336180871E-4
        1.339917907E-4
        1.343665396E-4
        1.347423365E-4
        1.351191845E-4
        1.354970864E-4
        1.358760453E-4
        1.362560640E-4
        1.366371456E-4
        1.370192930E-4
        1.374025092E-4
        1.377867971E-4
        1.381721599E-4
        1.385586004E-4
        1.389461217E-4
        1.393347269E-4
        1.397244188E-4
        1.401152007E-4
        1.405070756E-4
        1.409000464E-4
        1.412941163E-4
        1.416892883E-4
        1.420855655E-4
        1.424829511E-4
        1.428814480E-4
        1.432810595E-4
        1.436817886E-4
        1.440836385E-4
        1.444866123E-4
        1.448907131E-4
        1.452959441E-4
        1.457023084E-4
        1.461098093E-4
        1.465184499E-4
        1.469282333E-4
        1.473391629E-4
        1.477512417E-4
        1.481644731E-4
        1.485788601E-4
        1.489944061E-4
        1.494111144E-4
        1.498289881E-4
        1.502480304E-4
        1.506682448E-4
        1.510896344E-4
        1.515122026E-4
        1.519359526E-4
        1.523608878E-4
        1.527870114E-4
        1.532143268E-4
        1.536428373E-4
        1.540725463E-4
        1.545034571E-4
        1.549355731E-4
        1.553688976E-4
        1.558034340E-4
        1.562391857E-4
        1.566761562E-4
        1.571143488E-4
        1.575537669E-4
        1.579944140E-4
        1.584362935E-4
        1.588794088E-4
        1.593237635E-4
        1.597693609E-4
        1.602162046E-4
        1.606642980E-4
        1.611136446E-4
        1.615642480E-4
        1.620161116E-4
        1.624692390E-4
        1.629236337E-4
        1.633792992E-4
        1.638362392E-4
        1.642944571E-4
        1.647539566E-4
        1.652147412E-4
        1.656768145E-4
        1.661401802E-4
        1.666048418E-4
        1.670708030E-4
        1.675380673E-4
        1.680066386E-4
        1.684765203E-4
        1.689477162E-4
        1.694202299E-4
        1.698940652E-4
        1.703692257E-4
        1.708457151E-4
        1.713235371E-4
        1.718026956E-4
        1.722831941E-4
        1.727650366E-4
        1.732482266E-4
        1.737327680E-4
        1.742186646E-4
        1.747059201E-4
        1.751945385E-4
        1.756845233E-4
        1.761758786E-4
        1.766686081E-4
        1.771627156E-4
        1.776582051E-4
        1.781550804E-4
        1.786533453E-4
        1.791530038E-4
        1.796540597E-4
        1.801565170E-4
        1.806603796E-4
        1.811656513E-4
        1.816723363E-4
        1.821804383E-4
        1.826899613E-4
        1.832009094E-4
        1.837132866E-4
        1.842270967E-4
        1.847423439E-4
        1.852590321E-4
        1.857771654E-4
        1.862967478E-4
        1.868177834E-4
        1.873402762E-4
        1.878642304E-4
        1.883896499E-4
        1.889165389E-4
        1.894449015E-4
        1.899747419E-4
        1.905060641E-4
        1.910388723E-4
        1.915731707E-4
        1.921089634E-4
        1.926462546E-4
        1.931850485E-4
        1.937253494E-4
        1.942671613E-4
        1.948104886E-4
        1.953553354E-4
        1.959017061E-4
        1.964496049E-4
